; generated by PrusaSlicer 2.4.2 on 2022-07-13 at 03:28:40 UTC

; 

; external perimeters extrusion width = 0.45mm
; perimeters extrusion width = 0.45mm
; infill extrusion width = 0.45mm
; solid infill extrusion width = 0.45mm
; top infill extrusion width = 0.40mm
; first layer extrusion width = 0.42mm

M107
M190 S60 ; set bed temperature and wait for it to be reached
M104 S215 ; set temperature
;TYPE:Custom
G28 ; home all axes
G1 Z5 F5000 ; lift nozzle
M109 S215 ; set temperature and wait for it to be reached
G21 ; set units to millimeters
G90 ; use absolute coordinates
M82 ; use absolute distances for extrusion
G92 E0
; Filament gcode
M107
;LAYER_CHANGE
;Z:0.35
;HEIGHT:0.35
G1 Z.35 F7800
G1 E-2 F2400
G92 E0
G1 X146.132 Y166.253 F7800
G1 E2 F2400
;TYPE:Skirt/Brim
;WIDTH:0.42
G1 F1800
G1 X147.874 Y164.839 E2.11262
G1 X150.939 Y164.05 E2.27146
G1 X199.067 Y164.086 E4.68679
G1 X201.275 Y164.485 E4.79941
G1 X203.207 Y165.628 E4.91204
G1 X204.619 Y167.371 E5.02466
G1 X205.406 Y170.431 E5.18321
G1 X205.406 Y179.605 E5.64362
G1 X205.009 Y181.814 E5.75624
G1 X203.868 Y183.747 E5.86886
G1 X202.126 Y185.161 E5.98148
G1 X199.061 Y185.95 E6.14032
G1 X150.953 Y185.95 E8.55464
G1 X148.745 Y185.553 E8.66726
G1 X146.812 Y184.413 E8.77988
G1 X145.398 Y182.67 E8.89251
G1 X144.609 Y179.658 E9.04876
G1 X144.594 Y170.395 E9.51368
G1 X144.991 Y168.186 E9.6263
G1 X146.101 Y166.305 E9.73591
G1 E7.73591 F2400
G92 E0
G1 X151.84 Y171.294 F7800
G1 E2 F2400
;TYPE:Perimeter
G1 F1800
G1 X158.539 Y171.294 E2.3362
G1 X158.539 Y171.331 E2.33804
G1 X198.161 Y171.331 E4.3265
G1 X198.161 Y178.706 E4.6966
G1 X151.852 Y178.706 E7.02068
G1 X151.84 Y171.354 E7.38961
G1 X151.495 Y170.949 F7800
G1 F1800
G1 X158.884 Y170.949 E7.76046
G1 X158.884 Y170.986 E7.7623
G1 X198.506 Y170.986 E9.75076
G1 X198.506 Y179.051 E10.15548
G1 X151.507 Y179.051 E12.51415
G1 X151.495 Y171.009 E12.9177
G1 X151.149 Y170.605 F7800
;TYPE:External perimeter
G1 F1800
G1 X159.229 Y170.605 E13.32318
G1 X159.229 Y170.641 E13.32502
G1 X198.851 Y170.641 E15.31348
G1 X198.851 Y179.395 E15.75282
G1 X151.163 Y179.395 E18.14608
G1 X151.149 Y170.665 E18.58425
G1 X151.549 Y170.629 F7800
G1 E16.58425 F2400
G92 E0
G1 X197.358 Y171.434 F7800
G1 E2 F2400
;TYPE:Solid infill
;WIDTH:0.421134
G1 F1800
G1 X197.903 Y171.979 E2.03877
G1 X197.903 Y172.468 E2.0634
G1 X197.024 Y171.59 E2.12596
G1 X196.535 Y171.59 E2.1506
G1 X197.903 Y172.958 E2.24801
G1 X197.903 Y173.447 E2.27265
G1 X196.045 Y171.59 E2.4049
G1 X195.556 Y171.59 E2.42954
G1 X197.903 Y173.936 E2.59663
G1 X197.903 Y174.426 E2.62127
G1 X195.067 Y171.59 E2.82321
G1 X194.577 Y171.59 E2.84785
G1 X197.903 Y174.915 E3.08463
G1 X197.903 Y175.404 E3.10927
G1 X194.088 Y171.59 E3.3809
G1 X193.599 Y171.59 E3.40554
G1 X197.903 Y175.894 E3.71202
G1 X197.903 Y176.383 E3.73666
G1 X193.109 Y171.59 E4.07798
G1 X192.62 Y171.59 E4.10262
G1 X197.903 Y176.872 E4.47878
G1 X197.903 Y177.362 E4.50342
G1 X192.13 Y171.59 E4.91443
G1 X191.641 Y171.59 E4.93907
G1 X197.903 Y177.851 E5.38493
G1 X197.903 Y178.34 E5.40957
G1 X191.152 Y171.59 E5.89027
G1 X190.662 Y171.59 E5.91491
G1 X197.52 Y178.447 E6.40319
G1 X197.03 Y178.447 E6.42783
G1 X190.173 Y171.59 E6.91612
G1 X189.684 Y171.59 E6.94076
G1 X196.541 Y178.447 E7.42905
G1 X196.052 Y178.447 E7.45369
G1 X189.194 Y171.59 E7.94197
G1 X188.705 Y171.59 E7.96661
G1 X195.562 Y178.447 E8.4549
G1 X195.073 Y178.447 E8.47954
G1 X188.216 Y171.59 E8.96783
G1 X187.726 Y171.59 E8.99247
G1 X194.584 Y178.447 E9.48075
G1 X194.094 Y178.447 E9.50539
G1 X187.237 Y171.59 E9.99368
G1 X186.748 Y171.59 E10.01832
G1 X193.605 Y178.447 E10.50661
G1 X193.116 Y178.447 E10.53125
G1 X186.258 Y171.59 E11.01953
G1 X185.769 Y171.59 E11.04417
G1 X192.626 Y178.447 E11.53246
G1 X192.137 Y178.447 E11.5571
G1 X185.28 Y171.59 E12.04539
G1 X184.79 Y171.59 E12.07002
G1 X191.648 Y178.447 E12.55831
G1 X191.158 Y178.447 E12.58295
G1 X184.301 Y171.59 E13.07124
G1 X183.811 Y171.59 E13.09588
G1 X190.669 Y178.447 E13.58416
G1 X190.179 Y178.447 E13.6088
G1 X183.322 Y171.59 E14.09709
G1 X182.833 Y171.59 E14.12173
G1 X189.69 Y178.447 E14.61002
G1 X189.201 Y178.447 E14.63466
G1 X182.343 Y171.59 E15.12294
G1 X181.854 Y171.59 E15.14758
G1 X188.711 Y178.447 E15.63587
G1 X188.222 Y178.447 E15.66051
G1 X181.365 Y171.59 E16.1488
G1 X180.875 Y171.59 E16.17344
G1 X187.733 Y178.447 E16.66172
G1 X187.243 Y178.447 E16.68636
G1 X180.386 Y171.59 E17.17465
G1 X179.897 Y171.59 E17.19929
G1 X186.754 Y178.447 E17.68758
G1 X186.265 Y178.447 E17.71222
G1 X179.407 Y171.59 E18.2005
G1 X178.918 Y171.59 E18.22514
G1 X185.775 Y178.447 E18.71343
G1 X185.286 Y178.447 E18.73807
G1 X178.429 Y171.59 E19.22636
G1 X177.939 Y171.59 E19.251
G1 X184.797 Y178.447 E19.73928
G1 X184.307 Y178.447 E19.76392
G1 X177.45 Y171.59 E20.25221
G1 X176.961 Y171.59 E20.27685
G1 X183.818 Y178.447 E20.76513
G1 X183.329 Y178.447 E20.78977
G1 X176.471 Y171.59 E21.27806
G1 X175.982 Y171.59 E21.3027
G1 X182.839 Y178.447 E21.79099
G1 X182.35 Y178.447 E21.81563
G1 X175.493 Y171.59 E22.30391
G1 X175.003 Y171.59 E22.32855
G1 X181.86 Y178.447 E22.81684
G1 X181.371 Y178.447 E22.84148
G1 X174.514 Y171.59 E23.32977
G1 X174.024 Y171.59 E23.35441
G1 X180.882 Y178.447 E23.84269
G1 X180.392 Y178.447 E23.86733
G1 X173.535 Y171.59 E24.35562
G1 X173.046 Y171.59 E24.38026
G1 X179.903 Y178.447 E24.86855
G1 X179.414 Y178.447 E24.89319
G1 X172.556 Y171.59 E25.38147
G1 X172.067 Y171.59 E25.40611
G1 X178.924 Y178.447 E25.8944
G1 X178.435 Y178.447 E25.91904
G1 X171.578 Y171.59 E26.40733
G1 X171.088 Y171.59 E26.43196
G1 X177.946 Y178.447 E26.92025
G1 X177.456 Y178.447 E26.94489
G1 X170.599 Y171.59 E27.43318
G1 X170.11 Y171.59 E27.45782
G1 X176.967 Y178.447 E27.9461
G1 X176.478 Y178.447 E27.97074
G1 X169.62 Y171.59 E28.45903
G1 X169.131 Y171.59 E28.48367
G1 X175.988 Y178.447 E28.97196
G1 X175.499 Y178.447 E28.9966
G1 X168.642 Y171.59 E29.48488
G1 X168.152 Y171.59 E29.50952
G1 X175.01 Y178.447 E29.99781
G1 X174.52 Y178.447 E30.02245
G1 X167.663 Y171.59 E30.51074
G1 X167.174 Y171.59 E30.53538
G1 X174.031 Y178.447 E31.02366
G1 X173.542 Y178.447 E31.0483
G1 X166.684 Y171.59 E31.53659
G1 X166.195 Y171.59 E31.56123
G1 X173.052 Y178.447 E32.04952
G1 X172.563 Y178.447 E32.07415
G1 X165.706 Y171.59 E32.56244
G1 X165.216 Y171.59 E32.58708
G1 X172.073 Y178.447 E33.07537
G1 X171.584 Y178.447 E33.10001
G1 X164.727 Y171.59 E33.58829
G1 X164.237 Y171.59 E33.61293
G1 X171.095 Y178.447 E34.10122
G1 X170.605 Y178.447 E34.12586
G1 X163.748 Y171.59 E34.61415
G1 X163.259 Y171.59 E34.63879
G1 X170.116 Y178.447 E35.12707
G1 X169.627 Y178.447 E35.15171
G1 X162.769 Y171.59 E35.64
G1 X162.28 Y171.59 E35.66464
G1 X169.137 Y178.447 E36.15293
G1 X168.648 Y178.447 E36.17757
G1 X161.791 Y171.59 E36.66585
G1 X161.301 Y171.59 E36.69049
G1 X168.159 Y178.447 E37.17878
G1 X167.669 Y178.447 E37.20342
G1 X160.812 Y171.59 E37.69171
G1 X160.323 Y171.59 E37.71635
G1 X167.18 Y178.447 E38.20463
G1 X166.691 Y178.447 E38.22927
G1 X159.833 Y171.59 E38.71756
G1 X159.344 Y171.59 E38.7422
G1 X166.201 Y178.447 E39.23048
G1 X165.712 Y178.447 E39.25512
G1 X158.855 Y171.59 E39.74341
G1 X158.365 Y171.59 E39.76805
G1 X165.223 Y178.447 E40.25634
G1 X164.733 Y178.447 E40.28098
G1 X157.839 Y171.553 E40.77188
G1 X157.35 Y171.553 E40.79651
G1 X164.244 Y178.447 E41.28741
G1 X163.755 Y178.447 E41.31205
G1 X156.861 Y171.553 E41.80295
G1 X156.371 Y171.553 E41.82759
G1 X163.265 Y178.447 E42.31849
G1 X162.776 Y178.447 E42.34313
G1 X155.882 Y171.553 E42.83403
G1 X155.392 Y171.553 E42.85867
G1 X162.286 Y178.447 E43.34957
G1 X161.797 Y178.447 E43.3742
G1 X154.903 Y171.553 E43.8651
G1 X154.414 Y171.553 E43.88974
G1 X161.308 Y178.447 E44.38064
G1 X160.818 Y178.447 E44.40528
G1 X153.924 Y171.553 E44.89618
G1 X153.435 Y171.553 E44.92082
G1 X160.329 Y178.447 E45.41172
G1 X159.84 Y178.447 E45.43636
G1 X152.946 Y171.553 E45.92726
G1 X152.456 Y171.553 E45.95189
G1 X159.35 Y178.447 E46.44279
G1 X158.861 Y178.447 E46.46743
G1 X152.099 Y171.685 E46.9489
G1 X152.1 Y172.176 E46.97358
G1 X158.372 Y178.447 E47.42015
G1 X157.882 Y178.447 E47.44478
G1 X152.101 Y172.666 E47.85645
G1 X152.102 Y173.156 E47.88113
G1 X157.393 Y178.447 E48.2579
G1 X156.904 Y178.447 E48.28254
G1 X152.103 Y173.646 E48.62441
G1 X152.103 Y174.136 E48.64909
G1 X156.414 Y178.447 E48.95606
G1 X155.925 Y178.447 E48.9807
G1 X152.104 Y174.626 E49.25277
G1 X152.105 Y175.116 E49.27745
G1 X155.436 Y178.447 E49.51462
G1 X154.946 Y178.447 E49.53926
G1 X152.106 Y175.606 E49.74153
G1 X152.106 Y176.096 E49.76621
G1 X154.457 Y178.447 E49.93358
G1 X153.968 Y178.447 E49.95822
G1 X152.107 Y176.587 E50.0907
G1 X152.108 Y177.077 E50.11537
G1 X153.478 Y178.447 E50.21295
G1 X152.989 Y178.447 E50.23759
G1 X152.109 Y177.567 E50.30026
G1 X152.109 Y178.057 E50.32494
G1 X152.655 Y178.602 E50.36377
;LAYER_CHANGE
;Z:0.65
;HEIGHT:0.3
G1 Z.65 F7800
G1 E48.36377 F2400
G92 E0
G1 X151.937 Y171.391 F7800
G1 E2 F2400
;TYPE:Perimeter
;WIDTH:0.45
G1 F3600
G1 X158.443 Y171.391 E2.31292
G1 X158.443 Y171.427 E2.31468
G1 X198.065 Y171.427 E4.22036
G1 X198.065 Y178.609 E4.56577
G1 X151.948 Y178.609 E6.78383
G1 X151.937 Y171.451 E7.12812
G1 X151.551 Y171.005 F7800
G1 F3600
G1 X158.828 Y171.005 E7.47816
G1 X158.828 Y171.042 E7.47992
G1 X198.45 Y171.042 E9.3856
G1 X198.45 Y178.995 E9.76811
G1 X151.563 Y178.995 E12.02323
G1 X151.551 Y171.065 E12.40461
G1 X151.164 Y170.62 F7800
;TYPE:External perimeter
G1 F1800
G1 X159.214 Y170.62 E12.79177
G1 X159.214 Y170.656 E12.79354
G1 X198.836 Y170.656 E14.69922
G1 X198.836 Y179.38 E15.11882
G1 X151.178 Y179.38 E17.411
G1 X151.164 Y170.68 E17.82948
G1 X151.564 Y170.644 F7800
G1 E15.82948 F2400
G92 E0
G1 X197.169 Y178.494 F7800
G1 E2 F2400
;TYPE:Solid infill
;WIDTH:0.45045
G1 F1200
G1 X197.776 Y177.887 E2.04133
G1 X197.776 Y177.341 E2.06762
G1 X196.796 Y178.32 E2.13432
G1 X196.25 Y178.32 E2.16061
G1 X197.776 Y176.795 E2.26449
G1 X197.776 Y176.249 E2.29078
G1 X195.704 Y178.32 E2.43183
G1 X195.158 Y178.32 E2.45812
G1 X197.776 Y175.703 E2.63636
G1 X197.776 Y175.157 E2.66265
G1 X194.612 Y178.32 E2.87807
G1 X194.066 Y178.32 E2.90436
G1 X197.776 Y174.611 E3.15696
G1 X197.776 Y174.065 E3.18325
G1 X193.52 Y178.32 E3.47303
G1 X192.974 Y178.32 E3.49932
G1 X197.776 Y173.519 E3.82628
G1 X197.776 Y172.973 E3.85257
G1 X192.428 Y178.32 E4.21671
G1 X191.882 Y178.32 E4.243
G1 X197.776 Y172.427 E4.64432
G1 X197.776 Y171.881 E4.67061
G1 X191.336 Y178.32 E5.10911
G1 X190.79 Y178.32 E5.1354
G1 X197.394 Y171.717 E5.58507
G1 X196.848 Y171.717 E5.61137
G1 X190.244 Y178.32 E6.06104
G1 X189.698 Y178.32 E6.08733
G1 X196.302 Y171.717 E6.537
G1 X195.756 Y171.717 E6.56329
G1 X189.152 Y178.32 E7.01296
G1 X188.606 Y178.32 E7.03925
G1 X195.21 Y171.717 E7.48892
G1 X194.664 Y171.717 E7.51521
G1 X188.06 Y178.32 E7.96488
G1 X187.514 Y178.32 E7.99118
G1 X194.118 Y171.717 E8.44085
G1 X193.572 Y171.717 E8.46714
G1 X186.968 Y178.32 E8.91681
G1 X186.422 Y178.32 E8.9431
G1 X193.026 Y171.717 E9.39277
G1 X192.48 Y171.717 E9.41906
G1 X185.876 Y178.32 E9.86873
G1 X185.33 Y178.32 E9.89502
G1 X191.934 Y171.717 E10.34469
G1 X191.388 Y171.717 E10.37099
G1 X184.784 Y178.32 E10.82066
G1 X184.238 Y178.32 E10.84695
G1 X190.842 Y171.717 E11.29662
G1 X190.296 Y171.717 E11.32291
G1 X183.692 Y178.32 E11.77258
G1 X183.146 Y178.32 E11.79887
G1 X189.75 Y171.717 E12.24854
G1 X189.204 Y171.717 E12.27483
G1 X182.601 Y178.32 E12.72451
G1 X182.055 Y178.32 E12.7508
G1 X188.658 Y171.717 E13.20047
G1 X188.112 Y171.717 E13.22676
G1 X181.509 Y178.32 E13.67643
G1 X180.963 Y178.32 E13.70272
G1 X187.566 Y171.717 E14.15239
G1 X187.02 Y171.717 E14.17868
G1 X180.417 Y178.32 E14.62835
G1 X179.871 Y178.32 E14.65464
G1 X186.474 Y171.717 E15.10432
G1 X185.928 Y171.717 E15.13061
G1 X179.325 Y178.32 E15.58028
G1 X178.779 Y178.32 E15.60657
G1 X185.382 Y171.717 E16.05624
G1 X184.836 Y171.717 E16.08253
G1 X178.233 Y178.32 E16.5322
G1 X177.687 Y178.32 E16.55849
G1 X184.29 Y171.717 E17.00816
G1 X183.744 Y171.717 E17.03445
G1 X177.141 Y178.32 E17.48413
G1 X176.595 Y178.32 E17.51042
G1 X183.198 Y171.717 E17.96009
G1 X182.652 Y171.717 E17.98638
G1 X176.049 Y178.32 E18.43605
G1 X175.503 Y178.32 E18.46234
G1 X182.106 Y171.717 E18.91201
G1 X181.56 Y171.717 E18.9383
G1 X174.957 Y178.32 E19.38797
G1 X174.411 Y178.32 E19.41426
G1 X181.014 Y171.717 E19.86394
G1 X180.468 Y171.717 E19.89023
G1 X173.865 Y178.32 E20.3399
G1 X173.319 Y178.32 E20.36619
G1 X179.922 Y171.717 E20.81586
G1 X179.376 Y171.717 E20.84215
G1 X172.773 Y178.32 E21.29182
G1 X172.227 Y178.32 E21.31811
G1 X178.83 Y171.717 E21.76778
G1 X178.284 Y171.717 E21.79407
G1 X171.681 Y178.32 E22.24375
G1 X171.135 Y178.32 E22.27004
G1 X177.738 Y171.717 E22.71971
G1 X177.192 Y171.717 E22.746
G1 X170.589 Y178.32 E23.19567
G1 X170.043 Y178.32 E23.22196
G1 X176.646 Y171.717 E23.67163
G1 X176.1 Y171.717 E23.69792
G1 X169.497 Y178.32 E24.14759
G1 X168.951 Y178.32 E24.17388
G1 X175.554 Y171.717 E24.62356
G1 X175.008 Y171.717 E24.64985
G1 X168.405 Y178.32 E25.09952
G1 X167.859 Y178.32 E25.12581
G1 X174.462 Y171.717 E25.57548
G1 X173.916 Y171.717 E25.60177
G1 X167.313 Y178.32 E26.05144
G1 X166.767 Y178.32 E26.07773
G1 X173.37 Y171.717 E26.5274
G1 X172.824 Y171.717 E26.5537
G1 X166.221 Y178.32 E27.00337
G1 X165.675 Y178.32 E27.02966
G1 X172.278 Y171.717 E27.47933
G1 X171.732 Y171.717 E27.50562
G1 X165.129 Y178.32 E27.95529
G1 X164.583 Y178.32 E27.98158
G1 X171.186 Y171.717 E28.43125
G1 X170.64 Y171.717 E28.45754
G1 X164.037 Y178.32 E28.90721
G1 X163.491 Y178.32 E28.93351
G1 X170.094 Y171.717 E29.38318
G1 X169.548 Y171.717 E29.40947
G1 X162.945 Y178.32 E29.85914
G1 X162.399 Y178.32 E29.88543
G1 X169.002 Y171.717 E30.3351
G1 X168.456 Y171.717 E30.36139
G1 X161.853 Y178.32 E30.81106
G1 X161.307 Y178.32 E30.83735
G1 X167.91 Y171.717 E31.28703
G1 X167.364 Y171.717 E31.31332
G1 X160.761 Y178.32 E31.76299
G1 X160.215 Y178.32 E31.78928
G1 X166.818 Y171.717 E32.23895
G1 X166.272 Y171.717 E32.26524
G1 X159.669 Y178.32 E32.71491
G1 X159.123 Y178.32 E32.7412
G1 X165.726 Y171.717 E33.19087
G1 X165.18 Y171.717 E33.21716
G1 X158.577 Y178.32 E33.66684
G1 X158.031 Y178.32 E33.69313
G1 X164.635 Y171.717 E34.1428
G1 X164.089 Y171.717 E34.16909
G1 X157.485 Y178.32 E34.61876
G1 X156.939 Y178.32 E34.64505
G1 X163.543 Y171.717 E35.09472
G1 X162.997 Y171.717 E35.12101
G1 X156.393 Y178.32 E35.57068
G1 X155.847 Y178.32 E35.59698
G1 X162.451 Y171.717 E36.04665
G1 X161.905 Y171.717 E36.07294
G1 X155.301 Y178.32 E36.52261
G1 X154.755 Y178.32 E36.5489
G1 X161.359 Y171.717 E36.99857
G1 X160.813 Y171.717 E37.02486
G1 X154.209 Y178.32 E37.47453
G1 X153.663 Y178.32 E37.50082
G1 X160.267 Y171.717 E37.9505
G1 X159.721 Y171.717 E37.97679
G1 X153.117 Y178.32 E38.42646
G1 X152.571 Y178.32 E38.45275
G1 X159.175 Y171.717 E38.90242
G1 X158.629 Y171.717 E38.92871
G1 X152.236 Y178.109 E39.36401
G1 X152.236 Y177.564 E39.39026
G1 X158.119 Y171.68 E39.79093
G1 X157.573 Y171.68 E39.81722
G1 X152.235 Y177.019 E40.18077
G1 X152.234 Y176.473 E40.20702
G1 X157.027 Y171.68 E40.53345
G1 X156.481 Y171.68 E40.55974
G1 X152.233 Y175.928 E40.84904
G1 X152.232 Y175.383 E40.87529
G1 X155.935 Y171.68 E41.12747
G1 X155.389 Y171.68 E41.15376
G1 X152.231 Y174.838 E41.36882
G1 X152.231 Y174.293 E41.39507
G1 X154.843 Y171.68 E41.573
G1 X154.297 Y171.68 E41.59929
G1 X152.23 Y173.748 E41.74011
G1 X152.229 Y173.203 E41.76636
G1 X153.752 Y171.68 E41.87005
G1 X153.206 Y171.68 E41.89634
G1 X152.228 Y172.658 E41.9629
G1 X152.227 Y172.112 E41.98915
G1 X152.833 Y171.506 E42.03041
;LAYER_CHANGE
;Z:0.95
;HEIGHT:0.3
G1 Z.95 F7800
G1 X151.937 Y171.391
;TYPE:Perimeter
;WIDTH:0.45
G1 F3600
G1 X158.443 Y171.391 E42.34333
G1 X158.443 Y171.427 E42.34509
G1 X198.065 Y171.427 E44.25077
G1 X198.065 Y178.609 E44.59619
G1 X151.948 Y178.609 E46.81424
G1 X151.937 Y171.451 E47.15853
G1 X151.551 Y171.005 F7800
G1 F3600
G1 X158.828 Y171.005 E47.50857
G1 X158.828 Y171.042 E47.51033
G1 X198.45 Y171.042 E49.41601
G1 X198.45 Y178.995 E49.79852
G1 X151.563 Y178.995 E52.05364
G1 X151.551 Y171.065 E52.43503
G1 X151.164 Y170.62 F7800
;TYPE:External perimeter
G1 F1800
G1 X159.214 Y170.62 E52.82219
G1 X159.214 Y170.656 E52.82395
G1 X198.836 Y170.656 E54.72963
G1 X198.836 Y179.38 E55.14923
