; generated by PrusaSlicer 2.4.2 on 2022-07-25 at 12:20:36 UTC

; 

; external perimeters extrusion width = 0.45mm
; perimeters extrusion width = 0.45mm
; infill extrusion width = 0.45mm
; solid infill extrusion width = 0.45mm
; top infill extrusion width = 0.40mm
; first layer extrusion width = 0.42mm

M107
M190 S60 ; set bed temperature and wait for it to be reached
M104 S215 ; set temperature
;TYPE:Custom
G28 ; home all axes
G1 Z5 F5000 ; lift nozzle
M109 S215 ; set temperature and wait for it to be reached
G21 ; set units to millimeters
G90 ; use absolute coordinates
M82 ; use absolute distances for extrusion
G92 E0
; Filament gcode
M107
;LAYER_CHANGE
;Z:0.35
;HEIGHT:0.35
G1 Z.35 F7800
G1 E-2 F2400
G92 E0
G1 Z3.35 F7800
G1 X69.79 Y119.923
G1 Z.35
G1 E2 F2400
;TYPE:Skirt/Brim
;WIDTH:0.42
G1 F1800
G1 X71.325 Y119.268 E2.08376
G1 X73.172 Y118.804 E2.17931
G1 X75 Y118.655 E2.27136
G1 X225.156 Y118.657 E9.80706
G1 X226.257 Y118.726 E9.86245
G1 X227.366 Y118.905 E9.9188
G1 X228.442 Y119.191 E9.97467
G1 X229.485 Y119.58 E10.03054
G1 X231.172 Y120.482 E10.12658
G1 X232.075 Y121.133 E10.18245
G1 X232.911 Y121.869 E10.23831
G1 X233.67 Y122.684 E10.2942
G1 X234.345 Y123.569 E10.35005
G1 X235.32 Y125.291 E10.44939
G1 X235.965 Y127.093 E10.54543
G1 X236.197 Y128.181 E10.60129
G1 X236.322 Y129.288 E10.65716
G1 X236.345 Y170 E12.70035
G1 X236.197 Y171.819 E12.79192
G1 X235.809 Y173.442 E12.87566
G1 X235.32 Y174.709 E12.94385
G1 X234.518 Y176.172 E13.0276
G1 X233.67 Y177.316 E13.09906
G1 X232.733 Y178.3 E13.16725
G1 X231.431 Y179.345 E13.251
G1 X229.991 Y180.187 E13.33477
G1 X228.675 Y180.732 E13.40624
G1 X226.818 Y181.197 E13.50229
G1 X225.004 Y181.345 E13.59362
G1 X74.599 Y181.337 E21.14185
G1 X72.94 Y181.155 E21.22562
G1 X71.325 Y180.732 E21.30938
G1 X69.516 Y179.93 E21.40872
G1 X68.126 Y179.024 E21.492
G1 X66.869 Y177.911 E21.57624
G1 X65.802 Y176.64 E21.65952
G1 X64.927 Y175.218 E21.74329
G1 X64.268 Y173.675 E21.82754
G1 X63.804 Y171.828 E21.92307
G1 X63.655 Y170 E22.01513
G1 X63.655 Y130 E24.02256
G1 X63.757 Y128.49 E24.09852
G1 X64.099 Y126.861 E24.18204
G1 X64.677 Y125.296 E24.26579
G1 X65.351 Y124.035 E24.33752
G1 X66.33 Y122.684 E24.42128
G1 X67.491 Y121.497 E24.50457
G1 X68.561 Y120.661 E24.57273
G1 X69.739 Y119.954 E24.64168
G1 E22.64168 F2400
G92 E0
G1 Z3.35 F7800
G1 X198.739 Y165.504
G1 Z.35
G1 E2 F2400
;TYPE:Perimeter
G1 F1800
G1 X198.9 Y165.112 E2.02124
G1 X199.086 Y164.771 E2.04075
G1 X199.305 Y164.449 E2.06027
G1 X199.555 Y164.152 E2.07979
G1 X199.833 Y163.88 E2.09931
G1 X200.137 Y163.638 E2.11882
G1 X200.464 Y163.427 E2.13834
G1 X200.81 Y163.249 E2.15785
G1 X201.172 Y163.107 E2.17737
G1 X201.546 Y163.002 E2.19689
G1 X201.929 Y162.934 E2.21641
G1 X202.317 Y162.905 E2.23592
G1 X202.706 Y162.915 E2.25544
G1 X203.092 Y162.963 E2.27496
G1 X203.471 Y163.05 E2.29447
G1 X203.84 Y163.174 E2.31399
G1 X204.194 Y163.334 E2.3335
G1 X204.531 Y163.528 E2.35302
G1 X204.847 Y163.755 E2.37254
G1 X205.138 Y164.012 E2.39205
G1 X205.403 Y164.297 E2.41157
G1 X205.637 Y164.607 E2.43109
G1 X205.84 Y164.939 E2.4506
G1 X206.009 Y165.29 E2.47012
G1 X206.142 Y165.655 E2.48964
G1 X206.238 Y166.032 E2.50915
G1 X206.296 Y166.416 E2.52867
G1 X206.315 Y166.805 E2.54819
G1 X206.296 Y167.193 E2.5677
G1 X206.238 Y167.578 E2.58722
G1 X206.142 Y167.955 E2.60674
G1 X206.009 Y168.32 E2.62625
G1 X205.84 Y168.67 E2.64577
G1 X205.637 Y169.002 E2.66529
G1 X205.403 Y169.312 E2.6848
G1 X205.138 Y169.597 E2.70432
G1 X204.847 Y169.855 E2.72384
G1 X204.522 Y170.088 E2.74392
G1 X204.029 Y170.356 E2.77206
G1 X203.657 Y170.503 E2.79214
G1 X203.282 Y170.608 E2.81166
G1 X202.899 Y170.675 E2.83117
G1 X202.512 Y170.705 E2.85069
G1 X202.123 Y170.695 E2.87021
G1 X201.737 Y170.647 E2.88972
G1 X201.358 Y170.56 E2.90924
G1 X200.989 Y170.436 E2.92876
G1 X200.635 Y170.276 E2.94827
G1 X200.298 Y170.082 E2.96779
G1 X199.982 Y169.855 E2.98731
G1 X199.691 Y169.597 E3.00682
G1 X199.426 Y169.312 E3.02634
G1 X199.191 Y169.002 E3.04586
G1 X198.989 Y168.67 E3.06537
G1 X198.82 Y168.32 E3.08489
G1 X198.687 Y167.955 E3.10441
G1 X198.588 Y167.566 E3.12455
G1 X198.518 Y166.996 E3.15337
G1 X198.518 Y166.61 E3.17273
G1 X198.557 Y166.223 E3.19222
G1 X198.634 Y165.842 E3.21174
G1 X198.721 Y165.561 E3.22652
G1 X199.068 Y165.605 F7800
G1 F1800
G1 X199.211 Y165.262 E3.24517
G1 X199.38 Y164.951 E3.26295
G1 X199.58 Y164.658 E3.28074
G1 X199.808 Y164.386 E3.29853
G1 X200.062 Y164.139 E3.31632
G1 X200.339 Y163.918 E3.33411
G1 X200.637 Y163.726 E3.3519
G1 X200.952 Y163.564 E3.36969
G1 X201.282 Y163.434 E3.38748
G1 X201.623 Y163.338 E3.40527
G1 X201.972 Y163.277 E3.42306
G1 X202.326 Y163.25 E3.44084
G1 X202.68 Y163.259 E3.45863
G1 X203.032 Y163.303 E3.47642
G1 X203.377 Y163.382 E3.49421
G1 X203.713 Y163.495 E3.512
G1 X204.036 Y163.641 E3.52979
G1 X204.343 Y163.818 E3.54758
G1 X204.631 Y164.025 E3.56537
G1 X204.897 Y164.26 E3.58316
G1 X205.138 Y164.519 E3.60095
G1 X205.352 Y164.802 E3.61873
G1 X205.537 Y165.104 E3.63652
G1 X205.691 Y165.424 E3.65431
G1 X205.812 Y165.757 E3.6721
G1 X205.899 Y166.1 E3.68989
G1 X205.952 Y166.451 E3.70768
G1 X205.97 Y166.805 E3.72547
G1 X205.952 Y167.159 E3.74326
G1 X205.899 Y167.509 E3.76105
G1 X205.812 Y167.853 E3.77884
G1 X205.691 Y168.186 E3.79662
G1 X205.537 Y168.505 E3.81441
G1 X205.352 Y168.808 E3.8322
G1 X205.138 Y169.09 E3.84999
G1 X204.897 Y169.35 E3.86778
G1 X204.631 Y169.585 E3.88557
G1 X204.338 Y169.796 E3.90371
G1 X203.883 Y170.043 E3.92969
G1 X203.547 Y170.175 E3.94782
G1 X203.206 Y170.271 E3.96561
G1 X202.856 Y170.333 E3.9834
G1 X202.503 Y170.359 E4.00119
G1 X202.149 Y170.351 E4.01898
G1 X201.797 Y170.306 E4.03677
G1 X201.451 Y170.228 E4.05456
G1 X201.115 Y170.115 E4.07234
G1 X200.792 Y169.969 E4.09013
G1 X200.485 Y169.792 E4.10792
G1 X200.198 Y169.585 E4.12571
G1 X199.932 Y169.35 E4.1435
G1 X199.691 Y169.09 E4.16129
G1 X199.477 Y168.808 E4.17908
G1 X199.292 Y168.505 E4.19687
G1 X199.138 Y168.186 E4.21466
G1 X199.017 Y167.853 E4.23245
G1 X198.927 Y167.502 E4.25062
G1 X198.863 Y166.975 E4.27727
G1 X198.863 Y166.627 E4.29471
G1 X198.899 Y166.275 E4.31249
G1 X198.969 Y165.928 E4.33027
G1 X199.05 Y165.663 E4.34419
G1 X199.398 Y165.707 F7800
;TYPE:External perimeter
G1 F1800
G1 X199.522 Y165.412 E4.36025
G1 X199.675 Y165.131 E4.37631
G1 X199.855 Y164.866 E4.39237
G1 X200.061 Y164.621 E4.40843
G1 X200.29 Y164.398 E4.4245
G1 X200.54 Y164.198 E4.44056
G1 X200.809 Y164.025 E4.45662
G1 X201.094 Y163.879 E4.47268
G1 X201.392 Y163.762 E4.48874
G1 X201.7 Y163.675 E4.5048
G1 X202.015 Y163.62 E4.52086
G1 X202.334 Y163.596 E4.53692
G1 X202.654 Y163.604 E4.55298
G1 X202.972 Y163.643 E4.56905
G1 X203.284 Y163.715 E4.58511
G1 X203.587 Y163.817 E4.60117
G1 X203.879 Y163.948 E4.61723
G1 X204.156 Y164.108 E4.63329
G1 X204.416 Y164.295 E4.64935
G1 X204.656 Y164.507 E4.66541
G1 X204.874 Y164.741 E4.68148
G1 X205.067 Y164.996 E4.69754
G1 X205.234 Y165.27 E4.7136
G1 X205.373 Y165.558 E4.72966
G1 X205.482 Y165.859 E4.74572
G1 X205.561 Y166.169 E4.76178
G1 X205.609 Y166.485 E4.77784
G1 X205.625 Y166.805 E4.79391
G1 X205.609 Y167.125 E4.80997
G1 X205.561 Y167.441 E4.82603
G1 X205.482 Y167.751 E4.84209
G1 X205.373 Y168.052 E4.85815
G1 X205.234 Y168.34 E4.87421
G1 X205.067 Y168.613 E4.89027
G1 X204.874 Y168.868 E4.90634
G1 X204.656 Y169.103 E4.9224
G1 X204.416 Y169.315 E4.93846
G1 X204.154 Y169.503 E4.95465
G1 X203.737 Y169.73 E4.97847
G1 X203.437 Y169.848 E4.99466
G1 X203.129 Y169.935 E5.01072
G1 X202.814 Y169.99 E5.02678
G1 X202.494 Y170.014 E5.04285
G1 X202.175 Y170.006 E5.05891
G1 X201.857 Y169.966 E5.07497
G1 X201.545 Y169.895 E5.09103
G1 X201.242 Y169.793 E5.10709
G1 X200.95 Y169.662 E5.12315
G1 X200.673 Y169.502 E5.13921
G1 X200.413 Y169.315 E5.15528
G1 X200.173 Y169.103 E5.17134
G1 X199.955 Y168.868 E5.1874
G1 X199.762 Y168.613 E5.20346
G1 X199.595 Y168.34 E5.21952
G1 X199.456 Y168.052 E5.23558
G1 X199.347 Y167.751 E5.25164
G1 X199.267 Y167.438 E5.26785
G1 X199.208 Y166.954 E5.29233
G1 X199.208 Y166.645 E5.30785
G1 X199.24 Y166.326 E5.32391
G1 X199.303 Y166.013 E5.33997
G1 X199.38 Y165.764 E5.35302
G1 X199.192 Y165.462 F7800
G1 E3.35302 F2400
G92 E0
G1 Z3.35 F7800
G1 X221.162 Y135.938
G1 Z.35
G1 E2 F2400
;TYPE:Perimeter
G1 F1800
G1 X220.896 Y135.703 E2.01779
G1 X220.632 Y135.418 E2.03731
G1 X220.397 Y135.108 E2.05682
G1 X220.194 Y134.776 E2.07634
G1 X220.025 Y134.426 E2.09586
G1 X219.892 Y134.061 E2.11537
G1 X219.793 Y133.672 E2.13552
G1 X219.723 Y133.102 E2.16434
G1 X219.724 Y132.716 E2.1837
G1 X219.763 Y132.329 E2.20319
G1 X219.84 Y131.948 E2.2227
G1 X219.954 Y131.577 E2.24222
G1 X220.105 Y131.218 E2.26174
G1 X220.291 Y130.877 E2.28126
G1 X220.51 Y130.555 E2.30077
G1 X220.76 Y130.258 E2.32029
G1 X221.039 Y129.986 E2.33981
G1 X221.343 Y129.744 E2.35932
G1 X221.669 Y129.533 E2.37884
G1 X222.016 Y129.355 E2.39836
G1 X222.378 Y129.213 E2.41787
G1 X222.752 Y129.108 E2.43739
G1 X223.135 Y129.04 E2.45691
G1 X223.523 Y129.011 E2.47642
G1 X223.911 Y129.021 E2.49594
G1 X224.297 Y129.069 E2.51546
G1 X224.676 Y129.156 E2.53497
G1 X225.045 Y129.28 E2.55449
G1 X225.4 Y129.44 E2.57401
G1 X225.736 Y129.634 E2.59352
G1 X226.052 Y129.861 E2.61304
G1 X226.344 Y130.118 E2.63256
G1 X226.608 Y130.403 E2.65207
G1 X226.843 Y130.713 E2.67159
G1 X227.046 Y131.045 E2.6911
G1 X227.214 Y131.396 E2.71062
G1 X227.347 Y131.761 E2.73014
G1 X227.447 Y132.15 E2.75028
G1 X227.516 Y132.72 E2.7791
G1 X227.516 Y133.106 E2.79846
G1 X227.477 Y133.492 E2.81795
G1 X227.4 Y133.873 E2.83747
G1 X227.286 Y134.245 E2.85699
G1 X227.134 Y134.603 E2.8765
G1 X226.948 Y134.945 E2.89602
G1 X226.729 Y135.266 E2.91554
G1 X226.479 Y135.564 E2.93505
G1 X226.201 Y135.836 E2.95457
G1 X225.897 Y136.078 E2.97409
G1 X225.57 Y136.289 E2.9936
G1 X225.224 Y136.467 E3.01312
G1 X224.862 Y136.609 E3.03264
G1 X224.488 Y136.714 E3.05215
G1 X224.105 Y136.781 E3.07167
G1 X223.717 Y136.811 E3.09119
G1 X223.328 Y136.801 E3.1107
G1 X222.942 Y136.752 E3.13022
G1 X222.563 Y136.666 E3.14974
G1 X222.195 Y136.542 E3.16925
G1 X221.84 Y136.382 E3.18877
G1 X221.503 Y136.188 E3.20829
G1 X221.208 Y135.976 E3.22652
G1 X221.403 Y135.691 F7800
G1 F1800
G1 X221.137 Y135.456 E3.24431
G1 X220.896 Y135.196 E3.2621
G1 X220.682 Y134.914 E3.27989
G1 X220.497 Y134.611 E3.29768
G1 X220.344 Y134.292 E3.31547
G1 X220.222 Y133.959 E3.33325
G1 X220.133 Y133.608 E3.35143
G1 X220.068 Y133.081 E3.37808
G1 X220.069 Y132.733 E3.39552
G1 X220.104 Y132.381 E3.41329
G1 X220.174 Y132.033 E3.43108
G1 X220.279 Y131.695 E3.44887
G1 X220.416 Y131.368 E3.46666
G1 X220.586 Y131.057 E3.48445
G1 X220.786 Y130.764 E3.50224
G1 X221.013 Y130.492 E3.52003
G1 X221.267 Y130.245 E3.53782
G1 X221.544 Y130.024 E3.55561
G1 X221.842 Y129.832 E3.57339
G1 X222.158 Y129.67 E3.59118
G1 X222.487 Y129.54 E3.60897
G1 X222.829 Y129.444 E3.62676
G1 X223.178 Y129.383 E3.64455
G1 X223.531 Y129.356 E3.66234
G1 X223.886 Y129.365 E3.68013
G1 X224.237 Y129.409 E3.69792
G1 X224.583 Y129.488 E3.71571
G1 X224.919 Y129.601 E3.73349
G1 X225.242 Y129.747 E3.75128
G1 X225.549 Y129.924 E3.76907
G1 X225.837 Y130.131 E3.78686
G1 X226.103 Y130.366 E3.80465
G1 X226.344 Y130.625 E3.82244
G1 X226.558 Y130.908 E3.84023
G1 X226.742 Y131.21 E3.85802
G1 X226.896 Y131.53 E3.87581
G1 X227.017 Y131.863 E3.8936
G1 X227.107 Y132.214 E3.91177
G1 X227.171 Y132.741 E3.93842
G1 X227.171 Y133.088 E3.95586
G1 X227.136 Y133.441 E3.97363
G1 X227.066 Y133.788 E3.99143
G1 X226.961 Y134.127 E4.00921
G1 X226.823 Y134.454 E4.027
G1 X226.654 Y134.765 E4.04479
G1 X226.454 Y135.058 E4.06258
G1 X226.226 Y135.329 E4.08037
G1 X225.973 Y135.577 E4.09816
G1 X225.695 Y135.798 E4.11595
G1 X225.398 Y135.99 E4.13374
G1 X225.082 Y136.152 E4.15153
G1 X224.752 Y136.281 E4.16931
G1 X224.411 Y136.377 E4.1871
G1 X224.062 Y136.439 E4.20489
G1 X223.709 Y136.465 E4.22268
G1 X223.354 Y136.456 E4.24047
G1 X223.002 Y136.412 E4.25826
G1 X222.657 Y136.334 E4.27605
G1 X222.321 Y136.221 E4.29384
G1 X221.998 Y136.075 E4.31163
G1 X221.691 Y135.898 E4.32942
G1 X221.452 Y135.726 E4.34419
G1 X221.618 Y135.421 F7800
;TYPE:External perimeter
G1 F1800
G1 X221.378 Y135.209 E4.36025
G1 X221.161 Y134.974 E4.37632
G1 X220.967 Y134.719 E4.39238
G1 X220.801 Y134.446 E4.40844
G1 X220.662 Y134.158 E4.4245
G1 X220.552 Y133.857 E4.44056
G1 X220.473 Y133.544 E4.45677
G1 X220.413 Y133.06 E4.48125
G1 X220.414 Y132.751 E4.49677
G1 X220.445 Y132.432 E4.51282
G1 X220.509 Y132.119 E4.52888
G1 X220.603 Y131.813 E4.54495
G1 X220.728 Y131.518 E4.56101
G1 X220.881 Y131.237 E4.57707
G1 X221.061 Y130.972 E4.59313
G1 X221.267 Y130.727 E4.60919
G1 X221.496 Y130.504 E4.62525
G1 X221.746 Y130.304 E4.64131
G1 X222.015 Y130.131 E4.65738
G1 X222.3 Y129.985 E4.67344
G1 X222.597 Y129.868 E4.6895
G1 X222.906 Y129.781 E4.70556
G1 X223.221 Y129.725 E4.72162
G1 X223.54 Y129.702 E4.73768
G1 X223.86 Y129.71 E4.75374
G1 X224.177 Y129.749 E4.76981
G1 X224.489 Y129.821 E4.78587
G1 X224.793 Y129.922 E4.80193
G1 X225.084 Y130.054 E4.81799
G1 X225.362 Y130.214 E4.83405
G1 X225.621 Y130.401 E4.85011
G1 X225.861 Y130.613 E4.86617
G1 X226.079 Y130.847 E4.88223
G1 X226.272 Y131.102 E4.8983
G1 X226.439 Y131.376 E4.91436
G1 X226.578 Y131.664 E4.93042
G1 X226.688 Y131.965 E4.94648
G1 X226.767 Y132.278 E4.96269
G1 X226.827 Y132.762 E4.98717
G1 X226.826 Y133.071 E5.00269
G1 X226.794 Y133.389 E5.01874
G1 X226.731 Y133.703 E5.0348
G1 X226.637 Y134.009 E5.05086
G1 X226.512 Y134.304 E5.06693
G1 X226.359 Y134.585 E5.08299
G1 X226.179 Y134.849 E5.09905
G1 X225.973 Y135.094 E5.11511
G1 X225.744 Y135.318 E5.13117
G1 X225.494 Y135.517 E5.14723
G1 X225.225 Y135.691 E5.16329
G1 X224.94 Y135.837 E5.17935
G1 X224.642 Y135.954 E5.19542
G1 X224.334 Y136.041 E5.21148
G1 X224.019 Y136.096 E5.22754
G1 X223.7 Y136.12 E5.2436
G1 X223.38 Y136.112 E5.25966
G1 X223.062 Y136.072 E5.27572
G1 X222.75 Y136.001 E5.29178
G1 X222.447 Y135.899 E5.30785
G1 X222.155 Y135.768 E5.32391
G1 X221.878 Y135.608 E5.33997
G1 X221.667 Y135.456 E5.35302
G1 X221.32 Y135.538 F7800
G1 E3.35302 F2400
G92 E0
G1 Z3.35 F7800
G1 X86.597 Y138.985
G1 Z.35
G1 E2 F2400
;TYPE:Perimeter
G1 F1800
G1 X86.553 Y139.433 E2.02257
G1 X86.4 Y139.928 E2.04859
G1 X86.152 Y140.384 E2.07462
G1 X85.818 Y140.781 E2.10065
G1 X85.413 Y141.104 E2.12667
G1 X84.951 Y141.341 E2.1527
G1 X84.463 Y141.478 E2.17816
G1 X84.054 Y141.519 E2.19881
G1 X83.548 Y141.481 E2.22427
G1 X83.049 Y141.341 E2.25029
G1 X82.587 Y141.104 E2.27632
G1 X82.182 Y140.781 E2.30235
G1 X81.848 Y140.384 E2.32837
G1 X81.6 Y139.928 E2.3544
G1 X81.447 Y139.433 E2.38043
G1 X81.396 Y138.917 E2.40646
G1 X81.447 Y138.401 E2.43248
G1 X81.6 Y137.905 E2.45851
G1 X81.848 Y137.45 E2.48453
G1 X82.182 Y137.052 E2.51056
G1 X82.587 Y136.729 E2.53659
G1 X83.049 Y136.492 E2.56261
G1 X83.537 Y136.355 E2.58807
G1 X83.946 Y136.314 E2.60873
G1 X84.452 Y136.352 E2.63419
G1 X84.951 Y136.492 E2.66021
G1 X85.413 Y136.729 E2.68624
G1 X85.818 Y137.052 E2.71226
G1 X86.152 Y137.45 E2.73829
G1 X86.4 Y137.905 E2.76432
G1 X86.553 Y138.401 E2.79034
G1 X86.603 Y138.926 E2.81681
G1 X86.254 Y138.951 F7800
G1 F1800
G1 X86.213 Y139.364 E2.83764
G1 X86.08 Y139.794 E2.86021
G1 X85.865 Y140.189 E2.88277
G1 X85.576 Y140.533 E2.90533
G1 X85.225 Y140.813 E2.9279
G1 X84.825 Y141.018 E2.95046
G1 X84.399 Y141.138 E2.97267
G1 X84.049 Y141.173 E2.99029
G1 X83.608 Y141.14 E3.01251
G1 X83.175 Y141.018 E3.03507
G1 X82.775 Y140.813 E3.05763
G1 X82.424 Y140.533 E3.08019
G1 X82.135 Y140.189 E3.10276
G1 X81.92 Y139.794 E3.12532
G1 X81.787 Y139.364 E3.14789
G1 X81.742 Y138.917 E3.17045
G1 X81.787 Y138.469 E3.19301
G1 X81.92 Y138.04 E3.21557
G1 X82.135 Y137.645 E3.23813
G1 X82.424 Y137.301 E3.2607
G1 X82.775 Y137.02 E3.28326
G1 X83.175 Y136.815 E3.30582
G1 X83.601 Y136.695 E3.32803
G1 X83.951 Y136.66 E3.34566
G1 X84.392 Y136.693 E3.36787
G1 X84.825 Y136.815 E3.39043
G1 X85.225 Y137.02 E3.413
G1 X85.576 Y137.301 E3.43556
G1 X85.865 Y137.645 E3.45812
G1 X86.08 Y138.04 E3.48068
G1 X86.213 Y138.469 E3.50325
G1 X86.255 Y138.891 E3.52453
G1 X85.911 Y138.917 F7800
;TYPE:External perimeter
G1 F1800
G1 X85.873 Y139.295 E3.54363
G1 X85.761 Y139.659 E3.56272
G1 X85.579 Y139.993 E3.58183
G1 X85.334 Y140.285 E3.60092
G1 X85.037 Y140.522 E3.62002
G1 X84.698 Y140.696 E3.63912
