; generated by PrusaSlicer 2.4.2 on 2022-07-20 at 03:30:11 UTC

; 

; external perimeters extrusion width = 0.45mm
; perimeters extrusion width = 0.45mm
; infill extrusion width = 0.45mm
; solid infill extrusion width = 0.45mm
; top infill extrusion width = 0.40mm
; support material extrusion width = 0.35mm
; first layer extrusion width = 0.42mm

M107
M190 S60 ; set bed temperature and wait for it to be reached
M104 S215 ; set temperature
;TYPE:Custom
G28 ; home all axes
G1 Z5 F5000 ; lift nozzle
M109 S215 ; set temperature and wait for it to be reached
G21 ; set units to millimeters
G90 ; use absolute coordinates
M82 ; use absolute distances for extrusion
G92 E0
; Filament gcode
M107
;LAYER_CHANGE
;Z:0.35
;HEIGHT:0.35
G1 Z.35 F7800
G1 E-2 F2400
G92 E0
G1 X93.356 Y137.044 F7800
G1 E2 F2400
;TYPE:Skirt/Brim
;WIDTH:0.42
G1 F1800
G1 X94.507 Y136.313 E2.06843
G1 X95.79 Y135.706 E2.13964
G1 X97.084 Y135.277 E2.20808
G1 X98.476 Y135 E2.27929
G1 X99.836 Y134.898 E2.34772
G1 X120.16 Y134.898 E3.36773
G1 X121.591 Y135.008 E3.43977
G1 X250.738 Y152.536 E9.98054
G1 X252.726 Y152.989 E10.08288
G1 X254.681 Y153.797 E10.18902
G1 X255.991 Y154.582 E10.26568
G1 X257.174 Y155.505 E10.34097
G1 X258.443 Y156.804 E10.43211
G1 X259.348 Y158.022 E10.50825
G1 X260.091 Y159.331 E10.5838
G1 X260.678 Y160.747 E10.66072
G1 X261.078 Y162.188 E10.73575
G1 X261.303 Y163.704 E10.81267
G1 X261.34 Y203.209 E12.79527
G1 X261.191 Y204.724 E12.87167
G1 X260.94 Y205.909 E12.93246
G1 X260.573 Y207.064 E12.99326
G1 X259.963 Y208.44 E13.06881
G1 X259.181 Y209.746 E13.14521
G1 X258.045 Y211.163 E13.23636
G1 X256.955 Y212.201 E13.31191
G1 X255.484 Y213.265 E13.40305
G1 X254.141 Y213.983 E13.47945
G1 X252.736 Y214.525 E13.55501
G1 X250.97 Y214.945 E13.64615
G1 X249.455 Y215.094 E13.72255
G1 X100.004 Y215.104 E21.22284
G1 X98.747 Y215.033 E21.28603
G1 X97.409 Y214.802 E21.35419
G1 X96.036 Y214.386 E21.42616
G1 X94.803 Y213.84 E21.49384
G1 X93.573 Y213.103 E21.5658
G1 X92.506 Y212.271 E21.63369
G1 X91.502 Y211.268 E21.70496
G1 X90.663 Y210.194 E21.77334
G1 X89.819 Y208.754 E21.8571
G1 X89.275 Y207.442 E21.92836
G1 X88.912 Y206.134 E21.99653
G1 X88.701 Y204.716 E22.06847
G1 X88.651 Y146.241 E25.00306
G1 X88.797 Y144.432 E25.09415
G1 X89.183 Y142.809 E25.17789
G1 X89.675 Y141.532 E25.24655
G1 X90.346 Y140.277 E25.31801
G1 X91.326 Y138.925 E25.40178
G1 X92.259 Y137.945 E25.46968
G1 X93.309 Y137.082 E25.53793
G1 E23.53793 F2400
G92 E0
G1 X120.069 Y158.433 F7800
G1 E2 F2400
;TYPE:Support material
G1 F1800
G1 X99.939 Y158.433 E3.01024
G1 X99.939 Y145.61 E3.65378
G1 X120.069 Y145.61 E4.66402
G1 X120.069 Y158.382 E5.30496
G1 X119.435 Y158.278 F7800
G1 F1800
G1 X119.435 Y145.921 E5.92513
G1 X119.051 Y145.921 E5.94436
G1 X119.051 Y158.123 E6.55674
G1 X118.668 Y158.123 E6.57597
G1 X118.668 Y145.921 E7.18835
G1 X118.285 Y145.921 E7.20758
G1 X118.285 Y158.123 E7.81996
G1 X117.902 Y158.123 E7.83919
G1 X117.902 Y145.921 E8.45157
G1 X117.519 Y145.921 E8.4708
G1 X117.519 Y158.123 E9.08318
G1 X117.135 Y158.123 E9.10241
G1 X117.135 Y145.921 E9.71479
G1 X116.752 Y145.921 E9.73403
G1 X116.752 Y158.123 E10.34641
G1 X116.369 Y158.123 E10.36564
G1 X116.369 Y145.921 E10.97802
G1 X115.986 Y145.921 E10.99725
G1 X115.986 Y158.123 E11.60963
G1 X115.602 Y158.123 E11.62886
G1 X115.602 Y145.921 E12.24124
G1 X115.219 Y145.921 E12.26047
G1 X115.219 Y158.123 E12.87285
G1 X114.836 Y158.123 E12.89208
G1 X114.836 Y145.921 E13.50446
G1 X114.453 Y145.921 E13.52369
G1 X114.453 Y158.123 E14.13607
G1 X114.07 Y158.123 E14.1553
G1 X114.07 Y145.921 E14.76768
G1 X113.686 Y145.921 E14.78692
G1 X113.686 Y158.123 E15.39929
G1 X113.303 Y158.123 E15.41853
G1 X113.303 Y145.921 E16.03091
G1 X112.92 Y145.921 E16.05014
G1 X112.92 Y158.123 E16.66252
G1 X112.537 Y158.123 E16.68175
G1 X112.537 Y145.921 E17.29413
G1 X112.154 Y145.921 E17.31336
G1 X112.154 Y158.123 E17.92574
G1 X111.77 Y158.123 E17.94497
G1 X111.77 Y145.921 E18.55735
G1 X111.387 Y145.921 E18.57658
G1 X111.387 Y158.123 E19.18896
G1 X111.004 Y158.123 E19.20819
G1 X111.004 Y145.921 E19.82057
G1 X110.621 Y145.921 E19.8398
G1 X110.621 Y158.123 E20.45218
G1 X110.238 Y158.123 E20.47142
G1 X110.238 Y145.921 E21.0838
G1 X109.854 Y145.921 E21.10303
G1 X109.854 Y158.123 E21.71541
G1 X109.471 Y158.123 E21.73464
G1 X109.471 Y145.921 E22.34702
G1 X109.088 Y145.921 E22.36625
G1 X109.088 Y158.123 E22.97863
G1 X108.705 Y158.123 E22.99786
G1 X108.705 Y145.921 E23.61024
G1 X108.321 Y145.921 E23.62947
G1 X108.321 Y158.123 E24.24185
G1 X107.938 Y158.123 E24.26108
G1 X107.938 Y145.921 E24.87346
G1 X107.555 Y145.921 E24.89269
G1 X107.555 Y158.123 E25.50507
G1 X107.172 Y158.123 E25.52431
G1 X107.172 Y145.921 E26.13668
G1 X106.789 Y145.921 E26.15592
G1 X106.789 Y158.123 E26.7683
G1 X106.405 Y158.123 E26.78753
G1 X106.405 Y145.921 E27.39991
G1 X106.022 Y145.921 E27.41914
G1 X106.022 Y158.123 E28.03152
G1 X105.639 Y158.123 E28.05075
G1 X105.639 Y145.921 E28.66313
G1 X105.256 Y145.921 E28.68236
G1 X105.256 Y158.123 E29.29474
G1 X104.873 Y158.123 E29.31397
G1 X104.873 Y145.921 E29.92635
G1 X104.489 Y145.921 E29.94558
G1 X104.489 Y158.123 E30.55796
G1 X104.106 Y158.123 E30.5772
G1 X104.106 Y145.921 E31.18957
G1 X103.723 Y145.921 E31.20881
G1 X103.723 Y158.123 E31.82119
G1 X103.34 Y158.123 E31.84042
G1 X103.34 Y145.921 E32.4528
G1 X102.957 Y145.921 E32.47203
G1 X102.957 Y158.123 E33.08441
G1 X102.573 Y158.123 E33.10364
G1 X102.573 Y145.921 E33.71602
G1 X102.19 Y145.921 E33.73525
G1 X102.19 Y158.123 E34.34763
G1 X101.807 Y158.123 E34.36686
G1 X101.807 Y145.921 E34.97924
G1 X101.424 Y145.921 E34.99847
G1 X101.424 Y158.123 E35.61085
G1 X101.04 Y158.123 E35.63008
G1 X101.04 Y145.921 E36.24246
G1 X100.657 Y145.921 E36.2617
G1 X100.657 Y158.123 E36.87408
G1 X100.274 Y158.123 E36.89331
G1 X100.274 Y145.766 E37.51348
G1 E35.51348 F2400
G92 E0
G1 X120.069 Y201.74 F7800
G1 E2 F2400
G1 F1800
G1 X99.939 Y201.74 E3.01024
G1 X99.939 Y188.781 E3.66062
G1 X120.069 Y188.781 E4.67086
G1 X120.069 Y201.689 E5.31864
G1 X119.435 Y201.585 F7800
G1 F1800
G1 X119.435 Y189.091 E5.94565
G1 X119.051 Y189.091 E5.96488
G1 X119.051 Y201.43 E6.58411
G1 X118.668 Y201.43 E6.60334
G1 X118.668 Y189.091 E7.22256
G1 X118.285 Y189.091 E7.24179
G1 X118.285 Y201.43 E7.86101
G1 X117.902 Y201.43 E7.88024
G1 X117.902 Y189.091 E8.49947
G1 X117.518 Y189.091 E8.5187
G1 X117.518 Y201.43 E9.13792
G1 X117.135 Y201.43 E9.15715
G1 X117.135 Y189.091 E9.77637
G1 X116.752 Y189.091 E9.7956
G1 X116.752 Y201.43 E10.41483
G1 X116.369 Y201.43 E10.43406
G1 X116.369 Y189.091 E11.05328
G1 X115.986 Y189.091 E11.07251
G1 X115.986 Y201.43 E11.69173
G1 X115.602 Y201.43 E11.71096
G1 X115.602 Y189.091 E12.33019
G1 X115.219 Y189.091 E12.34942
G1 X115.219 Y201.43 E12.96864
G1 X114.836 Y201.43 E12.98787
G1 X114.836 Y189.091 E13.60709
G1 X114.453 Y189.091 E13.62632
G1 X114.453 Y201.43 E14.24554
G1 X114.07 Y201.43 E14.26478
G1 X114.07 Y189.091 E14.884
G1 X113.686 Y189.091 E14.90323
G1 X113.686 Y201.43 E15.52245
G1 X113.303 Y201.43 E15.54168
G1 X113.303 Y189.091 E16.1609
G1 X112.92 Y189.091 E16.18014
G1 X112.92 Y201.43 E16.79936
G1 X112.537 Y201.43 E16.81859
G1 X112.537 Y189.091 E17.43781
G1 X112.154 Y189.091 E17.45704
G1 X112.154 Y201.43 E18.07626
G1 X111.77 Y201.43 E18.0955
G1 X111.77 Y189.091 E18.71472
G1 X111.387 Y189.091 E18.73395
G1 X111.387 Y201.43 E19.35317
G1 X111.004 Y201.43 E19.3724
G1 X111.004 Y189.091 E19.99162
G1 X110.621 Y189.091 E20.01086
G1 X110.621 Y201.43 E20.63008
G1 X110.238 Y201.43 E20.64931
G1 X110.238 Y189.091 E21.26853
G1 X109.854 Y189.091 E21.28776
G1 X109.854 Y201.43 E21.90698
G1 X109.471 Y201.43 E21.92622
G1 X109.471 Y189.091 E22.54544
G1 X109.088 Y189.091 E22.56467
G1 X109.088 Y201.43 E23.18389
G1 X108.705 Y201.43 E23.20312
G1 X108.705 Y189.091 E23.82234
G1 X108.321 Y189.091 E23.84158
G1 X108.321 Y201.43 E24.4608
G1 X107.938 Y201.43 E24.48003
G1 X107.938 Y189.091 E25.09925
G1 X107.555 Y189.091 E25.11848
G1 X107.555 Y201.43 E25.7377
G1 X107.172 Y201.43 E25.75694
G1 X107.172 Y189.091 E26.37616
G1 X106.789 Y189.091 E26.39539
G1 X106.789 Y201.43 E27.01461
G1 X106.405 Y201.43 E27.03384
G1 X106.405 Y189.091 E27.65306
G1 X106.022 Y189.091 E27.67229
G1 X106.022 Y201.43 E28.29152
G1 X105.639 Y201.43 E28.31075
G1 X105.639 Y189.091 E28.92997
G1 X105.256 Y189.091 E28.9492
G1 X105.256 Y201.43 E29.56842
G1 X104.873 Y201.43 E29.58765
G1 X104.873 Y189.091 E30.20688
G1 X104.489 Y189.091 E30.22611
G1 X104.489 Y201.43 E30.84533
G1 X104.106 Y201.43 E30.86456
G1 X104.106 Y189.091 E31.48378
G1 X103.723 Y189.091 E31.50301
G1 X103.723 Y201.43 E32.12224
G1 X103.34 Y201.43 E32.14147
G1 X103.34 Y189.091 E32.76069
G1 X102.957 Y189.091 E32.77992
G1 X102.957 Y201.43 E33.39914
G1 X102.573 Y201.43 E33.41837
G1 X102.573 Y189.091 E34.0376
G1 X102.19 Y189.091 E34.05683
G1 X102.19 Y201.43 E34.67605
G1 X101.807 Y201.43 E34.69528
G1 X101.807 Y189.091 E35.3145
G1 X101.424 Y189.091 E35.33373
G1 X101.424 Y201.43 E35.95296
G1 X101.04 Y201.43 E35.97219
G1 X101.04 Y189.091 E36.59141
G1 X100.657 Y189.091 E36.61064
G1 X100.657 Y201.43 E37.22986
G1 X100.274 Y201.43 E37.24909
G1 X100.274 Y188.936 E37.8761
G1 E35.8761 F2400
G92 E0
G1 X227.485 Y198 F7800
G1 E2 F2400
G1 F1800
G1 X227.738 Y198.019 E2.01272
G1 X227.99 Y198.063 E2.02555
G1 X228.236 Y198.132 E2.03838
G1 X228.474 Y198.226 E2.05122
G1 X228.701 Y198.342 E2.06405
G1 X228.916 Y198.481 E2.07688
G1 X229.116 Y198.64 E2.08971
G1 X229.299 Y198.819 E2.10255
G1 X229.463 Y199.015 E2.11538
G1 X229.607 Y199.226 E2.12821
G1 X229.73 Y199.451 E2.14104
G1 X229.829 Y199.686 E2.15387
G1 X229.904 Y199.931 E2.16671
G1 X229.955 Y200.181 E2.17954
G1 X229.981 Y200.436 E2.19237
G1 X229.981 Y200.691 E2.20521
G1 X229.955 Y200.946 E2.21804
G1 X229.904 Y201.196 E2.23087
G1 X229.829 Y201.441 E2.2437
G1 X229.73 Y201.676 E2.25654
G1 X229.607 Y201.901 E2.26937
G1 X229.463 Y202.112 E2.2822
G1 X229.299 Y202.308 E2.29503
G1 X229.116 Y202.487 E2.30786
G1 X228.809 Y202.719 E2.32721
G1 X228.589 Y202.846 E2.33993
G1 X228.356 Y202.951 E2.35277
G1 X228.114 Y203.033 E2.3656
G1 X227.864 Y203.089 E2.37843
G1 X227.611 Y203.121 E2.39126
G1 X227.355 Y203.128 E2.4041
G1 X227.1 Y203.108 E2.41693
G1 X226.848 Y203.064 E2.42976
G1 X226.602 Y202.995 E2.44259
G1 X226.364 Y202.901 E2.45542
G1 X226.136 Y202.785 E2.46826
G1 X225.922 Y202.646 E2.48109
G1 X225.722 Y202.487 E2.49392
G1 X225.539 Y202.308 E2.50675
G1 X225.374 Y202.112 E2.51959
G1 X225.23 Y201.901 E2.53242
G1 X225.108 Y201.676 E2.54525
G1 X225.009 Y201.441 E2.55808
G1 X224.904 Y201.07 E2.57743
G1 X224.867 Y200.819 E2.59015
G1 X224.854 Y200.563 E2.60299
G1 X224.867 Y200.308 E2.61582
G1 X224.905 Y200.055 E2.62865
G1 X224.968 Y199.807 E2.64149
G1 X225.055 Y199.567 E2.65432
G1 X225.166 Y199.337 E2.66715
G1 X225.3 Y199.119 E2.67998
G1 X225.454 Y198.915 E2.69281
G1 X225.628 Y198.727 E2.70565
G1 X225.82 Y198.558 E2.71848
G1 X226.027 Y198.409 E2.73131
G1 X226.249 Y198.281 E2.74414
G1 X226.482 Y198.176 E2.75698
G1 X226.724 Y198.094 E2.76981
G1 X226.973 Y198.038 E2.78264
G1 X227.433 Y197.999 E2.8058
G1 X229.416 Y201.912 F7800
G1 F1800
G1 X229.416 Y199.519 E2.92588
G1 X229.216 Y199.202 E2.94466
G1 X229.033 Y198.99 E2.95873
G1 X229.033 Y202.137 E3.11663
G1 X228.824 Y202.326 E3.13075
G1 X228.649 Y202.452 E3.14158
G1 X228.649 Y198.675 E3.33114
G1 X228.266 Y198.475 E3.35284
G1 X228.266 Y202.652 E3.56246
G1 X227.883 Y202.769 E3.58257
G1 X227.883 Y198.358 E3.80393
G1 X227.587 Y198.315 E3.81892
G1 X227.5 Y198.311 E3.82333
G1 X227.5 Y202.816 E4.04941
G1 X227.117 Y202.797 E4.06866
G1 X227.117 Y198.33 E4.29285
G1 X226.733 Y198.417 E4.31256
G1 X226.733 Y202.711 E4.52806
G1 X226.35 Y202.548 E4.54896
G1 X226.35 Y198.579 E4.74811
G1 X225.967 Y198.84 E4.77137
G1 X225.967 Y202.287 E4.94438
G1 X225.766 Y202.097 E4.95825
G1 X225.584 Y201.872 E4.9728
G1 X225.584 Y199.255 E5.10411
G1 X225.439 Y199.485 E5.11775
G1 X225.342 Y199.688 E5.12902
G1 X225.265 Y199.899 E5.1403
G1 X225.201 Y200.166 E5.15408
G1 X225.201 Y201.504 E5.22124
G1 E3.22124 F2400
G92 E0
G1 X248.691 Y164.106 F7800
G1 E2 F2400
G1 F1800
G1 X248.943 Y164.125 E2.01272
G1 X249.195 Y164.169 E2.02555
G1 X249.441 Y164.238 E2.03838
G1 X249.679 Y164.332 E2.05122
G1 X249.907 Y164.448 E2.06405
G1 X250.122 Y164.587 E2.07688
G1 X250.321 Y164.746 E2.08971
G1 X250.505 Y164.925 E2.10255
G1 X250.669 Y165.121 E2.11538
G1 X250.813 Y165.332 E2.12821
G1 X250.935 Y165.557 E2.14104
G1 X251.035 Y165.792 E2.15388
G1 X251.11 Y166.037 E2.16671
G1 X251.161 Y166.287 E2.17954
G1 X251.186 Y166.542 E2.19237
G1 X251.186 Y166.797 E2.20521
G1 X251.161 Y167.052 E2.21804
G1 X251.11 Y167.302 E2.23087
G1 X251.035 Y167.547 E2.2437
G1 X250.935 Y167.782 E2.25653
G1 X250.813 Y168.007 E2.26937
G1 X250.669 Y168.218 E2.2822
G1 X250.414 Y168.507 E2.30155
G1 X250.224 Y168.675 E2.31427
G1 X250.016 Y168.824 E2.3271
G1 X249.794 Y168.952 E2.33994
G1 X249.561 Y169.057 E2.35277
G1 X249.319 Y169.138 E2.3656
G1 X249.07 Y169.195 E2.37843
G1 X248.816 Y169.227 E2.39126
G1 X248.56 Y169.234 E2.4041
G1 X248.305 Y169.214 E2.41693
G1 X248.054 Y169.17 E2.42976
G1 X247.807 Y169.101 E2.44259
G1 X247.569 Y169.007 E2.45542
G1 X247.342 Y168.891 E2.46826
G1 X247.127 Y168.752 E2.48109
G1 X246.927 Y168.593 E2.49392
G1 X246.744 Y168.414 E2.50675
G1 X246.58 Y168.218 E2.51959
G1 X246.436 Y168.007 E2.53242
G1 X246.313 Y167.782 E2.54525
G1 X246.214 Y167.547 E2.55809
G1 X246.11 Y167.178 E2.57732
G1 X246.072 Y166.925 E2.59015
G1 X246.059 Y166.669 E2.60299
G1 X246.072 Y166.414 E2.61582
G1 X246.11 Y166.161 E2.62865
G1 X246.173 Y165.913 E2.64149
G1 X246.261 Y165.673 E2.65432
G1 X246.372 Y165.443 E2.66715
G1 X246.505 Y165.225 E2.67998
G1 X246.66 Y165.021 E2.69281
G1 X246.833 Y164.833 E2.70564
G1 X247.025 Y164.664 E2.71848
G1 X247.233 Y164.515 E2.73131
G1 X247.454 Y164.387 E2.74414
G1 X247.687 Y164.282 E2.75698
G1 X247.93 Y164.2 E2.76981
G1 X248.179 Y164.144 E2.78264
G1 X248.639 Y164.105 E2.8058
G1 X250.876 Y167.527 F7800
G1 F1800
G1 X250.876 Y166.553 E2.85469
G1 X250.834 Y166.223 E2.87138
G1 X250.702 Y165.794 E2.8939
G1 X250.492 Y165.408 E2.91594
G1 X250.492 Y167.931 E3.04257
G1 X250.351 Y168.119 E3.05434
G1 X250.109 Y168.366 E3.0717
G1 X250.109 Y164.973 E3.24193
G1 X249.94 Y164.839 E3.25276
G1 X249.726 Y164.703 E3.2655
G1 X249.726 Y168.636 E3.46286
G1 X249.343 Y168.806 E3.48391
G1 X249.343 Y164.533 E3.69839
G1 X248.96 Y164.441 E3.71816
G1 X248.96 Y168.898 E3.94185
G1 X248.576 Y168.923 E3.96112
G1 X248.576 Y164.416 E4.18733
G1 X248.344 Y164.433 E4.19902
G1 X248.193 Y164.457 E4.20669
G1 X248.193 Y168.882 E4.42872
G1 X247.81 Y168.771 E4.44873
G1 X247.81 Y164.568 E4.6597
G1 X247.427 Y164.76 E4.68123
G1 X247.427 Y168.579 E4.87287
G1 X247.219 Y168.432 E4.88564
G1 X247.043 Y168.276 E4.8974
G1 X247.043 Y165.063 E5.05869
G1 X246.827 Y165.308 E5.07511
G1 X246.66 Y165.564 E5.09044
G1 X246.66 Y168.064 E5.21591
G1 E3.21591 F2400
G92 E0
G1 X229.505 Y197.269 F7800
G1 E2 F2400
;TYPE:Perimeter
G1 F1800
G1 X229.851 Y197.514 E2.02123
G1 X230.143 Y197.771 E2.04075
G1 X230.407 Y198.056 E2.06027
G1 X230.642 Y198.366 E2.07978
G1 X230.845 Y198.698 E2.0993
G1 X231.013 Y199.048 E2.11882
G1 X231.146 Y199.414 E2.13834
G1 X231.245 Y199.803 E2.15848
G1 X231.315 Y200.373 E2.1873
G1 X231.315 Y200.758 E2.20666
G1 X231.276 Y201.145 E2.22615
G1 X231.199 Y201.526 E2.24567
G1 X231.084 Y201.898 E2.26518
G1 X230.933 Y202.256 E2.2847
G1 X230.747 Y202.598 E2.30422
G1 X230.528 Y202.919 E2.32373
G1 X230.278 Y203.217 E2.34325
G1 X230 Y203.488 E2.36277
G1 X229.696 Y203.731 E2.38228
G1 X229.369 Y203.942 E2.4018
G1 X229.023 Y204.119 E2.42132
G1 X228.661 Y204.261 E2.44083
G1 X228.287 Y204.367 E2.46035
G1 X227.904 Y204.434 E2.47987
G1 X227.516 Y204.463 E2.49938
G1 X227.127 Y204.454 E2.5189
G1 X226.741 Y204.405 E2.53842
G1 X226.362 Y204.319 E2.55793
G1 X225.994 Y204.195 E2.57745
G1 X225.639 Y204.035 E2.59697
G1 X225.302 Y203.84 E2.61649
G1 X224.987 Y203.613 E2.636
G1 X224.695 Y203.356 E2.65552
G1 X224.431 Y203.071 E2.67503
G1 X224.196 Y202.761 E2.69455
G1 X223.993 Y202.429 E2.71407
G1 X223.824 Y202.079 E2.73359
G1 X223.691 Y201.713 E2.7531
G1 X223.592 Y201.324 E2.77325
G1 X223.522 Y200.754 E2.80207
G1 X223.523 Y200.369 E2.82143
G1 X223.562 Y199.982 E2.84092
G1 X223.639 Y199.601 E2.86043
