; generated by PrusaSlicer 2.4.2 on 2022-07-26 at 03:38:27 UTC

; 

; external perimeters extrusion width = 0.45mm
; perimeters extrusion width = 0.45mm
; infill extrusion width = 0.45mm
; solid infill extrusion width = 0.45mm
; top infill extrusion width = 0.40mm
; support material extrusion width = 0.35mm
; first layer extrusion width = 0.42mm

M107
M190 S60 ; set bed temperature and wait for it to be reached
M104 S215 ; set temperature
;TYPE:Custom
G28 ; home all axes
G1 Z5 F5000 ; lift nozzle
M109 S215 ; set temperature and wait for it to be reached
G21 ; set units to millimeters
G90 ; use absolute coordinates
M82 ; use absolute distances for extrusion
G92 E0
; Filament gcode
M107
;LAYER_CHANGE
;Z:0.35
;HEIGHT:0.35
G1 Z.35 F7800
G1 E-2 F2400
G92 E0
G1 Z3.35 F7800
G1 X69.79 Y119.923
G1 Z.35
G1 E2 F2400
;TYPE:Skirt/Brim
;WIDTH:0.42
G1 F1800
G1 X71.325 Y119.268 E2.08376
G1 X73.172 Y118.804 E2.17931
G1 X75 Y118.655 E2.27136
G1 X225.156 Y118.657 E9.80706
G1 X226.257 Y118.726 E9.86245
G1 X227.366 Y118.905 E9.9188
G1 X228.442 Y119.191 E9.97467
G1 X229.485 Y119.58 E10.03054
G1 X231.172 Y120.482 E10.12658
G1 X232.075 Y121.133 E10.18245
G1 X232.911 Y121.869 E10.23831
G1 X233.67 Y122.684 E10.2942
G1 X234.345 Y123.569 E10.35005
G1 X235.32 Y125.291 E10.44939
G1 X235.965 Y127.093 E10.54543
G1 X236.197 Y128.181 E10.60129
G1 X236.322 Y129.288 E10.65716
G1 X236.345 Y170 E12.70035
G1 X236.197 Y171.819 E12.79192
G1 X235.809 Y173.442 E12.87566
G1 X235.32 Y174.709 E12.94385
G1 X234.518 Y176.172 E13.0276
G1 X233.67 Y177.316 E13.09906
G1 X232.733 Y178.3 E13.16725
G1 X231.431 Y179.345 E13.251
G1 X229.991 Y180.187 E13.33477
G1 X228.675 Y180.732 E13.40624
G1 X226.818 Y181.197 E13.50229
G1 X225.004 Y181.345 E13.59362
G1 X74.599 Y181.337 E21.14185
G1 X72.94 Y181.155 E21.22562
G1 X71.325 Y180.732 E21.30938
G1 X69.516 Y179.93 E21.40872
G1 X68.126 Y179.024 E21.492
G1 X66.869 Y177.911 E21.57624
G1 X65.802 Y176.64 E21.65952
G1 X64.927 Y175.218 E21.74329
G1 X64.268 Y173.675 E21.82754
G1 X63.804 Y171.828 E21.92307
G1 X63.655 Y170 E22.01513
G1 X63.655 Y130 E24.02256
G1 X63.757 Y128.49 E24.09852
G1 X64.099 Y126.861 E24.18204
G1 X64.677 Y125.296 E24.26579
G1 X65.351 Y124.035 E24.33752
G1 X66.33 Y122.684 E24.42128
G1 X67.491 Y121.497 E24.50457
G1 X68.561 Y120.661 E24.57273
G1 X69.739 Y119.954 E24.64168
G1 E22.64168 F2400
G92 E0
G1 Z3.35 F7800
G1 X202.481 Y164.241
G1 Z.35
G1 E2 F2400
;TYPE:Support material
G1 F1800
G1 X202.733 Y164.26 E2.01272
G1 X202.985 Y164.304 E2.02555
G1 X203.231 Y164.374 E2.03838
G1 X203.469 Y164.467 E2.05122
G1 X203.697 Y164.584 E2.06405
G1 X203.912 Y164.722 E2.07688
G1 X204.112 Y164.882 E2.08971
G1 X204.295 Y165.06 E2.10255
G1 X204.459 Y165.256 E2.11538
G1 X204.603 Y165.467 E2.12821
G1 X204.725 Y165.692 E2.14104
G1 X204.825 Y165.928 E2.15387
G1 X204.9 Y166.172 E2.16671
G1 X204.951 Y166.423 E2.17954
G1 X204.976 Y166.677 E2.19237
G1 X204.976 Y166.933 E2.20521
G1 X204.951 Y167.187 E2.21804
G1 X204.9 Y167.438 E2.23087
G1 X204.825 Y167.682 E2.2437
G1 X204.725 Y167.918 E2.25654
G1 X204.534 Y168.25 E2.27577
G1 X204.379 Y168.454 E2.28861
G1 X204.205 Y168.641 E2.30144
G1 X204.014 Y168.81 E2.31427
G1 X203.806 Y168.959 E2.3271
G1 X203.585 Y169.087 E2.33993
G1 X203.351 Y169.192 E2.35277
G1 X203.109 Y169.274 E2.3656
G1 X202.86 Y169.331 E2.37843
G1 X202.606 Y169.363 E2.39127
G1 X202.35 Y169.369 E2.4041
G1 X202.095 Y169.35 E2.41693
G1 X201.844 Y169.305 E2.42976
G1 X201.598 Y169.236 E2.44259
G1 X201.359 Y169.143 E2.45543
G1 X201.132 Y169.026 E2.46826
G1 X200.917 Y168.887 E2.48109
G1 X200.717 Y168.728 E2.49392
G1 X200.534 Y168.549 E2.50675
G1 X200.37 Y168.354 E2.51959
G1 X200.226 Y168.142 E2.53242
G1 X200.104 Y167.918 E2.54525
G1 X200.004 Y167.682 E2.55809
G1 X199.9 Y167.311 E2.57743
G1 X199.862 Y167.06 E2.59016
G1 X199.85 Y166.805 E2.60299
G1 X199.862 Y166.549 E2.61582
G1 X199.9 Y166.297 E2.62865
G1 X199.963 Y166.049 E2.64148
G1 X200.051 Y165.809 E2.65432
G1 X200.162 Y165.578 E2.66715
G1 X200.295 Y165.36 E2.67998
G1 X200.45 Y165.156 E2.69281
G1 X200.624 Y164.969 E2.70565
G1 X200.815 Y164.8 E2.71848
G1 X201.023 Y164.65 E2.73131
G1 X201.244 Y164.522 E2.74414
G1 X201.477 Y164.417 E2.75698
G1 X201.72 Y164.336 E2.76981
G1 X201.969 Y164.279 E2.78264
G1 X202.429 Y164.241 E2.8058
G1 X204.416 Y168.146 F7800
G1 F1800
G1 X204.416 Y165.769 E2.9251
G1 X204.211 Y165.444 E2.94437
G1 X204.033 Y165.236 E2.95811
G1 X204.033 Y168.373 E3.11555
G1 X203.82 Y168.567 E3.13
G1 X203.649 Y168.69 E3.14055
G1 X203.649 Y164.919 E3.32982
G1 X203.266 Y164.718 E3.35153
G1 X203.266 Y168.892 E3.56098
G1 X202.883 Y169.009 E3.5811
G1 X202.883 Y164.6 E3.80237
G1 X202.583 Y164.557 E3.81759
G1 X202.5 Y164.553 E3.82176
G1 X202.5 Y169.057 E4.04782
G1 X202.117 Y169.039 E4.06708
G1 X202.117 Y164.571 E4.29133
G1 X201.733 Y164.656 E4.31104
G1 X201.733 Y168.953 E4.52667
G1 X201.35 Y168.791 E4.54755
G1 X201.35 Y164.818 E4.74695
G1 X200.967 Y165.077 E4.77017
G1 X200.967 Y168.532 E4.94355
G1 X200.762 Y168.338 E4.95772
G1 X200.584 Y168.119 E4.97188
G1 X200.584 Y165.49 E5.10381
G1 X200.435 Y165.727 E5.11783
G1 X200.337 Y165.929 E5.12911
G1 X200.26 Y166.14 E5.14039
G1 X200.201 Y166.382 E5.15289
G1 X200.201 Y167.755 E5.2218
G1 E3.2218 F2400
G92 E0
G1 Z3.35 F7800
G1 X223.686 Y130.347
G1 Z.35
G1 E2 F2400
G1 F1800
G1 X223.939 Y130.366 E2.01272
G1 X224.191 Y130.41 E2.02555
G1 X224.437 Y130.48 E2.03838
G1 X224.675 Y130.573 E2.05122
G1 X224.902 Y130.69 E2.06405
G1 X225.117 Y130.828 E2.07688
G1 X225.317 Y130.988 E2.08971
G1 X225.5 Y131.166 E2.10255
G1 X225.664 Y131.362 E2.11538
G1 X225.808 Y131.573 E2.12821
G1 X225.931 Y131.798 E2.14104
G1 X226.03 Y132.034 E2.15388
G1 X226.105 Y132.278 E2.16671
G1 X226.156 Y132.529 E2.17954
G1 X226.182 Y132.783 E2.19237
G1 X226.182 Y133.039 E2.20521
G1 X226.156 Y133.293 E2.21804
G1 X226.105 Y133.544 E2.23087
G1 X226.03 Y133.788 E2.2437
G1 X225.931 Y134.024 E2.25654
G1 X225.808 Y134.248 E2.26937
G1 X225.664 Y134.46 E2.2822
G1 X225.409 Y134.748 E2.30154
G1 X225.219 Y134.916 E2.31427
G1 X225.011 Y135.065 E2.3271
G1 X224.79 Y135.193 E2.33993
G1 X224.557 Y135.298 E2.35277
G1 X224.315 Y135.38 E2.3656
G1 X224.065 Y135.437 E2.37843
G1 X223.812 Y135.469 E2.39126
G1 X223.556 Y135.475 E2.4041
G1 X223.301 Y135.456 E2.41693
G1 X223.049 Y135.411 E2.42976
G1 X222.803 Y135.342 E2.44259
G1 X222.565 Y135.249 E2.45542
G1 X222.337 Y135.132 E2.46826
G1 X222.123 Y134.993 E2.48109
G1 X221.923 Y134.834 E2.49392
G1 X221.74 Y134.655 E2.50676
G1 X221.575 Y134.46 E2.51959
G1 X221.431 Y134.248 E2.53242
G1 X221.309 Y134.024 E2.54525
G1 X221.21 Y133.788 E2.55808
G1 X221.105 Y133.417 E2.57743
G1 X221.068 Y133.166 E2.59016
G1 X221.055 Y132.911 E2.60299
G1 X221.068 Y132.655 E2.61582
G1 X221.106 Y132.403 E2.62865
G1 X221.169 Y132.155 E2.64148
G1 X221.256 Y131.915 E2.65431
G1 X221.367 Y131.684 E2.66715
G1 X221.501 Y131.466 E2.67998
G1 X221.655 Y131.262 E2.69281
G1 X221.829 Y131.075 E2.70565
G1 X222.021 Y130.906 E2.71848
G1 X222.228 Y130.756 E2.73131
G1 X222.45 Y130.628 E2.74414
G1 X222.683 Y130.523 E2.75697
G1 X222.925 Y130.442 E2.76981
G1 X223.175 Y130.385 E2.78264
G1 X223.634 Y130.347 E2.8058
G1 X225.492 Y134.426 F7800
G1 F1800
G1 X225.492 Y131.656 E2.94482
G1 X225.347 Y131.462 E2.95701
G1 X225.109 Y131.219 E2.97407
G1 X225.109 Y134.603 E3.14393
G1 X224.726 Y134.875 E3.1675
G1 X224.726 Y130.947 E3.36462
G1 X224.343 Y130.776 E3.38569
G1 X224.343 Y135.046 E3.6
G1 X223.96 Y135.139 E3.61979
G1 X223.96 Y130.683 E3.84341
G1 X223.576 Y130.657 E3.86268
G1 X223.576 Y135.165 E4.08889
G1 X223.193 Y135.124 E4.10823
G1 X223.193 Y130.698 E4.33035
G1 X222.81 Y130.807 E4.35035
G1 X222.81 Y135.014 E4.56148
G1 X222.427 Y134.823 E4.58298
G1 X222.427 Y130.999 E4.77489
G1 X222.214 Y131.148 E4.78793
G1 X222.043 Y131.299 E4.79937
G1 X222.043 Y134.522 E4.96112
G1 X221.823 Y134.272 E4.97786
G1 X221.66 Y134.024 E4.99274
G1 X221.66 Y131.51 E5.11891
G1 E3.11891 F2400
G92 E0
G1 Z3.35 F7800
G1 X204.224 Y163.351
G1 Z.35
G1 E2 F2400
;TYPE:Perimeter
G1 F1800
G1 X204.531 Y163.528 E2.01779
G1 X204.847 Y163.755 E2.03731
G1 X205.138 Y164.012 E2.05682
G1 X205.403 Y164.297 E2.07634
G1 X205.637 Y164.607 E2.09586
G1 X205.84 Y164.939 E2.11537
G1 X206.009 Y165.29 E2.13489
G1 X206.142 Y165.655 E2.1544
G1 X206.238 Y166.032 E2.17392
G1 X206.296 Y166.416 E2.19344
G1 X206.315 Y166.805 E2.21296
G1 X206.296 Y167.193 E2.23247
G1 X206.238 Y167.578 E2.25199
G1 X206.142 Y167.955 E2.27151
G1 X206.009 Y168.32 E2.29102
G1 X205.84 Y168.67 E2.31054
G1 X205.637 Y169.002 E2.33006
G1 X205.403 Y169.312 E2.34957
G1 X205.138 Y169.597 E2.36909
G1 X204.847 Y169.855 E2.38861
G1 X204.522 Y170.088 E2.40869
G1 X204.029 Y170.356 E2.43683
G1 X203.657 Y170.503 E2.45691
G1 X203.282 Y170.608 E2.47642
G1 X202.899 Y170.675 E2.49594
G1 X202.512 Y170.705 E2.51546
G1 X202.123 Y170.695 E2.53497
G1 X201.737 Y170.647 E2.55449
G1 X201.358 Y170.56 E2.57401
G1 X200.989 Y170.436 E2.59352
G1 X200.635 Y170.276 E2.61304
G1 X200.298 Y170.082 E2.63256
G1 X199.982 Y169.855 E2.65207
G1 X199.691 Y169.597 E2.67159
G1 X199.426 Y169.312 E2.69111
G1 X199.191 Y169.002 E2.71062
G1 X198.989 Y168.67 E2.73014
G1 X198.82 Y168.32 E2.74966
G1 X198.687 Y167.955 E2.76917
G1 X198.588 Y167.566 E2.78932
G1 X198.518 Y166.996 E2.81814
G1 X198.518 Y166.61 E2.8375
G1 X198.557 Y166.223 E2.85699
G1 X198.634 Y165.842 E2.87651
G1 X198.749 Y165.471 E2.89602
G1 X198.9 Y165.112 E2.91554
G1 X199.086 Y164.771 E2.93506
G1 X199.305 Y164.449 E2.95457
G1 X199.555 Y164.152 E2.97409
G1 X199.833 Y163.88 E2.99361
G1 X200.137 Y163.638 E3.01312
G1 X200.464 Y163.427 E3.03264
G1 X200.81 Y163.249 E3.05216
G1 X201.172 Y163.107 E3.07167
G1 X201.546 Y163.002 E3.09119
G1 X201.929 Y162.934 E3.11071
G1 X202.317 Y162.905 E3.13022
G1 X202.706 Y162.915 E3.14974
G1 X203.092 Y162.963 E3.16926
G1 X203.471 Y163.05 E3.18877
G1 X203.84 Y163.174 E3.20829
G1 X204.171 Y163.323 E3.22652
G1 X204.036 Y163.641 F7800
G1 F1800
G1 X204.343 Y163.818 E3.24431
G1 X204.631 Y164.025 E3.2621
G1 X204.897 Y164.26 E3.27989
G1 X205.138 Y164.519 E3.29768
G1 X205.352 Y164.802 E3.31547
G1 X205.537 Y165.104 E3.33326
G1 X205.691 Y165.424 E3.35105
G1 X205.812 Y165.757 E3.36883
G1 X205.899 Y166.1 E3.38662
G1 X205.952 Y166.451 E3.40441
G1 X205.97 Y166.805 E3.4222
G1 X205.952 Y167.159 E3.43999
G1 X205.899 Y167.509 E3.45778
G1 X205.812 Y167.853 E3.47557
G1 X205.691 Y168.186 E3.49336
G1 X205.537 Y168.505 E3.51115
G1 X205.352 Y168.808 E3.52894
G1 X205.138 Y169.09 E3.54673
G1 X204.897 Y169.35 E3.56451
G1 X204.631 Y169.585 E3.5823
G1 X204.338 Y169.796 E3.60044
G1 X203.883 Y170.043 E3.62642
G1 X203.547 Y170.175 E3.64456
G1 X203.206 Y170.271 E3.66235
G1 X202.856 Y170.333 E3.68013
G1 X202.503 Y170.359 E3.69792
G1 X202.149 Y170.351 E3.71571
G1 X201.797 Y170.306 E3.7335
G1 X201.451 Y170.228 E3.75129
G1 X201.115 Y170.115 E3.76908
G1 X200.792 Y169.969 E3.78687
G1 X200.485 Y169.792 E3.80466
G1 X200.198 Y169.585 E3.82245
G1 X199.932 Y169.35 E3.84024
G1 X199.691 Y169.09 E3.85802
G1 X199.477 Y168.808 E3.87581
G1 X199.292 Y168.505 E3.8936
G1 X199.138 Y168.186 E3.91139
G1 X199.017 Y167.853 E3.92918
G1 X198.927 Y167.502 E3.94736
G1 X198.863 Y166.975 E3.97401
G1 X198.863 Y166.627 E3.99145
G1 X198.899 Y166.275 E4.00922
G1 X198.969 Y165.928 E4.02701
G1 X199.073 Y165.589 E4.0448
G1 X199.211 Y165.262 E4.06259
G1 X199.38 Y164.951 E4.08037
G1 X199.58 Y164.658 E4.09817
G1 X199.808 Y164.386 E4.11595
G1 X200.062 Y164.139 E4.13374
G1 X200.339 Y163.918 E4.15153
G1 X200.637 Y163.726 E4.16932
G1 X200.952 Y163.564 E4.18711
G1 X201.282 Y163.434 E4.2049
G1 X201.623 Y163.338 E4.22269
G1 X201.972 Y163.277 E4.24048
G1 X202.326 Y163.25 E4.25827
G1 X202.68 Y163.259 E4.27605
G1 X203.032 Y163.303 E4.29384
G1 X203.377 Y163.382 E4.31163
G1 X203.713 Y163.495 E4.32942
G1 X203.982 Y163.616 E4.3442
G1 X203.879 Y163.948 F7800
;TYPE:External perimeter
G1 F1800
G1 X204.156 Y164.108 E4.36026
G1 X204.416 Y164.295 E4.37632
G1 X204.656 Y164.507 E4.39238
G1 X204.874 Y164.741 E4.40844
G1 X205.067 Y164.996 E4.42451
G1 X205.234 Y165.27 E4.44057
G1 X205.373 Y165.558 E4.45663
G1 X205.482 Y165.859 E4.47269
G1 X205.561 Y166.169 E4.48875
G1 X205.609 Y166.485 E4.50481
G1 X205.625 Y166.805 E4.52087
G1 X205.609 Y167.125 E4.53693
G1 X205.561 Y167.441 E4.553
G1 X205.482 Y167.751 E4.56906
G1 X205.373 Y168.052 E4.58512
G1 X205.234 Y168.34 E4.60118
G1 X205.067 Y168.613 E4.61724
G1 X204.874 Y168.868 E4.6333
G1 X204.656 Y169.103 E4.64936
G1 X204.416 Y169.315 E4.66543
G1 X204.154 Y169.503 E4.68162
G1 X203.737 Y169.73 E4.70544
G1 X203.437 Y169.848 E4.72163
G1 X203.129 Y169.935 E4.73769
G1 X202.814 Y169.99 E4.75375
G1 X202.494 Y170.014 E4.76981
G1 X202.175 Y170.006 E4.78587
G1 X201.857 Y169.966 E4.80194
G1 X201.545 Y169.895 E4.818
G1 X201.242 Y169.793 E4.83406
G1 X200.95 Y169.662 E4.85012
G1 X200.673 Y169.502 E4.86618
G1 X200.413 Y169.315 E4.88224
G1 X200.173 Y169.103 E4.8983
G1 X199.955 Y168.868 E4.91437
G1 X199.762 Y168.613 E4.93043
G1 X199.595 Y168.34 E4.94649
G1 X199.456 Y168.052 E4.96255
G1 X199.347 Y167.751 E4.97861
G1 X199.267 Y167.438 E4.99482
G1 X199.208 Y166.954 E5.0193
G1 X199.208 Y166.645 E5.03482
G1 X199.24 Y166.326 E5.05087
G1 X199.303 Y166.013 E5.06694
G1 X199.398 Y165.707 E5.083
G1 X199.522 Y165.412 E5.09906
G1 X199.675 Y165.131 E5.11512
G1 X199.855 Y164.866 E5.13118
G1 X200.061 Y164.621 E5.14724
G1 X200.29 Y164.398 E5.1633
G1 X200.54 Y164.198 E5.17936
G1 X200.809 Y164.025 E5.19543
G1 X201.094 Y163.879 E5.21149
G1 X201.392 Y163.762 E5.22755
G1 X201.7 Y163.675 E5.24361
G1 X202.015 Y163.62 E5.25967
G1 X202.334 Y163.596 E5.27573
G1 X202.654 Y163.604 E5.29179
G1 X202.972 Y163.643 E5.30786
G1 X203.284 Y163.715 E5.32392
G1 X203.587 Y163.817 E5.33998
G1 X203.824 Y163.923 E5.35303
G1 X204.148 Y163.775 F7800
G1 E3.35303 F2400
G92 E0
G1 Z3.35 F7800
G1 X221.476 Y136.168
G1 Z.35
G1 E2 F2400
;TYPE:Perimeter
G1 F1800
G1 X221.188 Y135.961 E2.01779
G1 X220.896 Y135.703 E2.0373
G1 X220.632 Y135.418 E2.05682
G1 X220.397 Y135.108 E2.07634
G1 X220.194 Y134.776 E2.09586
G1 X220.025 Y134.426 E2.11537
G1 X219.892 Y134.061 E2.13489
G1 X219.793 Y133.672 E2.15503
G1 X219.723 Y133.102 E2.18385
G1 X219.724 Y132.716 E2.20321
G1 X219.763 Y132.329 E2.22271
G1 X219.84 Y131.948 E2.24222
G1 X219.954 Y131.577 E2.26174
G1 X220.105 Y131.218 E2.28126
G1 X220.291 Y130.877 E2.30077
G1 X220.51 Y130.555 E2.32029
G1 X220.76 Y130.258 E2.33981
G1 X221.039 Y129.986 E2.35932
G1 X221.343 Y129.744 E2.37884
G1 X221.669 Y129.533 E2.39835
G1 X222.016 Y129.355 E2.41787
G1 X222.378 Y129.213 E2.43739
G1 X222.752 Y129.108 E2.4569
G1 X223.135 Y129.04 E2.47642
G1 X223.523 Y129.011 E2.49594
G1 X223.911 Y129.021 E2.51545
G1 X224.297 Y129.069 E2.53497
G1 X224.676 Y129.156 E2.55449
G1 X225.045 Y129.28 E2.574
G1 X225.4 Y129.44 E2.59352
G1 X225.736 Y129.634 E2.61304
G1 X226.052 Y129.861 E2.63255
G1 X226.344 Y130.118 E2.65207
G1 X226.608 Y130.403 E2.67159
G1 X226.843 Y130.713 E2.6911
G1 X227.046 Y131.045 E2.71062
G1 X227.214 Y131.396 E2.73014
G1 X227.347 Y131.761 E2.74965
G1 X227.447 Y132.15 E2.7698
G1 X227.516 Y132.72 E2.79862
G1 X227.516 Y133.106 E2.81798
G1 X227.477 Y133.492 E2.83747
G1 X227.4 Y133.873 E2.85699
G1 X227.286 Y134.245 E2.8765
G1 X227.134 Y134.603 E2.89602
G1 X226.948 Y134.945 E2.91554
G1 X226.729 Y135.266 E2.93505
G1 X226.479 Y135.564 E2.95457
G1 X226.201 Y135.836 E2.97409
G1 X225.897 Y136.078 E2.9936
G1 X225.57 Y136.289 E3.01312
G1 X225.224 Y136.467 E3.03264
G1 X224.862 Y136.609 E3.05215
G1 X224.488 Y136.714 E3.07167
G1 X224.105 Y136.781 E3.09119
G1 X223.717 Y136.811 E3.1107
G1 X223.328 Y136.801 E3.13022
G1 X222.942 Y136.752 E3.14974
G1 X222.563 Y136.666 E3.16925
G1 X222.195 Y136.542 E3.18877
G1 X221.84 Y136.382 E3.20829
G1 X221.526 Y136.2 E3.22652
G1 X221.706 Y135.906 F7800
G1 F1800
G1 X221.403 Y135.691 E3.24517
G1 X221.137 Y135.456 E3.26296
G1 X220.896 Y135.196 E3.28075
G1 X220.682 Y134.914 E3.29854
G1 X220.497 Y134.611 E3.31632
G1 X220.344 Y134.292 E3.33411
G1 X220.222 Y133.959 E3.3519
G1 X220.133 Y133.608 E3.37008
G1 X220.068 Y133.081 E3.39673
G1 X220.069 Y132.733 E3.41417
G1 X220.104 Y132.381 E3.43194
G1 X220.174 Y132.033 E3.44973
G1 X220.279 Y131.695 E3.46752
G1 X220.416 Y131.368 E3.48531
G1 X220.586 Y131.057 E3.5031
G1 X220.786 Y130.764 E3.52089
