; generated by PrusaSlicer 2.4.2 on 2022-07-19 at 03:32:33 UTC

; 

; external perimeters extrusion width = 0.45mm
; perimeters extrusion width = 0.45mm
; infill extrusion width = 0.45mm
; solid infill extrusion width = 0.45mm
; top infill extrusion width = 0.40mm
; first layer extrusion width = 0.42mm

M107
M190 S60 ; set bed temperature and wait for it to be reached
M104 S215 ; set temperature
;TYPE:Custom
G28 ; home all axes
G1 Z5 F5000 ; lift nozzle
M109 S215 ; set temperature and wait for it to be reached
G21 ; set units to millimeters
G90 ; use absolute coordinates
M82 ; use absolute distances for extrusion
G92 E0
; Filament gcode
M107
;LAYER_CHANGE
;Z:0.35
;HEIGHT:0.35
G1 Z.35 F7800
G1 E-2 F2400
G92 E0
G1 X180.188 Y162.1 F7800
G1 E2 F2400
;TYPE:Skirt/Brim
;WIDTH:0.42
G1 F1800
G1 X181.931 Y160.686 E2.11262
G1 X184.996 Y159.896 E2.27146
G1 X215.004 Y159.896 E3.77748
G1 X217.213 Y160.293 E3.8901
G1 X219.146 Y161.434 E4.00272
G1 X220.56 Y163.176 E4.11534
G1 X221.349 Y166.241 E4.27418
G1 X221.34 Y233.76 E7.66265
G1 X220.943 Y235.968 E7.77527
G1 X219.802 Y237.901 E7.8879
G1 X218.059 Y239.315 E8.00052
G1 X214.996 Y240.104 E8.1593
G1 X184.996 Y240.104 E9.66487
G1 X182.787 Y239.707 E9.77749
G1 X180.854 Y238.566 E9.89012
G1 X179.44 Y236.824 E10.00274
G1 X178.651 Y233.759 E10.16157
G1 X178.651 Y166.241 E13.54999
G1 X179.048 Y164.033 E13.66261
G1 X180.158 Y162.152 E13.77222
G1 E11.77222 F2400
G92 E0
G1 X198.28 Y222.533 F7800
G1 E2 F2400
;TYPE:Perimeter
G1 F1800
G1 X198.347 Y223.208 E2.03402
G1 X198.281 Y223.871 E2.06749
G1 X198.136 Y224.385 E2.09431
G1 X197.848 Y224.983 E2.12759
G1 X197.438 Y225.523 E2.1616
G1 X196.93 Y225.972 E2.19563
G1 X196.343 Y226.311 E2.22965
G1 X195.7 Y226.526 E2.26367
G1 X195.028 Y226.611 E2.29769
G1 X194.352 Y226.56 E2.33171
G1 X193.699 Y226.376 E2.36573
G1 X193.096 Y226.067 E2.39976
G1 X192.566 Y225.645 E2.43378
G1 X192.13 Y225.125 E2.4678
G1 X191.806 Y224.53 E2.50182
G1 X191.609 Y223.893 E2.53529
G1 X191.543 Y223.362 E2.56211
G1 X191.577 Y222.7 E2.59539
G1 X191.744 Y222.043 E2.6294
G1 X192.038 Y221.432 E2.66342
G1 X192.447 Y220.892 E2.69745
G1 X192.956 Y220.443 E2.73147
G1 X193.328 Y220.229 E2.75304
G1 X193.287 Y220.075 E2.76101
G1 X188.596 Y220.075 E2.99644
G1 X188.596 Y177.276 E5.14437
G1 X193.205 Y177.276 E5.37567
G1 X193.253 Y177.137 E5.38304
G1 X192.668 Y176.671 E5.42058
G1 X192.232 Y176.151 E5.4546
G1 X191.908 Y175.556 E5.48862
G1 X191.708 Y174.908 E5.52265
G1 X191.641 Y174.234 E5.55667
G1 X191.708 Y173.559 E5.59069
G1 X191.908 Y172.911 E5.62471
G1 X192.232 Y172.316 E5.65873
G1 X192.661 Y171.805 E5.69219
G1 X193.068 Y171.464 E5.71884
G1 X193.645 Y171.131 E5.75229
G1 X194.288 Y170.915 E5.78632
G1 X194.96 Y170.83 E5.82034
G1 X195.636 Y170.881 E5.85436
G1 X196.289 Y171.065 E5.88838
G1 X196.892 Y171.374 E5.9224
G1 X197.422 Y171.797 E5.95642
G1 X197.858 Y172.316 E5.99045
G1 X198.182 Y172.911 E6.02447
G1 X198.382 Y173.559 E6.05849
G1 X198.449 Y174.234 E6.09251
G1 X198.382 Y174.908 E6.12653
G1 X198.185 Y175.545 E6.16
G1 X197.941 Y176.021 E6.18682
G1 X197.54 Y176.549 E6.2201
G1 X197.032 Y176.998 E6.25411
G1 X196.816 Y177.122 E6.26662
G1 X196.858 Y177.276 E6.27459
G1 X203.23 Y177.276 E6.59442
G1 X203.269 Y177.117 E6.6026
G1 X203.167 Y177.065 E6.60834
G1 X202.637 Y176.642 E6.64236
G1 X202.201 Y176.123 E6.67638
G1 X201.877 Y175.528 E6.7104
G1 X201.68 Y174.89 E6.74387
G1 X201.614 Y174.36 E6.77069
G1 X201.648 Y173.698 E6.80397
G1 X201.815 Y173.041 E6.83799
G1 X202.109 Y172.43 E6.87201
G1 X202.518 Y171.89 E6.90603
G1 X203.027 Y171.441 E6.94005
G1 X203.614 Y171.102 E6.97407
G1 X204.256 Y170.886 E7.00809
G1 X204.929 Y170.802 E7.04212
G1 X205.605 Y170.853 E7.07614
G1 X206.258 Y171.036 E7.11016
G1 X206.861 Y171.346 E7.14418
G1 X207.391 Y171.768 E7.1782
G1 X207.827 Y172.288 E7.21222
G1 X208.151 Y172.883 E7.24625
G1 X208.347 Y173.52 E7.2797
G1 X208.413 Y174.047 E7.30635
G1 X208.38 Y174.713 E7.33981
G1 X208.213 Y175.37 E7.37383
G1 X207.919 Y175.98 E7.40785
G1 X207.509 Y176.521 E7.44187
G1 X207.001 Y176.969 E7.47589
G1 X206.736 Y177.122 E7.49123
G1 X206.777 Y177.276 E7.4992
G1 X211.395 Y177.276 E7.73095
G1 X211.395 Y220.075 E9.87889
G1 X206.689 Y220.075 E10.11509
G1 X206.651 Y220.234 E10.12326
G1 X206.807 Y220.314 E10.13207
G1 X207.232 Y220.636 E10.15888
G1 X207.683 Y221.123 E10.19217
G1 X208.037 Y221.701 E10.22618
G1 X208.268 Y222.338 E10.2602
G1 X208.369 Y223.009 E10.29422
G1 X208.336 Y223.686 E10.32824
G1 X208.168 Y224.343 E10.36226
G1 X207.874 Y224.953 E10.39628
G1 X207.465 Y225.494 E10.43031
G1 X206.957 Y225.942 E10.46433
G1 X206.37 Y226.281 E10.49835
G1 X205.727 Y226.497 E10.53237
G1 X205.054 Y226.581 E10.56639
G1 X204.378 Y226.531 E10.60041
G1 X203.726 Y226.347 E10.63444
G1 X203.122 Y226.038 E10.66846
G1 X202.592 Y225.615 E10.70248
G1 X202.157 Y225.096 E10.7365
G1 X201.832 Y224.501 E10.77052
G1 X201.636 Y223.863 E10.804
G1 X201.57 Y223.333 E10.83081
G1 X201.603 Y222.671 E10.86409
G1 X201.77 Y222.014 E10.89811
G1 X202.065 Y221.403 E10.93213
G1 X202.474 Y220.863 E10.96615
G1 X202.982 Y220.414 E11.00017
G1 X203.304 Y220.229 E11.0188
G1 X203.263 Y220.075 E11.02677
G1 X196.605 Y220.075 E11.36088
G1 X196.567 Y220.234 E11.36906
G1 X196.79 Y220.348 E11.38164
G1 X197.32 Y220.771 E11.41566
G1 X197.756 Y221.29 E11.44968
G1 X198.08 Y221.885 E11.4837
G1 X198.262 Y222.476 E11.51471
G1 E9.51471 F2400
G92 E0
G1 X203.745 Y220.38 F7800
G1 E2 F2400
G1 F1800
G1 X204.289 Y220.197 E2.02883
G1 X204.893 Y220.121 E2.05938
G1 X205.5 Y220.167 E2.08994
G1 X206.086 Y220.332 E2.1205
G1 X206.622 Y220.607 E2.15072
G1 X207 Y220.893 E2.1745
G1 X207.407 Y221.332 E2.20455
G1 X207.724 Y221.852 E2.2351
G1 X207.933 Y222.424 E2.26565
G1 X208.023 Y223.026 E2.29621
G1 X207.993 Y223.634 E2.32677
G1 X207.843 Y224.224 E2.35733
G1 X207.578 Y224.773 E2.38788
G1 X207.211 Y225.258 E2.41844
G1 X206.754 Y225.661 E2.449
G1 X206.227 Y225.965 E2.47956
G1 X205.65 Y226.159 E2.51011
G1 X205.046 Y226.235 E2.54067
G1 X204.438 Y226.189 E2.57123
G1 X203.852 Y226.024 E2.60179
G1 X203.31 Y225.747 E2.63235
G1 X202.834 Y225.367 E2.6629
G1 X202.443 Y224.901 E2.69346
G1 X202.152 Y224.366 E2.72402
G1 X201.974 Y223.791 E2.75424
G1 X201.916 Y223.32 E2.77802
G1 X201.946 Y222.722 E2.80806
G1 X202.096 Y222.132 E2.83862
G1 X202.36 Y221.584 E2.86917
G1 X202.728 Y221.098 E2.89973
G1 X203.185 Y220.696 E2.93029
G1 X203.69 Y220.404 E2.95957
G1 X203.854 Y220.707 F7800
;TYPE:External perimeter
G1 F1800
G1 X204.366 Y220.535 E2.98666
G1 X204.902 Y220.468 E3.01375
G1 X205.44 Y220.508 E3.04085
G1 X205.96 Y220.655 E3.06794
G1 X206.438 Y220.9 E3.09491
G1 X206.767 Y221.15 E3.11566
G1 X207.13 Y221.541 E3.14246
G1 X207.412 Y222.002 E3.16955
G1 X207.597 Y222.509 E3.19665
G1 X207.677 Y223.043 E3.22374
G1 X207.65 Y223.582 E3.25083
G1 X207.517 Y224.105 E3.27793
G1 X207.283 Y224.592 E3.30502
G1 X206.957 Y225.022 E3.33212
G1 X206.552 Y225.379 E3.35921
G1 X206.084 Y225.649 E3.3863
G1 X205.573 Y225.821 E3.4134
G1 X205.037 Y225.888 E3.44049
G1 X204.499 Y225.848 E3.46758
G1 X203.979 Y225.702 E3.49468
G1 X203.499 Y225.456 E3.52177
G1 X203.076 Y225.119 E3.54886
G1 X202.729 Y224.705 E3.57596
G1 X202.471 Y224.231 E3.60305
G1 X202.313 Y223.718 E3.63002
G1 X202.262 Y223.308 E3.65077
G1 X202.289 Y222.774 E3.67757
G1 X202.422 Y222.251 E3.70466
G1 X202.656 Y221.765 E3.73176
G1 X202.982 Y221.334 E3.75885
G1 X203.387 Y220.977 E3.78595
G1 X203.802 Y220.737 E3.81003
G1 X203.894 Y220.309 F7800
G1 E1.81003 F2400
G92 E0
G1 X197.92 Y222.538 F7800
G1 E2 F2400
;TYPE:Perimeter
G1 F1800
G1 X198.001 Y223.208 E2.03386
G1 X197.941 Y223.807 E2.06408
G1 X197.812 Y224.263 E2.08786
G1 X197.552 Y224.802 E2.11791
G1 X197.184 Y225.287 E2.14846
G1 X196.728 Y225.69 E2.17902
G1 X196.2 Y225.995 E2.20958
G1 X195.623 Y226.189 E2.24013
G1 X195.019 Y226.264 E2.27069
G1 X194.412 Y226.219 E2.30125
G1 X193.826 Y226.054 E2.33181
G1 X193.284 Y225.776 E2.36236
G1 X192.808 Y225.396 E2.39292
G1 X192.417 Y224.93 E2.42348
G1 X192.125 Y224.395 E2.45404
G1 X191.948 Y223.82 E2.48425
G1 X191.889 Y223.35 E2.50804
G1 X191.919 Y222.752 E2.53808
G1 X192.07 Y222.162 E2.56863
G1 X192.334 Y221.613 E2.59919
G1 X192.701 Y221.128 E2.62975
G1 X193.158 Y220.725 E2.66031
G1 X193.685 Y220.42 E2.69086
G1 X194.263 Y220.227 E2.72142
G1 X194.867 Y220.151 E2.75198
G1 X195.474 Y220.196 E2.78254
G1 X196.06 Y220.361 E2.81309
G1 X196.602 Y220.639 E2.84365
G1 X197.078 Y221.019 E2.87421
G1 X197.469 Y221.485 E2.90477
G1 X197.76 Y222.02 E2.93532
G1 X197.902 Y222.48 E2.95951
G1 X197.591 Y222.639 F7800
;TYPE:External perimeter
G1 F1800
G1 X197.654 Y223.208 E2.9882
G1 X197.6 Y223.742 E3.01517
G1 X197.488 Y224.14 E3.03592
G1 X197.256 Y224.621 E3.06272
G1 X196.93 Y225.052 E3.08981
G1 X196.525 Y225.409 E3.11691
G1 X196.058 Y225.679 E3.144
G1 X195.546 Y225.851 E3.1711
G1 X195.01 Y225.918 E3.19819
G1 X194.472 Y225.877 E3.22528
G1 X193.952 Y225.731 E3.25238
G1 X193.472 Y225.485 E3.27947
G1 X193.05 Y225.148 E3.30656
G1 X192.703 Y224.735 E3.33366
G1 X192.445 Y224.261 E3.36075
G1 X192.286 Y223.747 E3.38772
G1 X192.235 Y223.337 E3.40847
G1 X192.262 Y222.803 E3.43527
G1 X192.395 Y222.28 E3.46236
G1 X192.63 Y221.794 E3.48946
G1 X192.956 Y221.364 E3.51655
G1 X193.36 Y221.006 E3.54364
G1 X193.828 Y220.736 E3.57074
G1 X194.34 Y220.564 E3.59783
G1 X194.875 Y220.497 E3.62493
G1 X195.414 Y220.538 E3.65202
G1 X195.933 Y220.684 E3.67911
G1 X196.414 Y220.93 E3.70621
G1 X196.836 Y221.267 E3.7333
G1 X197.183 Y221.68 E3.76039
G1 X197.441 Y222.154 E3.78749
G1 X197.573 Y222.582 E3.80994
G1 X197.971 Y222.763 F7800
G1 E1.80994 F2400
G92 E0
G1 X211.05 Y177.62 F7800
G1 E2 F2400
;TYPE:Perimeter
G1 F1800
G1 X211.05 Y219.73 E4.11332
G1 X188.941 Y219.73 E5.22292
G1 X188.941 Y177.62 E7.33624
G1 X210.99 Y177.62 E8.44282
G1 X210.706 Y177.965 F7800
;TYPE:External perimeter
G1 F1800
G1 X210.706 Y219.385 E10.52152
G1 X189.286 Y219.385 E11.59651
G1 X189.286 Y177.965 E13.67521
G1 X210.646 Y177.965 E14.74718
G1 X211.079 Y177.823 F7800
G1 E12.74718 F2400
G92 E0
G1 X198.032 Y174.872 F7800
G1 E2 F2400
;TYPE:Perimeter
G1 F1800
G1 X197.865 Y175.415 E2.02849
G1 X197.648 Y175.836 E2.05227
G1 X197.286 Y176.313 E2.08231
G1 X196.83 Y176.716 E2.11286
G1 X196.303 Y177.021 E2.14342
G1 X195.725 Y177.215 E2.17398
G1 X195.121 Y177.29 E2.20454
G1 X194.514 Y177.245 E2.23509
G1 X193.928 Y177.08 E2.26565
G1 X193.386 Y176.802 E2.29621
G1 X192.91 Y176.422 E2.32677
G1 X192.519 Y175.956 E2.35733
G1 X192.228 Y175.421 E2.38788
G1 X192.048 Y174.839 E2.41844
G1 X191.987 Y174.234 E2.449
G1 X192.048 Y173.628 E2.47956
G1 X192.228 Y173.046 E2.51011
G1 X192.519 Y172.511 E2.54067
G1 X192.906 Y172.05 E2.57088
G1 X193.266 Y171.747 E2.5945
G1 X193.788 Y171.446 E2.62471
G1 X194.365 Y171.253 E2.65527
G1 X194.969 Y171.177 E2.68583
G1 X195.576 Y171.222 E2.71638
G1 X196.162 Y171.387 E2.74694
G1 X196.704 Y171.665 E2.7775
G1 X197.18 Y172.045 E2.80806
G1 X197.571 Y172.511 E2.83861
G1 X197.863 Y173.046 E2.86917
G1 X198.042 Y173.628 E2.89973
G1 X198.103 Y174.234 E2.93029
G1 X198.045 Y174.814 E2.95957
G1 X197.702 Y174.771 F7800
;TYPE:External perimeter
G1 F1800
G1 X197.544 Y175.284 E2.98653
G1 X197.355 Y175.652 E3.00728
G1 X197.032 Y176.078 E3.03409
G1 X196.628 Y176.435 E3.06118
G1 X196.16 Y176.705 E3.08827
G1 X195.648 Y176.877 E3.11537
G1 X195.113 Y176.944 E3.14246
G1 X194.574 Y176.903 E3.16955
G1 X194.055 Y176.757 E3.19665
G1 X193.574 Y176.511 E3.22374
G1 X193.152 Y176.174 E3.25083
G1 X192.805 Y175.761 E3.27793
G1 X192.547 Y175.287 E3.30502
G1 X192.388 Y174.771 E3.33211
G1 X192.334 Y174.234 E3.35921
G1 X192.388 Y173.696 E3.3863
G1 X192.547 Y173.18 E3.4134
G1 X192.805 Y172.706 E3.44049
G1 X193.15 Y172.295 E3.46745
G1 X193.465 Y172.031 E3.48805
G1 X193.93 Y171.762 E3.51501
G1 X194.442 Y171.59 E3.5421
G1 X194.977 Y171.523 E3.5692
G1 X195.516 Y171.564 E3.59629
G1 X196.036 Y171.71 E3.62338
G1 X196.516 Y171.956 E3.65048
G1 X196.938 Y172.293 E3.67757
G1 X197.285 Y172.706 E3.70466
G1 X197.543 Y173.18 E3.73176
G1 X197.702 Y173.696 E3.75885
G1 X197.756 Y174.234 E3.78594
G1 X197.708 Y174.711 E3.81003
G1 X198.002 Y175.035 F7800
G1 E1.81003 F2400
G92 E0
G1 X201.964 Y174.377 F7800
G1 E2 F2400
;TYPE:Perimeter
G1 F1800
G1 X201.99 Y173.749 E2.03154
G1 X202.141 Y173.16 E2.06209
G1 X202.405 Y172.611 E2.09264
G1 X202.772 Y172.126 E2.1232
G1 X203.229 Y171.723 E2.15376
G1 X203.756 Y171.418 E2.18432
G1 X204.333 Y171.224 E2.21488
G1 X204.938 Y171.149 E2.24543
G1 X205.545 Y171.194 E2.27599
G1 X206.131 Y171.359 E2.30655
G1 X206.673 Y171.637 E2.33711
G1 X207.149 Y172.016 E2.36766
G1 X207.54 Y172.483 E2.39822
G1 X207.831 Y173.018 E2.42878
G1 X208.009 Y173.593 E2.45899
G1 X208.067 Y174.06 E2.48261
G1 X208.037 Y174.661 E2.51282
G1 X207.887 Y175.251 E2.54338
G1 X207.623 Y175.8 E2.57393
G1 X207.255 Y176.285 E2.60449
G1 X206.799 Y176.688 E2.63505
G1 X206.271 Y176.992 E2.66561
G1 X205.694 Y177.186 E2.69616
G1 X205.09 Y177.262 E2.72672
G1 X204.483 Y177.217 E2.75728
G1 X203.897 Y177.052 E2.78784
G1 X203.355 Y176.774 E2.8184
G1 X202.879 Y176.394 E2.84895
G1 X202.487 Y175.928 E2.87951
G1 X202.196 Y175.393 E2.91007
G1 X202.019 Y174.818 E2.94029
G1 X201.971 Y174.437 E2.95954
G1 X202.306 Y174.335 F7800
;TYPE:External perimeter
G1 F1800
G1 X202.333 Y173.801 E2.98635
G1 X202.466 Y173.278 E3.01344
G1 X202.701 Y172.792 E3.04054
G1 X203.027 Y172.361 E3.06763
G1 X203.431 Y172.004 E3.09472
G1 X203.899 Y171.734 E3.12182
G1 X204.411 Y171.562 E3.14891
G1 X204.946 Y171.495 E3.17601
G1 X205.485 Y171.535 E3.2031
G1 X206.004 Y171.682 E3.23019
G1 X206.485 Y171.928 E3.25729
G1 X206.907 Y172.265 E3.28438
G1 X207.254 Y172.678 E3.31147
G1 X207.512 Y173.152 E3.33857
G1 X207.67 Y173.666 E3.36553
G1 X207.721 Y174.073 E3.38612
G1 X207.695 Y174.609 E3.41309
G1 X207.561 Y175.133 E3.44018
G1 X207.327 Y175.619 E3.46727
G1 X207.001 Y176.049 E3.49437
G1 X206.596 Y176.407 E3.52146
G1 X206.129 Y176.676 E3.54855
G1 X205.617 Y176.848 E3.57565
G1 X205.081 Y176.916 E3.60274
G1 X204.543 Y176.875 E3.62983
G1 X204.023 Y176.729 E3.65693
G1 X203.543 Y176.483 E3.68402
G1 X203.121 Y176.146 E3.71112
G1 X202.774 Y175.733 E3.73821
G1 X202.516 Y175.258 E3.7653
G1 X202.357 Y174.745 E3.79227
G1 X202.314 Y174.394 E3.81001
G1 X201.952 Y174.149 F7800
G1 E1.81001 F2400
G92 E0
G1 X214.105 Y167.141 F7800
G1 E2 F2400
;TYPE:Perimeter
G1 F1800
G1 X214.096 Y232.859 E5.2981
G1 X185.895 Y232.859 E6.71338
G1 X185.895 Y167.141 E10.01148
G1 X214.045 Y167.141 E11.42418
G1 X214.45 Y166.796 F7800
G1 F1800
G1 X214.441 Y233.204 E14.75691
G1 X185.55 Y233.204 E16.20679
G1 X185.55 Y166.796 E19.53951
G1 X214.39 Y166.796 E20.98683
G1 X214.794 Y166.451 F7800
;TYPE:External perimeter
G1 F1800
G1 X214.786 Y233.549 E24.35417
G1 X185.206 Y233.549 E25.83867
G1 X185.206 Y166.451 E29.20601
G1 X214.734 Y166.451 E30.68795
G1 X214.739 Y166.848 F7800
G1 X214.001 Y167.945
;TYPE:Solid infill
;WIDTH:0.421564
G1 F1800
G1 X213.456 Y167.4 E30.72683
G1 X212.966 Y167.4 E30.75153
G1 X213.846 Y168.28 E30.81427
G1 X213.846 Y168.77 E30.83897
G1 X212.476 Y167.4 E30.93665
G1 X211.986 Y167.4 E30.96135
G1 X213.846 Y169.26 E31.09396
G1 X213.846 Y169.75 E31.11866
G1 X211.496 Y167.4 E31.2862
G1 X211.006 Y167.4 E31.3109
G1 X213.846 Y170.24 E31.51337
G1 X213.846 Y170.73 E31.53808
G1 X210.516 Y167.4 E31.77548
G1 X210.026 Y167.4 E31.80018
G1 X213.846 Y171.22 E32.07252
G1 X213.846 Y171.71 E32.09722
G1 X209.536 Y167.4 E32.40448
G1 X209.046 Y167.4 E32.42919
G1 X213.846 Y172.2 E32.77139
G1 X213.846 Y172.689 E32.79609
G1 X208.556 Y167.4 E33.17322
G1 X208.066 Y167.4 E33.19792
G1 X213.846 Y173.179 E33.60998
G1 X213.846 Y173.669 E33.63468
G1 X207.576 Y167.4 E34.08168
G1 X207.086 Y167.4 E34.10638
G1 X213.846 Y174.159 E34.5883
G1 X213.846 Y174.649 E34.613
G1 X206.596 Y167.4 E35.12986
G1 X206.107 Y167.4 E35.15456
G1 X213.846 Y175.139 E35.70635
G1 X213.846 Y175.629 E35.73105
G1 X205.617 Y167.4 E36.31778
G1 X205.127 Y167.4 E36.34248
G1 X213.846 Y176.119 E36.96413
G1 X213.846 Y176.609 E36.98883
G1 X204.637 Y167.4 E37.64542
G1 X204.147 Y167.4 E37.67012
G1 X213.846 Y177.099 E38.36164
G1 X213.846 Y177.589 E38.38634
G1 X203.657 Y167.4 E39.11279
G1 X203.167 Y167.4 E39.13749
G1 X206.781 Y171.014 E39.39517
G1 X207.002 Y171.127 E39.40768
G1 X207.572 Y171.582 E39.44446
G1 X208.041 Y172.141 E39.48125
