; generated by PrusaSlicer 2.4.2 on 2022-07-24 at 23:52:06 UTC

; 

; external perimeters extrusion width = 0.45mm
; perimeters extrusion width = 0.45mm
; infill extrusion width = 0.45mm
; solid infill extrusion width = 0.45mm
; top infill extrusion width = 0.40mm
; support material extrusion width = 0.35mm
; first layer extrusion width = 0.42mm

M107
M190 S60 ; set bed temperature and wait for it to be reached
M104 S215 ; set temperature
;TYPE:Custom
G28 ; home all axes
G1 Z5 F5000 ; lift nozzle
M109 S215 ; set temperature and wait for it to be reached
G21 ; set units to millimeters
G90 ; use absolute coordinates
M82 ; use absolute distances for extrusion
G92 E0
; Filament gcode
M107
;LAYER_CHANGE
;Z:0.35
;HEIGHT:0.35
G1 Z.35 F7800
G1 E-2 F2400
G92 E0
G1 Z3.35 F7800
G1 X69.507 Y111.313
G1 Z.35
G1 E2 F2400
;TYPE:Skirt/Brim
;WIDTH:0.42
G1 F1800
G1 X70.79 Y110.706 E2.07121
G1 X72.084 Y110.277 E2.13965
G1 X73.476 Y110 E2.21085
G1 X74.836 Y109.898 E2.27929
G1 X95.16 Y109.898 E3.2993
G1 X96.591 Y110.008 E3.37134
G1 X225.738 Y127.536 E9.91211
G1 X227.726 Y127.989 E10.01444
G1 X229.681 Y128.797 E10.12059
G1 X230.991 Y129.582 E10.19725
G1 X232.174 Y130.505 E10.27253
G1 X233.443 Y131.804 E10.36368
G1 X234.348 Y133.022 E10.43981
G1 X235.091 Y134.331 E10.51536
G1 X235.678 Y135.747 E10.59228
G1 X236.078 Y137.188 E10.66731
G1 X236.303 Y138.704 E10.74423
G1 X236.34 Y178.209 E12.72683
G1 X236.191 Y179.724 E12.80323
G1 X235.94 Y180.909 E12.86403
G1 X235.573 Y182.064 E12.92483
G1 X234.963 Y183.44 E13.00038
G1 X234.181 Y184.746 E13.07678
G1 X233.045 Y186.163 E13.16792
G1 X231.955 Y187.201 E13.24347
G1 X230.484 Y188.265 E13.33461
G1 X229.141 Y188.983 E13.41102
G1 X227.736 Y189.525 E13.48657
G1 X225.97 Y189.945 E13.57771
G1 X224.455 Y190.094 E13.65411
G1 X75.004 Y190.104 E21.1544
G1 X73.747 Y190.033 E21.2176
G1 X72.409 Y189.802 E21.28576
G1 X71.036 Y189.386 E21.35772
G1 X69.803 Y188.84 E21.4254
G1 X68.573 Y188.103 E21.49737
G1 X67.506 Y187.271 E21.56526
G1 X66.502 Y186.268 E21.63653
G1 X65.663 Y185.194 E21.7049
G1 X64.819 Y183.754 E21.78867
G1 X64.275 Y182.442 E21.85993
G1 X63.912 Y181.134 E21.9281
G1 X63.701 Y179.716 E22.00003
G1 X63.651 Y121.241 E24.93463
G1 X63.797 Y119.432 E25.02572
G1 X64.183 Y117.809 E25.10945
G1 X64.675 Y116.532 E25.17812
G1 X65.346 Y115.277 E25.24958
G1 X66.326 Y113.925 E25.33334
G1 X67.259 Y112.945 E25.40124
G1 X68.356 Y112.044 E25.47251
G1 X69.457 Y111.345 E25.53793
G1 E23.53793 F2400
G92 E0
G1 Z3.35 F7800
G1 X95.069 Y133.433
G1 Z.35
G1 E2 F2400
;TYPE:Support material
G1 F1800
G1 X74.939 Y133.433 E3.01024
G1 X74.939 Y120.61 E3.65378
G1 X95.069 Y120.61 E4.66402
G1 X95.069 Y133.382 E5.30496
G1 X94.435 Y133.278 F7800
G1 F1800
G1 X94.435 Y120.921 E5.92513
G1 X94.051 Y120.921 E5.94436
G1 X94.051 Y133.123 E6.55674
G1 X93.668 Y133.123 E6.57597
G1 X93.668 Y120.921 E7.18835
G1 X93.285 Y120.921 E7.20758
G1 X93.285 Y133.123 E7.81996
G1 X92.902 Y133.123 E7.83919
G1 X92.902 Y120.921 E8.45157
G1 X92.519 Y120.921 E8.4708
G1 X92.519 Y133.123 E9.08318
G1 X92.135 Y133.123 E9.10241
G1 X92.135 Y120.921 E9.71479
G1 X91.752 Y120.921 E9.73403
G1 X91.752 Y133.123 E10.34641
G1 X91.369 Y133.123 E10.36564
G1 X91.369 Y120.921 E10.97802
G1 X90.986 Y120.921 E10.99725
G1 X90.986 Y133.123 E11.60963
G1 X90.602 Y133.123 E11.62886
G1 X90.602 Y120.921 E12.24124
G1 X90.219 Y120.921 E12.26047
G1 X90.219 Y133.123 E12.87285
G1 X89.836 Y133.123 E12.89208
G1 X89.836 Y120.921 E13.50446
G1 X89.453 Y120.921 E13.52369
G1 X89.453 Y133.123 E14.13607
G1 X89.07 Y133.123 E14.1553
G1 X89.07 Y120.921 E14.76768
G1 X88.686 Y120.921 E14.78692
G1 X88.686 Y133.123 E15.39929
G1 X88.303 Y133.123 E15.41853
G1 X88.303 Y120.921 E16.03091
G1 X87.92 Y120.921 E16.05014
G1 X87.92 Y133.123 E16.66252
G1 X87.537 Y133.123 E16.68175
G1 X87.537 Y120.921 E17.29413
G1 X87.154 Y120.921 E17.31336
G1 X87.154 Y133.123 E17.92574
G1 X86.77 Y133.123 E17.94497
G1 X86.77 Y120.921 E18.55735
G1 X86.387 Y120.921 E18.57658
G1 X86.387 Y133.123 E19.18896
G1 X86.004 Y133.123 E19.20819
G1 X86.004 Y120.921 E19.82057
G1 X85.621 Y120.921 E19.8398
G1 X85.621 Y133.123 E20.45218
G1 X85.238 Y133.123 E20.47142
G1 X85.238 Y120.921 E21.0838
G1 X84.854 Y120.921 E21.10303
G1 X84.854 Y133.123 E21.71541
G1 X84.471 Y133.123 E21.73464
G1 X84.471 Y120.921 E22.34702
G1 X84.088 Y120.921 E22.36625
G1 X84.088 Y133.123 E22.97863
G1 X83.705 Y133.123 E22.99786
G1 X83.705 Y120.921 E23.61024
G1 X83.321 Y120.921 E23.62947
G1 X83.321 Y133.123 E24.24185
G1 X82.938 Y133.123 E24.26108
G1 X82.938 Y120.921 E24.87346
G1 X82.555 Y120.921 E24.89269
G1 X82.555 Y133.123 E25.50507
G1 X82.172 Y133.123 E25.52431
G1 X82.172 Y120.921 E26.13668
G1 X81.789 Y120.921 E26.15592
G1 X81.789 Y133.123 E26.7683
G1 X81.405 Y133.123 E26.78753
G1 X81.405 Y120.921 E27.39991
G1 X81.022 Y120.921 E27.41914
G1 X81.022 Y133.123 E28.03152
G1 X80.639 Y133.123 E28.05075
G1 X80.639 Y120.921 E28.66313
G1 X80.256 Y120.921 E28.68236
G1 X80.256 Y133.123 E29.29474
G1 X79.873 Y133.123 E29.31397
G1 X79.873 Y120.921 E29.92635
G1 X79.489 Y120.921 E29.94558
G1 X79.489 Y133.123 E30.55796
G1 X79.106 Y133.123 E30.5772
G1 X79.106 Y120.921 E31.18957
G1 X78.723 Y120.921 E31.20881
G1 X78.723 Y133.123 E31.82119
G1 X78.34 Y133.123 E31.84042
G1 X78.34 Y120.921 E32.4528
G1 X77.957 Y120.921 E32.47203
G1 X77.957 Y133.123 E33.08441
G1 X77.573 Y133.123 E33.10364
G1 X77.573 Y120.921 E33.71602
G1 X77.19 Y120.921 E33.73525
G1 X77.19 Y133.123 E34.34763
G1 X76.807 Y133.123 E34.36686
G1 X76.807 Y120.921 E34.97924
G1 X76.424 Y120.921 E34.99847
G1 X76.424 Y133.123 E35.61085
G1 X76.04 Y133.123 E35.63008
G1 X76.04 Y120.921 E36.24246
G1 X75.657 Y120.921 E36.2617
G1 X75.657 Y133.123 E36.87408
G1 X75.274 Y133.123 E36.89331
G1 X75.274 Y120.766 E37.51348
G1 E35.51348 F2400
G92 E0
G1 Z3.35 F7800
G1 X95.069 Y176.74
G1 Z.35
G1 E2 F2400
G1 F1800
G1 X74.939 Y176.74 E3.01024
G1 X74.939 Y163.781 E3.66062
G1 X95.069 Y163.781 E4.67086
G1 X95.069 Y176.689 E5.31864
G1 X94.435 Y176.585 F7800
G1 F1800
G1 X94.435 Y164.091 E5.94565
G1 X94.051 Y164.091 E5.96488
G1 X94.051 Y176.43 E6.58411
G1 X93.668 Y176.43 E6.60334
G1 X93.668 Y164.091 E7.22256
G1 X93.285 Y164.091 E7.24179
G1 X93.285 Y176.43 E7.86101
G1 X92.902 Y176.43 E7.88024
G1 X92.902 Y164.091 E8.49947
G1 X92.518 Y164.091 E8.5187
G1 X92.518 Y176.43 E9.13792
G1 X92.135 Y176.43 E9.15715
G1 X92.135 Y164.091 E9.77637
G1 X91.752 Y164.091 E9.7956
G1 X91.752 Y176.43 E10.41483
G1 X91.369 Y176.43 E10.43406
G1 X91.369 Y164.091 E11.05328
G1 X90.986 Y164.091 E11.07251
G1 X90.986 Y176.43 E11.69173
G1 X90.602 Y176.43 E11.71096
G1 X90.602 Y164.091 E12.33019
G1 X90.219 Y164.091 E12.34942
G1 X90.219 Y176.43 E12.96864
G1 X89.836 Y176.43 E12.98787
G1 X89.836 Y164.091 E13.60709
G1 X89.453 Y164.091 E13.62632
G1 X89.453 Y176.43 E14.24554
G1 X89.07 Y176.43 E14.26478
G1 X89.07 Y164.091 E14.884
G1 X88.686 Y164.091 E14.90323
G1 X88.686 Y176.43 E15.52245
G1 X88.303 Y176.43 E15.54168
G1 X88.303 Y164.091 E16.1609
G1 X87.92 Y164.091 E16.18014
G1 X87.92 Y176.43 E16.79936
G1 X87.537 Y176.43 E16.81859
G1 X87.537 Y164.091 E17.43781
G1 X87.154 Y164.091 E17.45704
G1 X87.154 Y176.43 E18.07626
G1 X86.77 Y176.43 E18.0955
G1 X86.77 Y164.091 E18.71472
G1 X86.387 Y164.091 E18.73395
G1 X86.387 Y176.43 E19.35317
G1 X86.004 Y176.43 E19.3724
G1 X86.004 Y164.091 E19.99162
G1 X85.621 Y164.091 E20.01086
G1 X85.621 Y176.43 E20.63008
G1 X85.238 Y176.43 E20.64931
G1 X85.238 Y164.091 E21.26853
G1 X84.854 Y164.091 E21.28776
G1 X84.854 Y176.43 E21.90698
G1 X84.471 Y176.43 E21.92622
G1 X84.471 Y164.091 E22.54544
G1 X84.088 Y164.091 E22.56467
G1 X84.088 Y176.43 E23.18389
G1 X83.705 Y176.43 E23.20312
G1 X83.705 Y164.091 E23.82234
G1 X83.321 Y164.091 E23.84158
G1 X83.321 Y176.43 E24.4608
G1 X82.938 Y176.43 E24.48003
G1 X82.938 Y164.091 E25.09925
G1 X82.555 Y164.091 E25.11848
G1 X82.555 Y176.43 E25.7377
G1 X82.172 Y176.43 E25.75694
G1 X82.172 Y164.091 E26.37616
G1 X81.789 Y164.091 E26.39539
G1 X81.789 Y176.43 E27.01461
G1 X81.405 Y176.43 E27.03384
G1 X81.405 Y164.091 E27.65306
G1 X81.022 Y164.091 E27.67229
G1 X81.022 Y176.43 E28.29152
G1 X80.639 Y176.43 E28.31075
G1 X80.639 Y164.091 E28.92997
G1 X80.256 Y164.091 E28.9492
G1 X80.256 Y176.43 E29.56842
G1 X79.873 Y176.43 E29.58765
G1 X79.873 Y164.091 E30.20688
G1 X79.489 Y164.091 E30.22611
G1 X79.489 Y176.43 E30.84533
G1 X79.106 Y176.43 E30.86456
G1 X79.106 Y164.091 E31.48378
G1 X78.723 Y164.091 E31.50301
G1 X78.723 Y176.43 E32.12224
G1 X78.34 Y176.43 E32.14147
G1 X78.34 Y164.091 E32.76069
G1 X77.957 Y164.091 E32.77992
G1 X77.957 Y176.43 E33.39914
G1 X77.573 Y176.43 E33.41837
G1 X77.573 Y164.091 E34.0376
G1 X77.19 Y164.091 E34.05683
G1 X77.19 Y176.43 E34.67605
G1 X76.807 Y176.43 E34.69528
G1 X76.807 Y164.091 E35.3145
G1 X76.424 Y164.091 E35.33373
G1 X76.424 Y176.43 E35.95296
G1 X76.04 Y176.43 E35.97219
G1 X76.04 Y164.091 E36.59141
G1 X75.657 Y164.091 E36.61064
G1 X75.657 Y176.43 E37.22986
G1 X75.274 Y176.43 E37.24909
G1 X75.274 Y163.936 E37.8761
G1 E35.8761 F2400
G92 E0
G1 Z3.35 F7800
G1 X202.485 Y173
G1 Z.35
G1 E2 F2400
G1 F1800
G1 X202.738 Y173.019 E2.01272
G1 X202.99 Y173.063 E2.02555
G1 X203.236 Y173.132 E2.03838
G1 X203.474 Y173.226 E2.05122
G1 X203.701 Y173.342 E2.06405
G1 X203.916 Y173.481 E2.07688
G1 X204.116 Y173.64 E2.08971
G1 X204.299 Y173.819 E2.10255
G1 X204.463 Y174.015 E2.11538
G1 X204.607 Y174.226 E2.12821
G1 X204.73 Y174.451 E2.14104
G1 X204.829 Y174.686 E2.15387
G1 X204.904 Y174.931 E2.16671
G1 X204.955 Y175.181 E2.17954
G1 X204.981 Y175.436 E2.19237
G1 X204.981 Y175.691 E2.20521
G1 X204.955 Y175.946 E2.21804
G1 X204.904 Y176.196 E2.23087
G1 X204.829 Y176.441 E2.2437
G1 X204.73 Y176.676 E2.25654
G1 X204.607 Y176.901 E2.26937
G1 X204.463 Y177.112 E2.2822
G1 X204.299 Y177.308 E2.29503
G1 X204.116 Y177.487 E2.30786
G1 X203.809 Y177.719 E2.32721
G1 X203.589 Y177.846 E2.33993
G1 X203.356 Y177.951 E2.35277
G1 X203.114 Y178.033 E2.3656
G1 X202.864 Y178.089 E2.37843
G1 X202.611 Y178.121 E2.39126
G1 X202.355 Y178.128 E2.4041
G1 X202.1 Y178.108 E2.41693
G1 X201.848 Y178.064 E2.42976
G1 X201.602 Y177.995 E2.44259
G1 X201.364 Y177.901 E2.45542
G1 X201.136 Y177.785 E2.46826
G1 X200.922 Y177.646 E2.48109
G1 X200.722 Y177.487 E2.49392
G1 X200.539 Y177.308 E2.50675
G1 X200.374 Y177.112 E2.51959
G1 X200.23 Y176.901 E2.53242
G1 X200.108 Y176.676 E2.54525
G1 X200.009 Y176.441 E2.55808
G1 X199.904 Y176.07 E2.57743
G1 X199.867 Y175.819 E2.59015
G1 X199.854 Y175.563 E2.60299
G1 X199.867 Y175.308 E2.61582
G1 X199.905 Y175.055 E2.62865
G1 X199.968 Y174.807 E2.64149
G1 X200.055 Y174.567 E2.65432
G1 X200.166 Y174.337 E2.66715
G1 X200.3 Y174.119 E2.67998
G1 X200.454 Y173.915 E2.69281
G1 X200.628 Y173.727 E2.70565
G1 X200.82 Y173.558 E2.71848
G1 X201.027 Y173.409 E2.73131
G1 X201.249 Y173.281 E2.74414
G1 X201.482 Y173.176 E2.75698
G1 X201.724 Y173.094 E2.76981
G1 X201.973 Y173.038 E2.78264
G1 X202.433 Y172.999 E2.8058
G1 X204.416 Y176.912 F7800
G1 F1800
G1 X204.416 Y174.519 E2.92588
G1 X204.216 Y174.202 E2.94466
G1 X204.033 Y173.99 E2.95873
G1 X204.033 Y177.137 E3.11663
G1 X203.824 Y177.326 E3.13075
G1 X203.649 Y177.452 E3.14158
G1 X203.649 Y173.675 E3.33114
G1 X203.266 Y173.475 E3.35284
G1 X203.266 Y177.652 E3.56246
G1 X202.883 Y177.769 E3.58257
G1 X202.883 Y173.358 E3.80393
G1 X202.587 Y173.315 E3.81892
G1 X202.5 Y173.311 E3.82333
G1 X202.5 Y177.816 E4.04941
G1 X202.117 Y177.797 E4.06866
G1 X202.117 Y173.33 E4.29285
G1 X201.733 Y173.417 E4.31256
G1 X201.733 Y177.711 E4.52806
G1 X201.35 Y177.548 E4.54896
G1 X201.35 Y173.579 E4.74811
G1 X200.967 Y173.84 E4.77137
G1 X200.967 Y177.287 E4.94438
G1 X200.766 Y177.097 E4.95825
G1 X200.584 Y176.872 E4.9728
G1 X200.584 Y174.255 E5.10411
G1 X200.439 Y174.485 E5.11775
G1 X200.342 Y174.688 E5.12902
G1 X200.265 Y174.899 E5.1403
G1 X200.201 Y175.166 E5.15408
G1 X200.201 Y176.504 E5.22124
G1 E3.22124 F2400
G92 E0
G1 Z3.35 F7800
G1 X223.691 Y139.106
G1 Z.35
G1 E2 F2400
G1 F1800
G1 X223.943 Y139.125 E2.01272
G1 X224.195 Y139.169 E2.02555
G1 X224.441 Y139.238 E2.03838
G1 X224.679 Y139.332 E2.05122
G1 X224.907 Y139.448 E2.06405
G1 X225.122 Y139.587 E2.07688
G1 X225.321 Y139.746 E2.08971
G1 X225.505 Y139.925 E2.10255
G1 X225.669 Y140.121 E2.11538
G1 X225.813 Y140.332 E2.12821
G1 X225.935 Y140.557 E2.14104
G1 X226.035 Y140.792 E2.15388
G1 X226.11 Y141.037 E2.16671
G1 X226.161 Y141.287 E2.17954
G1 X226.186 Y141.542 E2.19237
G1 X226.186 Y141.797 E2.20521
G1 X226.161 Y142.052 E2.21804
G1 X226.11 Y142.302 E2.23087
G1 X226.035 Y142.547 E2.2437
G1 X225.935 Y142.782 E2.25653
G1 X225.813 Y143.007 E2.26937
G1 X225.669 Y143.218 E2.2822
G1 X225.414 Y143.507 E2.30155
G1 X225.224 Y143.675 E2.31427
G1 X225.016 Y143.824 E2.3271
G1 X224.794 Y143.952 E2.33994
G1 X224.561 Y144.057 E2.35277
G1 X224.319 Y144.138 E2.3656
G1 X224.07 Y144.195 E2.37843
G1 X223.816 Y144.227 E2.39126
G1 X223.56 Y144.234 E2.4041
G1 X223.305 Y144.214 E2.41693
G1 X223.054 Y144.17 E2.42976
G1 X222.807 Y144.101 E2.44259
G1 X222.569 Y144.007 E2.45542
G1 X222.342 Y143.891 E2.46826
G1 X222.127 Y143.752 E2.48109
G1 X221.927 Y143.593 E2.49392
G1 X221.744 Y143.414 E2.50675
G1 X221.58 Y143.218 E2.51959
G1 X221.436 Y143.007 E2.53242
G1 X221.313 Y142.782 E2.54525
G1 X221.214 Y142.547 E2.55809
G1 X221.11 Y142.178 E2.57732
G1 X221.072 Y141.925 E2.59015
G1 X221.059 Y141.669 E2.60299
G1 X221.072 Y141.414 E2.61582
G1 X221.11 Y141.161 E2.62865
G1 X221.173 Y140.913 E2.64149
G1 X221.261 Y140.673 E2.65432
G1 X221.372 Y140.443 E2.66715
G1 X221.505 Y140.225 E2.67998
G1 X221.66 Y140.021 E2.69281
G1 X221.833 Y139.833 E2.70564
G1 X222.025 Y139.664 E2.71848
G1 X222.233 Y139.515 E2.73131
G1 X222.454 Y139.387 E2.74414
G1 X222.687 Y139.282 E2.75698
G1 X222.93 Y139.2 E2.76981
G1 X223.179 Y139.144 E2.78264
G1 X223.639 Y139.105 E2.8058
G1 X225.876 Y142.527 F7800
G1 F1800
G1 X225.876 Y141.553 E2.85469
G1 X225.834 Y141.223 E2.87138
G1 X225.702 Y140.794 E2.8939
G1 X225.492 Y140.408 E2.91594
G1 X225.492 Y142.931 E3.04257
G1 X225.351 Y143.119 E3.05434
G1 X225.109 Y143.366 E3.0717
G1 X225.109 Y139.973 E3.24193
G1 X224.94 Y139.839 E3.25276
G1 X224.726 Y139.703 E3.2655
G1 X224.726 Y143.636 E3.46286
G1 X224.343 Y143.806 E3.48391
G1 X224.343 Y139.533 E3.69839
G1 X223.96 Y139.441 E3.71816
G1 X223.96 Y143.898 E3.94185
G1 X223.576 Y143.923 E3.96112
G1 X223.576 Y139.416 E4.18733
G1 X223.344 Y139.433 E4.19902
G1 X223.193 Y139.457 E4.20669
G1 X223.193 Y143.882 E4.42872
G1 X222.81 Y143.771 E4.44873
G1 X222.81 Y139.568 E4.6597
G1 X222.427 Y139.76 E4.68123
G1 X222.427 Y143.579 E4.87287
G1 X222.219 Y143.432 E4.88564
G1 X222.043 Y143.276 E4.8974
G1 X222.043 Y140.063 E5.05869
G1 X221.827 Y140.308 E5.07511
G1 X221.66 Y140.564 E5.09044
G1 X221.66 Y143.064 E5.21591
G1 E3.21591 F2400
G92 E0
G1 Z3.35 F7800
G1 X204.505 Y172.269
G1 Z.35
G1 E2 F2400
;TYPE:Perimeter
G1 F1800
G1 X204.851 Y172.514 E2.02123
G1 X205.143 Y172.771 E2.04075
G1 X205.407 Y173.056 E2.06027
G1 X205.642 Y173.366 E2.07978
G1 X205.845 Y173.698 E2.0993
G1 X206.013 Y174.048 E2.11882
G1 X206.146 Y174.414 E2.13834
G1 X206.245 Y174.803 E2.15848
G1 X206.315 Y175.373 E2.1873
G1 X206.315 Y175.758 E2.20666
G1 X206.276 Y176.145 E2.22615
G1 X206.199 Y176.526 E2.24567
G1 X206.084 Y176.898 E2.26518
G1 X205.933 Y177.256 E2.2847
G1 X205.747 Y177.598 E2.30422
G1 X205.528 Y177.919 E2.32373
G1 X205.278 Y178.217 E2.34325
G1 X205 Y178.488 E2.36277
G1 X204.696 Y178.731 E2.38228
G1 X204.369 Y178.942 E2.4018
G1 X204.023 Y179.119 E2.42132
G1 X203.661 Y179.261 E2.44083
G1 X203.287 Y179.367 E2.46035
G1 X202.904 Y179.434 E2.47987
G1 X202.516 Y179.463 E2.49938
G1 X202.127 Y179.454 E2.5189
G1 X201.741 Y179.405 E2.53842
G1 X201.362 Y179.319 E2.55793
G1 X200.994 Y179.195 E2.57745
G1 X200.639 Y179.035 E2.59697
G1 X200.302 Y178.84 E2.61649
G1 X199.987 Y178.613 E2.636
G1 X199.695 Y178.356 E2.65552
G1 X199.431 Y178.071 E2.67503
G1 X199.196 Y177.761 E2.69455
G1 X198.993 Y177.429 E2.71407
G1 X198.824 Y177.079 E2.73359
G1 X198.691 Y176.713 E2.7531
G1 X198.592 Y176.324 E2.77325
G1 X198.522 Y175.754 E2.80207
G1 X198.523 Y175.369 E2.82143
G1 X198.562 Y174.982 E2.84092
G1 X198.639 Y174.601 E2.86043
G1 X198.753 Y174.229 E2.87995
G1 X198.904 Y173.871 E2.89947
G1 X199.09 Y173.529 E2.91898
