; generated by PrusaSlicer 2.4.2 on 2022-07-24 at 18:07:40 UTC

; 

; external perimeters extrusion width = 0.45mm
; perimeters extrusion width = 0.45mm
; infill extrusion width = 0.45mm
; solid infill extrusion width = 0.45mm
; top infill extrusion width = 0.40mm
; first layer extrusion width = 0.42mm

M107
M190 S60 ; set bed temperature and wait for it to be reached
M104 S215 ; set temperature
;TYPE:Custom
G28 ; home all axes
G1 Z5 F5000 ; lift nozzle
M109 S215 ; set temperature and wait for it to be reached
G21 ; set units to millimeters
G90 ; use absolute coordinates
M82 ; use absolute distances for extrusion
G92 E0
; Filament gcode
M107
;LAYER_CHANGE
;Z:0.35
;HEIGHT:0.35
G1 Z.35 F7800
G1 E-2 F2400
G92 E0
G1 Z3.35 F7800
G1 X107.316 Y105.944
G1 Z.35
G1 E2 F2400
;TYPE:Skirt/Brim
;WIDTH:0.42
G1 F1800
G1 X109.529 Y103.902 E2.15115
G1 X111.877 Y101.942 E2.30465
G1 X114.32 Y100.101 E2.45815
G1 X116.852 Y98.385 E2.61166
G1 X119.466 Y96.796 E2.76516
G1 X122.155 Y95.341 E2.91866
G1 X124.915 Y94.021 E3.07216
G1 X127.736 Y92.84 E3.22566
G1 X130.613 Y91.801 E3.37916
G1 X133.538 Y90.907 E3.53266
G1 X136.504 Y90.16 E3.68617
G1 X139.504 Y89.562 E3.83967
G1 X142.529 Y89.113 E3.99317
G1 X145.574 Y88.817 E4.14666
G1 X148.629 Y88.672 E4.30017
G1 X151.687 Y88.68 E4.45367
G1 X154.742 Y88.84 E4.60716
G1 X157.785 Y89.153 E4.76067
G1 X160.808 Y89.616 E4.91418
G1 X163.804 Y90.23 E5.06768
G1 X166.766 Y90.993 E5.22118
G1 X169.687 Y91.902 E5.37468
G1 X172.264 Y92.84 E5.51231
G1 X175.085 Y94.021 E5.66581
G1 X177.845 Y95.341 E5.81931
G1 X180.535 Y96.796 E5.97282
G1 X183.148 Y98.385 E6.12631
G1 X185.68 Y100.101 E6.27982
G1 X188.123 Y101.942 E6.43332
G1 X190.471 Y103.902 E6.58682
G1 X192.719 Y105.976 E6.74032
G1 X194.86 Y108.16 E6.89382
G1 X196.89 Y110.448 E7.04733
G1 X198.803 Y112.835 E7.20082
G1 X200.595 Y115.314 E7.35433
G1 X202.261 Y117.879 E7.50783
G1 X203.797 Y120.524 E7.66133
G1 X205.199 Y123.242 E7.81483
G1 X206.465 Y126.027 E7.96833
G1 X207.589 Y128.871 E8.12184
G1 X208.571 Y131.768 E8.27533
G1 X209.407 Y134.71 E8.42883
G1 X210.095 Y137.69 E8.58233
G1 X210.634 Y140.701 E8.73584
G1 X211.022 Y143.735 E8.88934
G1 X211.259 Y146.784 E9.04284
G1 X211.343 Y149.842 E9.19634
G1 X211.275 Y152.9 E9.34984
G1 X211.054 Y155.95 E9.50334
G1 X210.681 Y158.986 E9.65684
G1 X210.158 Y162 E9.81035
G1 X209.485 Y164.984 E9.96384
G1 X208.664 Y167.93 E10.11735
G1 X207.698 Y170.832 E10.27085
G1 X206.587 Y173.682 E10.42435
G1 X205.337 Y176.473 E10.57785
G1 X203.948 Y179.199 E10.73135
G1 X202.426 Y181.851 E10.88485
G1 X200.773 Y184.425 E11.03835
G1 X198.994 Y186.913 E11.19186
G1 X197.093 Y189.309 E11.34536
G1 X195.075 Y191.608 E11.49886
G1 X192.684 Y194.056 E11.67058
G1 X190.471 Y196.098 E11.82173
G1 X188.123 Y198.058 E11.97523
G1 X185.68 Y199.899 E12.12873
G1 X183.148 Y201.615 E12.28223
G1 X180.534 Y203.204 E12.43573
G1 X177.845 Y204.66 E12.58924
G1 X175.085 Y205.979 E12.74274
G1 X172.264 Y207.16 E12.89624
G1 X169.387 Y208.199 E13.04974
G1 X166.462 Y209.093 E13.20324
G1 X163.496 Y209.84 E13.35674
G1 X160.496 Y210.438 E13.51024
G1 X157.471 Y210.887 E13.66374
G1 X154.426 Y211.183 E13.81725
G1 X151.371 Y211.328 E13.97075
G1 X148.313 Y211.32 E14.12425
G1 X145.258 Y211.16 E14.27775
G1 X142.215 Y210.847 E14.43125
G1 X139.192 Y210.384 E14.58475
G1 X136.196 Y209.77 E14.73825
G1 X133.234 Y209.007 E14.89176
G1 X130.313 Y208.098 E15.04526
G1 X127.442 Y207.045 E15.19876
G1 X124.626 Y205.849 E15.35226
G1 X121.874 Y204.515 E15.50576
G1 X119.192 Y203.045 E15.65926
G1 X116.586 Y201.444 E15.81276
G1 X114.063 Y199.714 E15.96626
G1 X111.63 Y197.861 E16.11977
G1 X109.292 Y195.889 E16.27327
G1 X107.055 Y193.803 E16.42677
G1 X104.925 Y191.608 E16.58027
G1 X102.907 Y189.309 E16.73377
G1 X101.006 Y186.913 E16.88727
G1 X99.405 Y184.686 E17.02491
G1 X97.739 Y182.121 E17.1784
G1 X96.203 Y179.476 E17.3319
G1 X94.801 Y176.758 E17.48541
G1 X93.535 Y173.973 E17.63891
G1 X92.411 Y171.129 E17.79241
G1 X91.429 Y168.232 E17.94591
G1 X90.593 Y165.29 E18.09941
G1 X89.905 Y162.31 E18.25291
G1 X89.366 Y159.299 E18.40642
G1 X88.978 Y156.265 E18.55991
G1 X88.741 Y153.216 E18.71342
G1 X88.657 Y150.158 E18.86692
G1 X88.725 Y147.1 E19.02042
G1 X88.946 Y144.05 E19.17392
G1 X89.319 Y141.014 E19.32742
G1 X89.842 Y138 E19.48092
G1 X90.515 Y135.016 E19.63442
G1 X91.336 Y132.07 E19.78793
G1 X92.302 Y129.168 E19.94142
G1 X93.413 Y126.318 E20.09493
G1 X94.663 Y123.527 E20.24843
G1 X96.052 Y120.801 E20.40193
G1 X97.574 Y118.149 E20.55543
G1 X99.227 Y115.575 E20.70893
G1 X101.006 Y113.087 E20.86243
G1 X102.907 Y110.691 E21.01594
G1 X104.925 Y108.392 E21.16943
G1 X107.274 Y105.987 E21.33814
G1 E19.33814 F2400
G92 E0
G1 Z3.35 F7800
G1 X100.027 Y152.422
G1 Z.35
G1 E2 F2400
;TYPE:Perimeter
G1 F1800
G1 X99.515 Y152.373 E2.02582
G1 X99.081 Y152.24 E2.04857
G1 X98.675 Y152.027 E2.07157
G1 X98.303 Y151.728 E2.09552
G1 X97.99 Y151.35 E2.12019
G1 X97.778 Y150.962 E2.14236
G1 X97.622 Y150.459 E2.16881
G1 X97.578 Y149.993 E2.19226
G1 X97.633 Y149.487 E2.2178
G1 X97.768 Y149.062 E2.24021
G1 X97.971 Y148.679 E2.26195
G1 X98.28 Y148.295 E2.28669
G1 X98.65 Y147.99 E2.31073
G1 X99.053 Y147.772 E2.33377
G1 X99.483 Y147.634 E2.35642
G1 X99.995 Y147.578 E2.38225
G1 X100.506 Y147.632 E2.40803
G1 X100.935 Y147.767 E2.43064
G1 X101.336 Y147.981 E2.45345
G1 X101.703 Y148.279 E2.47717
G1 X102.052 Y148.702 E2.50469
G1 X102.216 Y148.356 E2.52391
G1 X102.399 Y148.082 E2.54045
G1 X102.682 Y147.745 E2.56254
G1 X103.187 Y147.32 E2.59565
G1 X103.741 Y147.02 E2.62725
G1 X104.219 Y146.871 E2.65242
G1 X104.337 Y145.343 E2.72931
G1 X104.626 Y143.074 E2.84409
G1 X105.027 Y140.822 E2.95888
G1 X105.54 Y138.593 E3.07366
G1 X106.163 Y136.393 E3.18845
G1 X106.896 Y134.226 E3.30323
G1 X107.735 Y132.098 E3.41802
G1 X108.679 Y130.015 E3.53281
G1 X109.726 Y127.981 E3.64759
G1 X110.873 Y126.003 E3.76238
G1 X112.117 Y124.083 E3.87716
G1 X113.455 Y122.228 E3.99195
G1 X114.884 Y120.442 E4.10674
G1 X116.4 Y118.73 E4.22152
G1 X117.999 Y117.095 E4.33631
G1 X119.678 Y115.541 E4.45109
G1 X121.432 Y114.074 E4.56588
G1 X123.257 Y112.695 E4.68066
G1 X125.149 Y111.409 E4.79545
G1 X127.102 Y110.219 E4.91024
G1 X129.112 Y109.128 E5.02502
G1 X131.174 Y108.138 E5.1398
G1 X133.283 Y107.252 E5.25459
G1 X135.433 Y106.473 E5.36938
G1 X137.619 Y105.801 E5.48416
G1 X139.837 Y105.239 E5.59895
G1 X142.079 Y104.789 E5.71374
G1 X144.341 Y104.45 E5.82852
G1 X146.617 Y104.225 E5.94331
G1 X148.737 Y104.121 E6.04981
G1 X151.187 Y104.115 E6.17279
G1 X153.473 Y104.232 E6.28765
G1 X155.749 Y104.461 E6.40244
G1 X158.01 Y104.804 E6.51723
G1 X160.251 Y105.259 E6.63201
G1 X162.467 Y105.826 E6.7468
G1 X164.653 Y106.502 E6.86158
G1 X166.801 Y107.285 E6.97637
G1 X168.908 Y108.175 E7.09115
G1 X170.968 Y109.169 E7.20594
G1 X172.976 Y110.264 E7.32072
G1 X174.927 Y111.458 E7.43551
G1 X176.816 Y112.748 E7.55029
G1 X178.638 Y114.13 E7.66508
G1 X180.39 Y115.601 E7.77987
G1 X182.065 Y117.158 E7.89465
G1 X183.662 Y118.796 E8.00944
G1 X185.174 Y120.511 E8.12422
G1 X186.6 Y122.3 E8.23901
G1 X187.934 Y124.158 E8.35379
G1 X189.174 Y126.08 E8.46858
G1 X190.317 Y128.061 E8.58337
G1 X191.36 Y130.096 E8.69815
G1 X192.3 Y132.181 E8.81294
G1 X193.135 Y134.311 E8.92772
G1 X193.863 Y136.479 E9.04251
G1 X194.482 Y138.681 E9.15729
G1 X194.991 Y140.911 E9.27208
G1 X195.388 Y143.163 E9.38686
G1 X195.672 Y145.433 E9.50165
G1 X195.843 Y147.714 E9.61644
G1 X195.9 Y150 E9.73122
G1 X195.843 Y152.286 E9.846
G1 X195.672 Y154.567 E9.96079
G1 X195.388 Y156.837 E10.07558
G1 X194.991 Y159.089 E10.19036
G1 X194.482 Y161.319 E10.30515
G1 X193.863 Y163.521 E10.41994
G1 X193.135 Y165.689 E10.53472
G1 X192.3 Y167.819 E10.6495
G1 X191.36 Y169.904 E10.76429
G1 X190.317 Y171.939 E10.87908
G1 X189.174 Y173.92 E10.99386
G1 X187.934 Y175.842 E11.10865
G1 X186.6 Y177.7 E11.22343
G1 X185.174 Y179.489 E11.33822
G1 X183.662 Y181.204 E11.45301
G1 X182.065 Y182.842 E11.56779
G1 X180.39 Y184.399 E11.68257
G1 X178.638 Y185.87 E11.79736
G1 X176.816 Y187.252 E11.91215
G1 X174.927 Y188.542 E12.02693
G1 X172.976 Y189.736 E12.14172
G1 X170.968 Y190.831 E12.2565
G1 X168.908 Y191.825 E12.37129
G1 X166.801 Y192.715 E12.48607
G1 X164.653 Y193.498 E12.60086
G1 X162.467 Y194.174 E12.71565
G1 X160.251 Y194.741 E12.83043
G1 X158.01 Y195.196 E12.94522
G1 X155.749 Y195.539 E13.06
G1 X153.473 Y195.768 E13.17479
G1 X151.189 Y195.885 E13.28958
G1 X148.902 Y195.887 E13.40436
G1 X146.617 Y195.775 E13.51915
G1 X144.341 Y195.55 E13.63393
G1 X142.079 Y195.211 E13.74872
G1 X139.837 Y194.761 E13.8635
G1 X137.619 Y194.199 E13.97829
G1 X135.433 Y193.527 E14.09308
G1 X133.283 Y192.748 E14.20786
G1 X131.174 Y191.862 E14.32265
G1 X129.112 Y190.872 E14.43743
G1 X127.102 Y189.781 E14.55222
G1 X125.149 Y188.591 E14.667
G1 X123.257 Y187.305 E14.78179
G1 X121.432 Y185.926 E14.89657
G1 X119.678 Y184.459 E15.01136
G1 X117.999 Y182.905 E15.12615
G1 X116.4 Y181.27 E15.24093
G1 X114.884 Y179.558 E15.35571
G1 X113.455 Y177.772 E15.4705
G1 X112.117 Y175.917 E15.58529
G1 X110.873 Y173.997 E15.70007
G1 X109.726 Y172.019 E15.81486
G1 X108.679 Y169.985 E15.92964
G1 X107.735 Y167.902 E16.04443
G1 X106.896 Y165.774 E16.15922
G1 X106.163 Y163.607 E16.274
G1 X105.54 Y161.407 E16.38879
G1 X105.027 Y159.178 E16.50357
G1 X104.626 Y156.926 E16.61836
G1 X104.337 Y154.657 E16.73314
G1 X104.22 Y153.133 E16.80985
G1 X103.804 Y153.003 E16.83173
G1 X103.295 Y152.748 E16.8603
G1 X102.806 Y152.377 E16.89112
G1 X102.382 Y151.9 E16.92311
G1 X102.032 Y151.316 E16.95728
G1 X101.727 Y151.698 E16.98184
G1 X101.364 Y152 E17.00551
G1 X100.966 Y152.22 E17.02836
G1 X100.537 Y152.361 E17.05101
G1 X100.086 Y152.415 E17.07379
G1 X100.023 Y152.075 F7800
G1 F1800
G1 X99.582 Y152.033 E17.096
G1 X99.213 Y151.92 E17.11539
G1 X98.865 Y151.737 E17.13509
G1 X98.547 Y151.481 E17.15561
G1 X98.276 Y151.155 E17.17686
G1 X98.097 Y150.827 E17.19563
G1 X97.962 Y150.391 E17.21854
G1 X97.925 Y149.996 E17.23845
G1 X97.972 Y149.559 E17.26051
G1 X98.088 Y149.196 E17.27963
G1 X98.26 Y148.869 E17.29815
G1 X98.527 Y148.539 E17.31948
G1 X98.843 Y148.278 E17.34006
G1 X99.189 Y148.09 E17.3598
G1 X99.555 Y147.973 E17.37911
G1 X99.996 Y147.924 E17.40133
G1 X100.435 Y147.971 E17.42351
G1 X100.801 Y148.086 E17.44277
G1 X101.145 Y148.27 E17.46231
G1 X101.459 Y148.525 E17.48264
G1 X101.726 Y148.849 E17.5037
G1 X101.904 Y149.175 E17.52234
G1 X102.004 Y149.498 E17.53934
G1 X102.16 Y149.495 E17.54719
G1 X102.284 Y149.017 E17.57197
G1 X102.517 Y148.527 E17.59922
G1 X102.675 Y148.289 E17.61355
G1 X102.927 Y147.99 E17.63316
G1 X103.382 Y147.607 E17.66302
G1 X103.876 Y147.339 E17.69119
G1 X104.399 Y147.176 E17.71872
G1 X104.543 Y147.156 E17.72602
G1 X104.68 Y145.378 E17.8155
G1 X104.967 Y143.126 E17.92942
G1 X105.365 Y140.891 E18.04334
G1 X105.874 Y138.679 E18.15727
G1 X106.493 Y136.495 E18.27119
G1 X107.22 Y134.344 E18.38511
G1 X108.053 Y132.233 E18.49904
G1 X108.99 Y130.165 E18.61296
G1 X110.029 Y128.147 E18.72688
G1 X111.167 Y126.183 E18.8408
G1 X112.402 Y124.278 E18.95473
G1 X113.73 Y122.437 E19.06865
G1 X115.148 Y120.664 E19.18257
G1 X116.652 Y118.965 E19.2965
G1 X118.24 Y117.342 E19.41042
G1 X119.906 Y115.8 E19.52434
G1 X121.647 Y114.344 E19.63827
G1 X123.458 Y112.976 E19.75219
G1 X125.336 Y111.699 E19.86611
G1 X127.274 Y110.518 E19.98003
G1 X129.269 Y109.435 E20.09396
G1 X131.316 Y108.453 E20.20788
G1 X133.409 Y107.574 E20.3218
G1 X135.543 Y106.8 E20.43572
G1 X137.713 Y106.133 E20.54965
G1 X139.913 Y105.576 E20.66357
G1 X142.139 Y105.128 E20.77749
G1 X144.383 Y104.792 E20.89141
G1 X146.642 Y104.569 E21.00534
G1 X148.746 Y104.466 E21.11101
G1 X151.179 Y104.46 E21.23313
G1 X153.447 Y104.576 E21.3471
G1 X155.705 Y104.804 E21.46102
G1 X157.95 Y105.144 E21.57494
G1 X160.174 Y105.596 E21.68886
G1 X162.374 Y106.158 E21.80279
G1 X164.542 Y106.828 E21.91671
G1 X166.675 Y107.606 E22.03064
G1 X168.766 Y108.49 E22.14456
G1 X170.811 Y109.476 E22.25848
G1 X172.803 Y110.563 E22.3724
G1 X174.74 Y111.748 E22.48633
G1 X176.614 Y113.028 E22.60025
G1 X178.423 Y114.4 E22.71417
G1 X180.161 Y115.86 E22.8281
G1 X181.824 Y117.405 E22.94201
G1 X183.409 Y119.03 E23.05594
G1 X184.91 Y120.733 E23.16986
G1 X186.325 Y122.508 E23.28379
G1 X187.649 Y124.352 E23.39771
G1 X188.88 Y126.259 E23.51163
G1 X190.014 Y128.226 E23.62555
G1 X191.049 Y130.246 E23.73948
G1 X191.982 Y132.315 E23.8534
G1 X192.811 Y134.429 E23.96732
G1 X193.534 Y136.581 E24.08124
G1 X194.148 Y138.766 E24.19517
G1 X194.653 Y140.979 E24.30909
G1 X195.047 Y143.215 E24.42301
G1 X195.329 Y145.467 E24.53694
G1 X195.499 Y147.731 E24.65086
G1 X195.555 Y150 E24.76478
G1 X195.499 Y152.269 E24.8787
G1 X195.329 Y154.533 E24.99263
G1 X195.047 Y156.785 E25.10655
G1 X194.653 Y159.021 E25.22047
G1 X194.148 Y161.234 E25.3344
G1 X193.534 Y163.419 E25.44832
G1 X192.811 Y165.571 E25.56224
G1 X191.982 Y167.685 E25.67616
G1 X191.049 Y169.754 E25.79009
G1 X190.014 Y171.774 E25.90401
G1 X188.88 Y173.741 E26.01793
G1 X187.649 Y175.648 E26.13186
G1 X186.325 Y177.492 E26.24578
G1 X184.91 Y179.267 E26.3597
G1 X183.409 Y180.97 E26.47362
G1 X181.824 Y182.595 E26.58755
G1 X180.161 Y184.14 E26.70147
G1 X178.423 Y185.6 E26.81539
G1 X176.614 Y186.972 E26.92932
G1 X174.74 Y188.252 E27.04324
G1 X172.803 Y189.437 E27.15716
G1 X170.811 Y190.524 E27.27108
G1 X168.766 Y191.51 E27.38501
G1 X166.675 Y192.394 E27.49893
G1 X164.542 Y193.172 E27.61285
G1 X162.374 Y193.842 E27.72678
G1 X160.174 Y194.404 E27.8407
G1 X157.95 Y194.856 E27.95462
G1 X155.705 Y195.196 E28.06854
G1 X153.447 Y195.424 E28.18247
G1 X151.18 Y195.54 E28.29639
G1 X148.91 Y195.542 E28.41031
G1 X146.642 Y195.431 E28.52424
G1 X144.383 Y195.208 E28.63816
G1 X142.139 Y194.872 E28.75208
G1 X139.913 Y194.424 E28.866
G1 X137.713 Y193.867 E28.97993
G1 X135.543 Y193.2 E29.09385
G1 X133.409 Y192.426 E29.20777
G1 X131.316 Y191.547 E29.3217
G1 X129.269 Y190.565 E29.43562
G1 X127.274 Y189.482 E29.54954
G1 X125.336 Y188.301 E29.66346
G1 X123.458 Y187.024 E29.77739
G1 X121.647 Y185.656 E29.89131
G1 X119.906 Y184.2 E30.00523
G1 X118.24 Y182.658 E30.11916
G1 X116.652 Y181.035 E30.23308
G1 X115.148 Y179.336 E30.347
G1 X113.73 Y177.563 E30.46093
G1 X112.402 Y175.722 E30.57485
G1 X111.167 Y173.817 E30.68877
G1 X110.029 Y171.853 E30.80269
G1 X108.99 Y169.835 E30.91662
G1 X108.053 Y167.767 E31.03054
G1 X107.22 Y165.656 E31.14446
G1 X106.493 Y163.505 E31.25838
G1 X105.874 Y161.321 E31.37231
G1 X105.365 Y159.109 E31.48623
G1 X104.967 Y156.874 E31.60015
G1 X104.68 Y154.622 E31.71408
G1 X104.544 Y152.851 E31.80323
G1 X104.238 Y152.784 E31.81896
G1 X103.936 Y152.684 E31.83493
G1 X103.478 Y152.454 E31.86064
G1 X103.041 Y152.123 E31.88816
G1 X102.662 Y151.695 E31.91684
G1 X102.408 Y151.272 E31.94162
G1 X102.265 Y150.922 E31.96057
G1 X102.17 Y150.526 E31.98103
G1 X102.005 Y150.512 E31.98933
G1 X101.913 Y150.803 E32.00464
G1 X101.742 Y151.127 E32.02304
G1 X101.479 Y151.456 E32.04417
G1 X101.169 Y151.714 E32.06444
G1 X100.827 Y151.903 E32.08402
G1 X100.462 Y152.023 E32.10332
G1 X100.083 Y152.068 E32.12249
G1 E30.12249 F2400
G92 E0
G1 Z3.35 F7800
G1 X149.815 Y195.196
G1 Z.35
G1 E2 F2400
;TYPE:External perimeter
G1 F1800
G1 X148.918 Y195.197 E2.045
G1 X146.668 Y195.087 E2.15806
G1 X144.426 Y194.865 E2.27112
G1 X142.198 Y194.532 E2.38418
G1 X139.989 Y194.088 E2.49724
G1 X137.806 Y193.534 E2.6103
G1 X135.652 Y192.873 E2.72337
G1 X133.534 Y192.105 E2.83642
G1 X131.457 Y191.232 E2.94949
G1 X129.426 Y190.258 E3.06254
G1 X127.446 Y189.183 E3.17561
G1 X125.522 Y188.011 E3.28867
G1 X123.659 Y186.744 E3.40173
G1 X121.862 Y185.386 E3.51478
G1 X120.134 Y183.941 E3.62785
G1 X118.48 Y182.411 E3.74091
G1 X116.905 Y180.8 E3.85397
G1 X115.412 Y179.113 E3.96703
G1 X114.004 Y177.354 E4.08009
G1 X112.686 Y175.527 E4.19315
G1 X111.461 Y173.637 E4.3062
G1 X110.331 Y171.688 E4.41927
G1 X109.3 Y169.685 E4.53233
G1 X108.37 Y167.633 E4.64539
G1 X107.544 Y165.537 E4.75845
G1 X106.822 Y163.403 E4.87151
G1 X106.208 Y161.235 E4.98457
G1 X105.703 Y159.04 E5.09763
G1 X105.308 Y156.822 E5.21069
G1 X105.023 Y154.587 E5.32375
G1 X104.865 Y152.527 E5.42743
G1 X104.593 Y152.509 E5.44109
G1 X104.329 Y152.451 E5.45467
G1 X104.068 Y152.364 E5.46847
G1 X103.661 Y152.16 E5.49133
G1 X103.277 Y151.868 E5.51554
G1 X102.941 Y151.49 E5.54092
