; generated by PrusaSlicer 2.4.2 on 2022-07-24 at 19:48:30 UTC

; 

; external perimeters extrusion width = 0.45mm
; perimeters extrusion width = 0.45mm
; infill extrusion width = 0.45mm
; solid infill extrusion width = 0.45mm
; top infill extrusion width = 0.40mm
; first layer extrusion width = 0.42mm

M107
M190 S60 ; set bed temperature and wait for it to be reached
M104 S215 ; set temperature
;TYPE:Custom
G28 ; home all axes
G1 Z5 F5000 ; lift nozzle
M109 S215 ; set temperature and wait for it to be reached
G21 ; set units to millimeters
G90 ; use absolute coordinates
M82 ; use absolute distances for extrusion
G92 E0
; Filament gcode
M107
;LAYER_CHANGE
;Z:0.35
;HEIGHT:0.35
G1 Z.35 F7800
G1 E-2 F2400
G92 E0
G1 Z3.35 F7800
G1 X114.883 Y113.918
G1 Z.35
G1 E2 F2400
;TYPE:Skirt/Brim
;WIDTH:0.42
G1 F1800
G1 X116.727 Y112.211 E2.1261
G1 X118.654 Y110.598 E2.2522
G1 X120.658 Y109.084 E2.37831
G1 X122.736 Y107.671 E2.50441
G1 X124.882 Y106.363 E2.63051
G1 X127.09 Y105.164 E2.75662
G1 X129.356 Y104.077 E2.88272
G1 X131.672 Y103.105 E3.00882
G1 X134.035 Y102.249 E3.13492
G1 X136.437 Y101.512 E3.26103
G1 X138.873 Y100.895 E3.38713
G1 X141.337 Y100.401 E3.51323
G1 X143.822 Y100.031 E3.63934
G1 X146.322 Y99.785 E3.76544
G1 X148.832 Y99.664 E3.89154
G1 X151.345 Y99.668 E4.01764
G1 X153.854 Y99.798 E4.14375
G1 X156.354 Y100.053 E4.26985
G1 X158.838 Y100.432 E4.39595
G1 X161.3 Y100.935 E4.52205
G1 X163.734 Y101.56 E4.64816
G1 X166.133 Y102.305 E4.77426
G1 X168.493 Y103.169 E4.90036
G1 X170.806 Y104.15 E5.02647
G1 X173.068 Y105.245 E5.15257
G1 X175.272 Y106.452 E5.27867
G1 X177.147 Y107.595 E5.38889
G1 X179.228 Y109.003 E5.51499
G1 X181.237 Y110.512 E5.64109
G1 X183.169 Y112.119 E5.76719
G1 X185.017 Y113.821 E5.8933
G1 X186.778 Y115.613 E6.0194
G1 X188.448 Y117.491 E6.1455
G1 X190.022 Y119.45 E6.27161
G1 X191.496 Y121.485 E6.39771
G1 X192.867 Y123.59 E6.52381
G1 X194.132 Y125.762 E6.64991
G1 X195.286 Y127.994 E6.77602
G1 X196.327 Y130.28 E6.90212
G1 X197.253 Y132.616 E7.02822
G1 X198.062 Y134.995 E7.15432
G1 X198.751 Y137.412 E7.28043
G1 X199.318 Y139.86 E7.40653
G1 X199.762 Y142.333 E7.53263
G1 X200.083 Y144.825 E7.65873
G1 X200.279 Y147.33 E7.78484
G1 X200.349 Y149.842 E7.91094
G1 X200.295 Y152.354 E8.03704
G1 X200.115 Y154.86 E8.16315
G1 X199.81 Y157.354 E8.28925
G1 X199.381 Y159.83 E8.41535
G1 X198.829 Y162.281 E8.54145
G1 X198.155 Y164.702 E8.66755
G1 X197.362 Y167.086 E8.79366
G1 X196.45 Y169.428 E8.91976
G1 X195.423 Y171.721 E9.04586
G1 X194.283 Y173.96 E9.17197
G1 X193.033 Y176.14 E9.29807
G1 X191.675 Y178.254 E9.42417
G1 X190.213 Y180.298 E9.55027
G1 X188.652 Y182.266 E9.67638
G1 X186.994 Y184.155 E9.80248
G1 X185.244 Y185.958 E9.92858
G1 X183.406 Y187.671 E10.05469
G1 X181.485 Y189.291 E10.18079
G1 X179.486 Y190.813 E10.30689
G1 X177.012 Y192.487 E10.4568
G1 X174.997 Y193.706 E10.57497
G1 X172.786 Y194.899 E10.70108
G1 X170.517 Y195.98 E10.82718
G1 X168.198 Y196.946 E10.95328
G1 X165.833 Y197.795 E11.07938
G1 X163.429 Y198.526 E11.20549
G1 X160.991 Y199.135 E11.33159
G1 X158.526 Y199.622 E11.45769
G1 X156.04 Y199.986 E11.58379
G1 X153.539 Y200.225 E11.7099
G1 X151.029 Y200.339 E11.836
G1 X148.516 Y200.328 E11.9621
G1 X146.007 Y200.191 E12.08821
G1 X143.508 Y199.929 E12.21431
G1 X141.025 Y199.543 E12.34041
G1 X138.564 Y199.034 E12.46651
G1 X136.132 Y198.402 E12.59262
G1 X133.735 Y197.65 E12.71872
G1 X131.378 Y196.779 E12.84482
G1 X129.067 Y195.792 E12.97092
G1 X127.09 Y194.836 E13.08114
G1 X124.882 Y193.637 E13.20724
G1 X122.736 Y192.329 E13.33335
G1 X120.658 Y190.916 E13.45945
G1 X118.654 Y189.402 E13.58555
G1 X116.727 Y187.789 E13.71165
G1 X114.883 Y186.082 E13.83776
G1 X113.127 Y184.285 E13.96386
G1 X111.462 Y182.402 E14.08996
G1 X109.894 Y180.439 E14.21606
G1 X108.425 Y178.401 E14.34217
G1 X107.06 Y176.291 E14.46827
G1 X105.802 Y174.116 E14.59437
G1 X104.653 Y171.881 E14.72047
G1 X103.618 Y169.591 E14.84658
G1 X102.699 Y167.253 E14.97268
G1 X101.897 Y164.872 E15.09878
G1 X101.215 Y162.453 E15.22489
G1 X100.654 Y160.004 E15.35099
G1 X100.217 Y157.53 E15.47709
G1 X99.903 Y155.037 E15.60319
G1 X99.714 Y152.531 E15.7293
G1 X99.698 Y147.926 E15.9604
G1 X99.903 Y144.963 E16.10944
G1 X100.217 Y142.47 E16.23555
G1 X100.654 Y139.996 E16.36165
G1 X101.215 Y137.547 E16.48775
G1 X101.897 Y135.128 E16.61385
G1 X102.699 Y132.747 E16.73996
G1 X103.618 Y130.409 E16.86606
G1 X104.653 Y128.119 E16.99216
G1 X105.802 Y125.884 E17.11827
G1 X107.06 Y123.709 E17.24437
G1 X108.425 Y121.599 E17.37047
G1 X109.894 Y119.561 E17.49657
G1 X111.462 Y117.598 E17.62268
G1 X113.127 Y115.715 E17.74878
G1 X114.841 Y113.961 E17.87187
G1 E15.87187 F2400
G92 E0
G1 Z3.35 F7800
G1 X121.1 Y145.1
G1 Z.35
G1 E2 F2400
;TYPE:Perimeter
G1 F1800
G1 X142.365 Y145.1 E3.06722
G1 X142.831 Y144.437 E3.10788
G1 X143.409 Y143.764 E3.15241
G1 X143.743 Y143.43 E3.17608
G1 X144.415 Y142.851 E3.22061
G1 X145.15 Y142.334 E3.2657
G1 X145.932 Y141.893 E3.31079
G1 X146.745 Y141.536 E3.35532
G1 X147.179 Y141.383 E3.37843
G1 X147.62 Y141.251 E3.40154
G1 X148.487 Y141.061 E3.4461
G1 X149.392 Y140.956 E3.49179
G1 X150.278 Y140.941 E3.53626
G1 X151.173 Y141.014 E3.58133
G1 X152.033 Y141.172 E3.62524
G1 X152.502 Y141.293 E3.64951
G1 X153.331 Y141.577 E3.69351
G1 X153.765 Y141.762 E3.71718
G1 X154.552 Y142.171 E3.76171
G1 X155.305 Y142.661 E3.8068
G1 X156.006 Y143.224 E3.85189
G1 X156.647 Y143.853 E3.89698
G1 X157.215 Y144.534 E3.94151
G1 X157.49 Y144.918 E3.96518
G1 X157.952 Y145.676 E4.00971
G1 X158.336 Y146.476 E4.05424
G1 X158.508 Y146.915 E4.07791
G1 X158.769 Y147.763 E4.12244
G1 X158.947 Y148.643 E4.16753
G1 X159.037 Y149.527 E4.21209
G1 X159.049 Y150.01 E4.23636
G1 X159.006 Y150.884 E4.28026
G1 X158.874 Y151.773 E4.32535
G1 X158.655 Y152.644 E4.37044
G1 X158.355 Y153.479 E4.41497
G1 X158.162 Y153.909 E4.43863
G1 X157.753 Y154.67 E4.48197
G1 X157.493 Y155.078 E4.50624
G1 X156.961 Y155.788 E4.55081
G1 X156.353 Y156.45 E4.59589
G1 X155.683 Y157.049 E4.64098
G1 X154.957 Y157.578 E4.68607
G1 X154.192 Y158.028 E4.7306
G1 X153.769 Y158.236 E4.75427
G1 X152.946 Y158.567 E4.7988
G1 X152.083 Y158.818 E4.84389
G1 X151.2 Y158.982 E4.88898
G1 X150.305 Y159.058 E4.93407
G1 X149.417 Y159.045 E4.9786
G1 X148.948 Y159.003 E5.00227
G1 X148.072 Y158.859 E5.0468
G1 X147.204 Y158.626 E5.0919
G1 X146.364 Y158.308 E5.13699
G1 X145.559 Y157.909 E5.18207
G1 X144.798 Y157.432 E5.22716
G1 X144.106 Y156.897 E5.27106
G1 X143.746 Y156.573 E5.29533
G1 X143.133 Y155.932 E5.33989
G1 X142.579 Y155.224 E5.38498
G1 X142.387 Y154.921 E5.40298
G1 X121.1 Y154.921 E6.47129
G1 X121.1 Y145.16 E6.96114
G1 X121.445 Y145.445 F7800
G1 F1800
G1 X142.555 Y145.445 E8.02056
G1 X143.103 Y144.649 E8.06908
G1 X143.662 Y143.999 E8.11211
G1 X143.977 Y143.683 E8.13449
G1 X144.627 Y143.123 E8.17752
G1 X145.334 Y142.626 E8.22089
G1 X146.087 Y142.202 E8.26426
G1 X146.872 Y141.857 E8.30729
G1 X147.286 Y141.711 E8.32933
G1 X147.706 Y141.585 E8.35136
G1 X148.544 Y141.402 E8.39441
G1 X149.415 Y141.301 E8.43837
G1 X150.267 Y141.286 E8.48114
G1 X151.128 Y141.357 E8.5245
G1 X151.959 Y141.509 E8.56692
G1 X152.402 Y141.624 E8.5899
G1 X153.207 Y141.899 E8.6326
G1 X153.617 Y142.074 E8.65498
G1 X154.378 Y142.469 E8.698
G1 X155.102 Y142.941 E8.74138
G1 X155.776 Y143.482 E8.78475
G1 X156.393 Y144.088 E8.82812
G1 X156.943 Y144.746 E8.87115
G1 X157.202 Y145.108 E8.89353
G1 X157.648 Y145.841 E8.93656
G1 X158.019 Y146.613 E8.97958
G1 X158.182 Y147.029 E9.00197
G1 X158.434 Y147.848 E9.04499
G1 X158.606 Y148.695 E9.08836
G1 X158.692 Y149.548 E9.13141
G1 X158.704 Y150.006 E9.15439
G1 X158.663 Y150.85 E9.1968
G1 X158.536 Y151.705 E9.24017
G1 X158.325 Y152.543 E9.28354
G1 X158.035 Y153.35 E9.32657
G1 X157.853 Y153.757 E9.34895
G1 X157.455 Y154.495 E9.39102
G1 X157.209 Y154.881 E9.414
G1 X156.695 Y155.568 E9.45704
G1 X156.111 Y156.204 E9.50041
G1 X155.466 Y156.78 E9.54379
G1 X154.768 Y157.29 E9.58716
G1 X154.029 Y157.724 E9.63018
G1 X153.628 Y157.921 E9.65257
G1 X152.833 Y158.24 E9.69559
G1 X152.003 Y158.482 E9.73897
G1 X151.154 Y158.64 E9.78234
G1 X150.292 Y158.713 E9.82571
G1 X149.435 Y158.701 E9.86874
G1 X148.991 Y158.661 E9.89112
G1 X148.145 Y158.522 E9.93414
G1 X147.31 Y158.298 E9.97752
G1 X146.502 Y157.992 E10.02089
G1 X145.728 Y157.608 E10.06426
G1 X144.996 Y157.149 E10.10763
G1 X144.327 Y156.632 E10.15004
G1 X143.987 Y156.326 E10.17302
G1 X143.394 Y155.706 E10.21607
G1 X142.861 Y155.025 E10.25944
G1 X142.577 Y154.576 E10.28611
G1 X121.445 Y154.576 E11.34663
G1 X121.445 Y145.505 E11.80187
G1 X121.79 Y145.79 F7800
;TYPE:External perimeter
G1 F1800
G1 X142.751 Y145.79 E12.85381
G1 X142.901 Y145.538 E12.86852
G1 X143.376 Y144.861 E12.91005
G1 X143.915 Y144.233 E12.95157
G1 X144.212 Y143.936 E12.97266
G1 X144.839 Y143.396 E13.01419
G1 X145.518 Y142.919 E13.05584
G1 X146.241 Y142.511 E13.0975
G1 X146.999 Y142.178 E13.13902
G1 X147.393 Y142.039 E13.15998
G1 X147.793 Y141.919 E13.18095
G1 X148.601 Y141.742 E13.22248
G1 X149.437 Y141.645 E13.26472
G1 X150.255 Y141.631 E13.30578
G1 X151.083 Y141.699 E13.34743
G1 X151.885 Y141.846 E13.38835
G1 X152.303 Y141.954 E13.41004
G1 X153.084 Y142.221 E13.45144
G1 X153.47 Y142.386 E13.47254
G1 X154.204 Y142.767 E13.51406
G1 X154.9 Y143.221 E13.55572
G1 X155.547 Y143.74 E13.59737
G1 X156.139 Y144.322 E13.63902
G1 X156.67 Y144.957 E13.68055
G1 X156.914 Y145.299 E13.70164
G1 X157.345 Y146.005 E13.74317
G1 X157.703 Y146.751 E13.78469
G1 X157.856 Y147.143 E13.80578
G1 X158.1 Y147.933 E13.84731
G1 X158.265 Y148.747 E13.88896
G1 X158.348 Y149.57 E13.93049
G1 X158.358 Y150.002 E13.95218
G1 X158.319 Y150.817 E13.9931
G1 X158.197 Y151.638 E14.03476
G1 X157.995 Y152.443 E14.07641
G1 X157.714 Y153.221 E14.11793
G1 X157.543 Y153.605 E14.13903
G1 X157.158 Y154.32 E14.17982
G1 X156.925 Y154.685 E14.20151
G1 X156.429 Y155.347 E14.24304
G1 X155.868 Y155.959 E14.28469
G1 X155.249 Y156.512 E14.32635
G1 X154.579 Y157.001 E14.368
G1 X153.865 Y157.42 E14.40953
G1 X153.488 Y157.605 E14.43062
G1 X152.72 Y157.914 E14.47215
G1 X151.923 Y158.146 E14.5138
G1 X151.107 Y158.298 E14.55545
G1 X150.28 Y158.368 E14.59711
G1 X149.453 Y158.356 E14.63863
G1 X149.034 Y158.319 E14.65973
G1 X148.218 Y158.184 E14.70125
G1 X147.416 Y157.969 E14.7429
G1 X146.64 Y157.675 E14.78456
G1 X145.896 Y157.306 E14.82621
G1 X145.193 Y156.866 E14.86787
G1 X144.548 Y156.367 E14.90879
G1 X144.227 Y156.078 E14.93048
G1 X143.655 Y155.48 E14.97201
G1 X143.144 Y154.826 E15.01366
G1 X142.767 Y154.231 E15.04899
G1 X121.79 Y154.231 E16.10173
G1 X121.79 Y145.85 E16.52235
G1 X121.636 Y145.421 F7800
G1 E14.52235 F2400
G92 E0
G1 Z3.35 F7800
G1 X159.452 Y125.937
G1 Z.35
G1 E2 F2400
;TYPE:Perimeter
G1 F1800
G1 X159.129 Y125.275 E2.03697
G1 X158.889 Y124.615 E2.07221
G1 X158.716 Y123.935 E2.10746
G1 X158.611 Y123.24 E2.1427
G1 X158.577 Y122.556 E2.17709
G1 X158.586 Y122.177 E2.19612
G1 X158.655 Y121.489 E2.23082
G1 X158.794 Y120.8 E2.26606
G1 X159.001 Y120.129 E2.30131
G1 X159.274 Y119.482 E2.33655
G1 X159.61 Y118.865 E2.3718
G1 X160.005 Y118.285 E2.40704
G1 X160.457 Y117.747 E2.44229
G1 X160.959 Y117.257 E2.47754
G1 X161.508 Y116.819 E2.51278
G1 X162.098 Y116.438 E2.54803
G1 X162.723 Y116.117 E2.58327
G1 X163.377 Y115.861 E2.61852
G1 X164.053 Y115.671 E2.65376
G1 X164.745 Y115.549 E2.68901
G1 X165.445 Y115.496 E2.72425
G1 X166.147 Y115.514 E2.7595
G1 X166.844 Y115.601 E2.79475
G1 X167.529 Y115.757 E2.82999
G1 X168.194 Y115.981 E2.86524
G1 X168.835 Y116.27 E2.90048
G1 X169.443 Y116.621 E2.93573
G1 X170.013 Y117.031 E2.97097
G1 X170.54 Y117.496 E3.00622
G1 X171.017 Y118.01 E3.04146
G1 X171.441 Y118.57 E3.07671
G1 X171.808 Y119.17 E3.11195
G1 X172.112 Y119.802 E3.1472
G1 X172.352 Y120.462 E3.18245
G1 X172.526 Y121.143 E3.21769
G1 X172.63 Y121.837 E3.25293
G1 X172.665 Y122.522 E3.28733
G1 X172.656 Y122.901 E3.30635
G1 X172.587 Y123.589 E3.34105
G1 X172.448 Y124.277 E3.3763
G1 X172.241 Y124.948 E3.41154
G1 X171.968 Y125.595 E3.44679
G1 X171.632 Y126.212 E3.48203
G1 X171.236 Y126.792 E3.51728
G1 X170.785 Y127.33 E3.55253
G1 X170.282 Y127.821 E3.58777
G1 X169.733 Y128.259 E3.62302
G1 X169.143 Y128.64 E3.65826
G1 X168.518 Y128.96 E3.69351
G1 X167.864 Y129.217 E3.72875
G1 X167.188 Y129.407 E3.764
G1 X166.497 Y129.529 E3.79925
G1 X165.796 Y129.581 E3.83449
G1 X165.094 Y129.564 E3.86973
G1 X164.397 Y129.476 E3.90498
G1 X163.713 Y129.32 E3.94022
G1 X163.047 Y129.096 E3.97547
G1 X162.407 Y128.808 E4.01071
G1 X161.799 Y128.456 E4.04596
G1 X161.228 Y128.046 E4.08121
G1 X160.702 Y127.582 E4.11645
G1 X160.224 Y127.067 E4.1517
G1 X159.8 Y126.507 E4.18694
G1 X159.483 Y125.988 E4.21745
G1 X159.746 Y125.757 F7800
G1 F1800
G1 X159.447 Y125.141 E4.25183
G1 X159.219 Y124.513 E4.28535
G1 X159.054 Y123.866 E4.31886
G1 X158.955 Y123.206 E4.35238
G1 X158.922 Y122.551 E4.38527
G1 X158.93 Y122.198 E4.403
G1 X158.996 Y121.54 E4.43618
G1 X159.128 Y120.886 E4.4697
G1 X159.325 Y120.247 E4.50321
G1 X159.585 Y119.632 E4.53673
G1 X159.904 Y119.045 E4.57025
G1 X160.28 Y118.494 E4.60377
G1 X160.71 Y117.982 E4.63729
G1 X161.188 Y117.516 E4.6708
G1 X161.71 Y117.099 E4.70432
G1 X162.271 Y116.737 E4.73784
G1 X162.865 Y116.432 E4.77136
G1 X163.487 Y116.188 E4.80487
G1 X164.13 Y116.007 E4.83839
G1 X164.788 Y115.891 E4.87191
G1 X165.454 Y115.841 E4.90543
G1 X166.121 Y115.858 E4.93895
G1 X166.784 Y115.941 E4.97246
G1 X167.435 Y116.09 E5.00598
G1 X168.068 Y116.302 E5.0395
G1 X168.677 Y116.577 E5.07302
G1 X169.255 Y116.911 E5.10654
G1 X169.798 Y117.301 E5.14005
G1 X170.298 Y117.743 E5.17357
G1 X170.753 Y118.232 E5.20709
G1 X171.156 Y118.765 E5.24061
G1 X171.504 Y119.335 E5.27412
G1 X171.794 Y119.936 E5.30764
G1 X172.022 Y120.564 E5.34116
G1 X172.187 Y121.211 E5.37468
G1 X172.287 Y121.872 E5.40819
G1 X172.32 Y122.526 E5.44108
G1 X172.311 Y122.879 E5.45881
G1 X172.245 Y123.537 E5.49199
G1 X172.113 Y124.192 E5.52551
G1 X171.916 Y124.83 E5.55903
G1 X171.657 Y125.445 E5.59255
G1 X171.337 Y126.032 E5.62606
G1 X170.961 Y126.584 E5.65958
G1 X170.532 Y127.095 E5.6931
G1 X170.054 Y127.562 E5.72662
G1 X169.531 Y127.978 E5.76014
G1 X168.97 Y128.341 E5.79365
G1 X168.376 Y128.645 E5.82717
G1 X167.754 Y128.889 E5.86069
G1 X167.111 Y129.07 E5.89421
G1 X166.454 Y129.186 E5.92773
G1 X165.788 Y129.236 E5.96124
G1 X165.12 Y129.219 E5.99476
G1 X164.457 Y129.136 E6.02828
G1 X163.806 Y128.988 E6.06179
G1 X163.173 Y128.775 E6.09531
G1 X162.564 Y128.5 E6.12883
G1 X161.986 Y128.166 E6.16235
G1 X161.444 Y127.777 E6.19587
G1 X160.943 Y127.335 E6.22938
G1 X160.489 Y126.845 E6.2629
G1 X160.085 Y126.313 E6.29642
G1 X159.777 Y125.809 E6.32606
G1 X160.04 Y125.578 F7800
;TYPE:External perimeter
G1 F1800
G1 X159.766 Y125.007 E6.35785
G1 X159.549 Y124.412 E6.38964
G1 X159.393 Y123.798 E6.42143
G1 X159.298 Y123.171 E6.45322
G1 X159.267 Y122.547 E6.48461
G1 X159.275 Y122.219 E6.50104
G1 X159.338 Y121.592 E6.5327
G1 X159.463 Y120.971 E6.56449
G1 X159.65 Y120.366 E6.59628
G1 X159.896 Y119.782 E6.62807
G1 X160.199 Y119.225 E6.65986
G1 X160.556 Y118.702 E6.69165
G1 X160.963 Y118.217 E6.72344
G1 X161.416 Y117.775 E6.75523
G1 X161.912 Y117.38 E6.78702
G1 X162.444 Y117.036 E6.81881
G1 X163.007 Y116.747 E6.8506
G1 X163.597 Y116.516 E6.88239
G1 X164.207 Y116.344 E6.91418
G1 X164.831 Y116.234 E6.94597
G1 X165.462 Y116.187 E6.97776
G1 X166.096 Y116.202 E7.00955
G1 X166.724 Y116.281 E7.04134
G1 X167.342 Y116.422 E7.07313
G1 X167.942 Y116.624 E7.10492
G1 X168.519 Y116.884 E7.13671
G1 X169.068 Y117.201 E7.16851
G1 X169.582 Y117.571 E7.2003
G1 X170.057 Y117.99 E7.23209
G1 X170.488 Y118.454 E7.26387
G1 X170.871 Y118.959 E7.29567
G1 X171.201 Y119.5 E7.32746
G1 X171.476 Y120.071 E7.35925
G1 X171.692 Y120.666 E7.39104
G1 X171.849 Y121.28 E7.42283
G1 X171.943 Y121.906 E7.45461
G1 X171.974 Y122.531 E7.486
G1 X171.967 Y122.858 E7.50243
G1 X171.904 Y123.486 E7.53409
G1 X171.778 Y124.107 E7.56588
G1 X171.592 Y124.712 E7.59768
G1 X171.346 Y125.296 E7.62947
G1 X171.043 Y125.852 E7.66126
G1 X170.686 Y126.375 E7.69305
G1 X170.279 Y126.861 E7.72484
G1 X169.825 Y127.303 E7.75663
G1 X169.33 Y127.698 E7.78842
G1 X168.798 Y128.042 E7.82021
G1 X168.234 Y128.33 E7.852
G1 X167.644 Y128.562 E7.88379
G1 X167.035 Y128.733 E7.91558
G1 X166.411 Y128.843 E7.94737
G1 X165.779 Y128.891 E7.97916
