; generated by PrusaSlicer 2.4.2 on 2022-07-19 at 23:33:40 UTC

; 

; external perimeters extrusion width = 0.45mm
; perimeters extrusion width = 0.45mm
; infill extrusion width = 0.45mm
; solid infill extrusion width = 0.45mm
; top infill extrusion width = 0.40mm
; first layer extrusion width = 0.42mm

M107
M190 S60 ; set bed temperature and wait for it to be reached
M104 S215 ; set temperature
;TYPE:Custom
G28 ; home all axes
G1 Z5 F5000 ; lift nozzle
M109 S215 ; set temperature and wait for it to be reached
G21 ; set units to millimeters
G90 ; use absolute coordinates
M82 ; use absolute distances for extrusion
G92 E0
; Filament gcode
M107
;LAYER_CHANGE
;Z:0.35
;HEIGHT:0.35
G1 Z.35 F7800
G1 E-2 F2400
G92 E0
G1 X139.883 Y138.918 F7800
G1 E2 F2400
;TYPE:Skirt/Brim
;WIDTH:0.42
G1 F1800
G1 X141.727 Y137.211 E2.1261
G1 X143.654 Y135.598 E2.2522
G1 X145.658 Y134.084 E2.37831
G1 X147.736 Y132.671 E2.50441
G1 X149.882 Y131.363 E2.63051
G1 X152.09 Y130.164 E2.75662
G1 X154.356 Y129.077 E2.88272
G1 X156.672 Y128.105 E3.00882
G1 X159.035 Y127.249 E3.13492
G1 X161.437 Y126.512 E3.26103
G1 X163.873 Y125.895 E3.38713
G1 X166.337 Y125.401 E3.51323
G1 X168.822 Y125.031 E3.63934
G1 X171.322 Y124.785 E3.76544
G1 X173.832 Y124.664 E3.89154
G1 X176.345 Y124.668 E4.01764
G1 X178.854 Y124.798 E4.14375
G1 X181.354 Y125.053 E4.26985
G1 X183.838 Y125.432 E4.39595
G1 X186.3 Y125.935 E4.52205
G1 X188.734 Y126.56 E4.64816
G1 X191.133 Y127.305 E4.77426
G1 X193.493 Y128.169 E4.90036
G1 X195.806 Y129.15 E5.02647
G1 X198.068 Y130.245 E5.15257
G1 X200.272 Y131.452 E5.27867
G1 X202.413 Y132.767 E5.40477
G1 X204.486 Y134.187 E5.53088
G1 X206.485 Y135.709 E5.65698
G1 X208.406 Y137.329 E5.78308
G1 X210.244 Y139.042 E5.90918
G1 X211.994 Y140.845 E6.03529
G1 X213.652 Y142.734 E6.16139
G1 X215.213 Y144.702 E6.28749
G1 X216.675 Y146.746 E6.41359
G1 X218.033 Y148.86 E6.5397
G1 X219.283 Y151.04 E6.6658
G1 X220.423 Y153.279 E6.7919
G1 X221.45 Y155.572 E6.91801
G1 X222.362 Y157.914 E7.04411
G1 X223.155 Y160.298 E7.17021
G1 X223.829 Y162.719 E7.29631
G1 X224.381 Y165.17 E7.42242
G1 X224.81 Y167.646 E7.54852
G1 X225.115 Y170.14 E7.67462
G1 X225.295 Y172.646 E7.80072
G1 X225.349 Y174.842 E7.91094
G1 X225.295 Y177.354 E8.03704
G1 X225.115 Y179.86 E8.16315
G1 X224.81 Y182.354 E8.28925
G1 X224.381 Y184.83 E8.41535
G1 X223.829 Y187.281 E8.54145
G1 X223.155 Y189.702 E8.66755
G1 X222.362 Y192.086 E8.79366
G1 X221.45 Y194.428 E8.91976
G1 X220.423 Y196.721 E9.04586
G1 X219.283 Y198.96 E9.17197
G1 X218.033 Y201.14 E9.29807
G1 X216.675 Y203.254 E9.42417
G1 X215.213 Y205.298 E9.55027
G1 X213.652 Y207.266 E9.67638
G1 X211.994 Y209.155 E9.80248
G1 X210.244 Y210.958 E9.92858
G1 X208.406 Y212.671 E10.05469
G1 X206.485 Y214.291 E10.18079
G1 X204.486 Y215.813 E10.30689
G1 X202.413 Y217.233 E10.43299
G1 X200.407 Y218.466 E10.55117
G1 X197.786 Y219.899 E10.70108
G1 X195.517 Y220.98 E10.82718
G1 X193.198 Y221.946 E10.95328
G1 X190.833 Y222.795 E11.07938
G1 X188.429 Y223.526 E11.20549
G1 X185.991 Y224.135 E11.33159
G1 X183.526 Y224.622 E11.45769
G1 X181.04 Y224.986 E11.58379
G1 X178.539 Y225.225 E11.7099
G1 X176.029 Y225.339 E11.836
G1 X173.516 Y225.328 E11.9621
G1 X171.007 Y225.191 E12.08821
G1 X168.508 Y224.929 E12.21431
G1 X166.025 Y224.543 E12.34041
G1 X163.564 Y224.034 E12.46651
G1 X161.132 Y223.402 E12.59262
G1 X158.735 Y222.65 E12.71872
G1 X156.378 Y221.779 E12.84482
G1 X154.067 Y220.792 E12.97092
G1 X152.09 Y219.836 E13.08114
G1 X149.882 Y218.637 E13.20724
G1 X147.736 Y217.329 E13.33335
G1 X145.658 Y215.916 E13.45945
G1 X143.654 Y214.402 E13.58555
G1 X141.727 Y212.789 E13.71165
G1 X139.883 Y211.082 E13.83776
G1 X138.127 Y209.285 E13.96386
G1 X136.462 Y207.402 E14.08996
G1 X134.894 Y205.439 E14.21606
G1 X133.425 Y203.401 E14.34217
G1 X132.06 Y201.291 E14.46827
G1 X130.802 Y199.116 E14.59437
G1 X129.653 Y196.881 E14.72047
G1 X128.618 Y194.591 E14.84658
G1 X127.699 Y192.253 E14.97268
G1 X126.897 Y189.872 E15.09878
G1 X126.215 Y187.453 E15.22489
G1 X125.654 Y185.004 E15.35099
G1 X125.217 Y182.53 E15.47709
G1 X124.903 Y180.037 E15.60319
G1 X124.714 Y177.531 E15.7293
G1 X124.698 Y172.926 E15.9604
G1 X124.903 Y169.963 E16.10944
G1 X125.217 Y167.47 E16.23555
G1 X125.654 Y164.996 E16.36165
G1 X126.215 Y162.547 E16.48775
G1 X126.897 Y160.128 E16.61385
G1 X127.699 Y157.747 E16.73996
G1 X128.618 Y155.409 E16.86606
G1 X129.653 Y153.119 E16.99216
G1 X130.802 Y150.884 E17.11827
G1 X132.06 Y148.709 E17.24437
G1 X133.425 Y146.599 E17.37047
G1 X134.894 Y144.561 E17.49657
G1 X136.462 Y142.598 E17.62268
G1 X138.127 Y140.715 E17.74878
G1 X139.841 Y138.961 E17.87187
G1 E15.87187 F2400
G92 E0
G1 X147.404 Y170.273 F7800
G1 E2 F2400
;TYPE:Perimeter
G1 F1800
G1 X167.806 Y170.273 E3.02386
G1 X168.244 Y169.659 E3.06171
G1 X168.803 Y169.022 E3.10424
G1 X169.125 Y168.706 E3.1269
G1 X169.763 Y168.167 E3.16884
G1 X170.48 Y167.674 E3.2125
G1 X171.224 Y167.266 E3.25508
G1 X171.646 Y167.075 E3.27832
G1 X172.42 Y166.791 E3.31969
G1 X172.855 Y166.668 E3.34236
G1 X173.674 Y166.5 E3.38431
G1 X174.122 Y166.443 E3.40698
G1 X174.945 Y166.4 E3.44835
G1 X175.408 Y166.41 E3.4716
G1 X176.252 Y166.493 E3.51414
G1 X177.071 Y166.657 E3.55607
G1 X177.517 Y166.781 E3.57932
G1 X178.315 Y167.069 E3.62187
G1 X179.078 Y167.436 E3.66439
G1 X179.47 Y167.661 E3.68707
G1 X180.171 Y168.138 E3.7296
G1 X180.821 Y168.682 E3.77215
G1 X181.152 Y169.006 E3.7954
G1 X181.706 Y169.632 E3.83733
G1 X182.201 Y170.319 E3.87984
G1 X182.437 Y170.704 E3.90252
G1 X182.824 Y171.458 E3.94504
G1 X183.138 Y172.257 E3.98813
G1 X183.371 Y173.084 E4.03122
G1 X183.52 Y173.929 E4.07431
G1 X183.583 Y174.774 E4.11683
G1 X183.583 Y175.226 E4.1395
G1 X183.52 Y176.071 E4.18203
G1 X183.372 Y176.906 E4.22458
G1 X183.257 Y177.355 E4.24783
G1 X182.991 Y178.146 E4.28976
G1 X182.637 Y178.929 E4.33284
G1 X182.207 Y179.672 E4.37593
G1 X181.706 Y180.369 E4.41901
G1 X181.144 Y181.003 E4.46154
G1 X180.498 Y181.602 E4.50575
G1 X179.822 Y182.113 E4.54827
G1 X179.089 Y182.559 E4.59136
G1 X178.315 Y182.931 E4.63444
G1 X177.529 Y183.215 E4.67637
G1 X177.083 Y183.341 E4.69961
G1 X176.252 Y183.507 E4.74217
G1 X175.397 Y183.591 E4.78526
G1 X174.539 Y183.589 E4.82834
G1 X173.685 Y183.502 E4.87143
G1 X172.854 Y183.332 E4.91399
G1 X172.409 Y183.205 E4.93723
G1 X171.624 Y182.917 E4.97916
G1 X170.852 Y182.542 E5.02224
G1 X170.121 Y182.093 E5.06533
G1 X169.438 Y181.572 E5.10842
G1 X168.81 Y180.986 E5.15151
G1 X168.251 Y180.349 E5.19406
G1 X167.973 Y179.978 E5.21731
G1 X167.812 Y179.727 E5.23229
G1 X147.404 Y179.727 E6.25646
G1 X147.404 Y170.333 E6.72789
G1 X147.749 Y170.618 F7800
G1 F1800
G1 X167.992 Y170.618 E7.74378
G1 X168.515 Y169.874 E7.78943
G1 X169.053 Y169.259 E7.83044
G1 X169.357 Y168.961 E7.85182
G1 X169.973 Y168.441 E7.89225
G1 X170.661 Y167.968 E7.93417
G1 X171.378 Y167.575 E7.97522
G1 X171.777 Y167.394 E7.99716
G1 X172.527 Y167.12 E8.03724
G1 X172.936 Y167.003 E8.05862
G1 X173.73 Y166.841 E8.09928
G1 X174.153 Y166.787 E8.12065
G1 X174.95 Y166.745 E8.16073
G1 X175.387 Y166.755 E8.18268
G1 X176.201 Y166.834 E8.2237
G1 X176.991 Y166.992 E8.26413
G1 X177.412 Y167.109 E8.28608
G1 X178.181 Y167.388 E8.32711
G1 X178.918 Y167.741 E8.36812
G1 X179.287 Y167.954 E8.3895
G1 X179.963 Y168.413 E8.43051
G1 X180.59 Y168.938 E8.47154
G1 X180.902 Y169.243 E8.49348
G1 X181.436 Y169.847 E8.53391
G1 X181.913 Y170.51 E8.57492
G1 X182.136 Y170.873 E8.59629
G1 X182.509 Y171.6 E8.63731
G1 X182.81 Y172.367 E8.67866
G1 X183.034 Y173.161 E8.72002
G1 X183.177 Y173.972 E8.76138
G1 X183.238 Y174.787 E8.80239
G1 X183.238 Y175.213 E8.82377
G1 X183.177 Y176.028 E8.86478
G1 X183.035 Y176.833 E8.90581
G1 X182.926 Y177.257 E8.92775
G1 X182.669 Y178.02 E8.96818
G1 X182.33 Y178.771 E9.00953
G1 X181.917 Y179.484 E9.05089
G1 X181.436 Y180.153 E9.09225
G1 X180.895 Y180.765 E9.13326
G1 X180.594 Y181.057 E9.15429
G1 X180.28 Y181.334 E9.17532
G1 X179.628 Y181.827 E9.21633
G1 X178.924 Y182.256 E9.25769
G1 X178.181 Y182.612 E9.29904
G1 X177.424 Y182.887 E9.33947
G1 X177.003 Y183.005 E9.36142
G1 X176.201 Y183.166 E9.40245
G1 X175.381 Y183.246 E9.44381
G1 X174.557 Y183.244 E9.48516
G1 X173.737 Y183.161 E9.52652
G1 X172.936 Y182.997 E9.56755
G1 X172.516 Y182.877 E9.5895
G1 X171.759 Y182.599 E9.62992
G1 X171.018 Y182.239 E9.67128
G1 X170.316 Y181.808 E9.71263
G1 X169.66 Y181.308 E9.75399
G1 X169.058 Y180.746 E9.79535
G1 X168.519 Y180.131 E9.83638
G1 X168.257 Y179.781 E9.85833
G1 X168.001 Y179.382 E9.88214
G1 X147.749 Y179.382 E10.89847
G1 X147.749 Y170.678 E11.33528
G1 X148.094 Y170.963 F7800
;TYPE:External perimeter
G1 F1800
G1 X168.186 Y170.963 E12.34361
G1 X168.328 Y170.729 E12.35736
G1 X168.785 Y170.088 E12.39686
G1 X169.304 Y169.496 E12.43635
G1 X169.59 Y169.216 E12.45643
G1 X170.182 Y168.716 E12.49536
G1 X170.842 Y168.262 E12.53555
G1 X171.533 Y167.883 E12.57506
G1 X171.907 Y167.714 E12.59571
G1 X172.633 Y167.448 E12.6345
G1 X173.018 Y167.339 E12.65458
G1 X173.787 Y167.181 E12.69395
G1 X174.184 Y167.131 E12.71403
G1 X174.956 Y167.09 E12.75282
G1 X175.367 Y167.099 E12.77347
G1 X176.15 Y167.176 E12.81297
G1 X176.911 Y167.328 E12.8519
G1 X177.307 Y167.438 E12.87254
G1 X178.047 Y167.706 E12.91205
G1 X178.757 Y168.047 E12.95154
G1 X179.104 Y168.246 E12.97163
G1 X179.754 Y168.689 E13.01112
G1 X180.358 Y169.194 E13.05063
G1 X180.652 Y169.481 E13.07127
G1 X181.166 Y170.063 E13.1102
G1 X181.626 Y170.701 E13.14969
G1 X181.835 Y171.042 E13.16978
G1 X182.194 Y171.743 E13.20927
G1 X182.483 Y172.477 E13.2489
G1 X182.697 Y173.238 E13.28853
G1 X182.835 Y174.015 E13.32816
G1 X182.893 Y174.8 E13.36765
G1 X182.893 Y175.2 E13.38774
G1 X182.835 Y175.985 E13.42723
G1 X182.698 Y176.76 E13.46674
G1 X182.595 Y177.159 E13.48738
G1 X182.348 Y177.894 E13.52631
G1 X182.023 Y178.613 E13.56593
G1 X181.627 Y179.297 E13.60556
G1 X181.166 Y179.937 E13.64519
G1 X180.645 Y180.527 E13.68469
G1 X180.061 Y181.067 E13.72458
G1 X179.434 Y181.541 E13.76407
G1 X178.759 Y181.952 E13.8037
G1 X178.047 Y182.294 E13.84333
G1 X177.318 Y182.558 E13.88225
G1 X176.922 Y182.67 E13.9029
G1 X176.15 Y182.824 E13.9424
G1 X175.364 Y182.901 E13.98203
G1 X174.575 Y182.9 E14.02166
G1 X173.789 Y182.819 E14.06129
G1 X173.018 Y182.661 E14.10079
G1 X172.622 Y182.549 E14.12144
G1 X171.894 Y182.281 E14.16036
G1 X171.184 Y181.937 E14.19999
G1 X170.511 Y181.523 E14.23962
G1 X169.883 Y181.044 E14.27925
G1 X169.306 Y180.506 E14.31887
G1 X168.787 Y179.914 E14.35838
G1 X168.54 Y179.585 E14.37902
G1 X168.189 Y179.037 E14.41166
G1 X148.094 Y179.037 E15.42015
G1 X148.094 Y171.023 E15.82235
G1 X147.94 Y170.594 F7800
G1 E13.82235 F2400
G92 E0
G1 X184.452 Y150.937 F7800
G1 E2 F2400
;TYPE:Perimeter
G1 F1800
G1 X184.129 Y150.275 E2.03697
G1 X183.889 Y149.615 E2.07221
G1 X183.716 Y148.935 E2.10746
G1 X183.611 Y148.24 E2.1427
G1 X183.577 Y147.556 E2.17709
G1 X183.586 Y147.177 E2.19612
G1 X183.655 Y146.489 E2.23082
G1 X183.794 Y145.8 E2.26606
G1 X184.001 Y145.129 E2.30131
G1 X184.274 Y144.482 E2.33655
G1 X184.61 Y143.865 E2.3718
G1 X185.005 Y143.285 E2.40704
G1 X185.457 Y142.747 E2.44229
G1 X185.959 Y142.257 E2.47754
G1 X186.508 Y141.819 E2.51278
G1 X187.098 Y141.438 E2.54803
G1 X187.723 Y141.117 E2.58327
G1 X188.377 Y140.861 E2.61852
G1 X189.053 Y140.671 E2.65376
G1 X189.745 Y140.549 E2.68901
G1 X190.445 Y140.496 E2.72425
G1 X191.147 Y140.514 E2.7595
G1 X191.844 Y140.601 E2.79475
G1 X192.529 Y140.757 E2.82999
G1 X193.194 Y140.981 E2.86524
G1 X193.835 Y141.27 E2.90048
G1 X194.443 Y141.621 E2.93573
G1 X195.013 Y142.031 E2.97097
G1 X195.54 Y142.496 E3.00622
G1 X196.017 Y143.01 E3.04146
G1 X196.441 Y143.57 E3.07671
G1 X196.808 Y144.17 E3.11195
G1 X197.112 Y144.802 E3.1472
G1 X197.352 Y145.462 E3.18245
G1 X197.526 Y146.143 E3.21769
G1 X197.63 Y146.837 E3.25293
G1 X197.665 Y147.522 E3.28733
G1 X197.656 Y147.901 E3.30635
G1 X197.587 Y148.589 E3.34105
G1 X197.448 Y149.277 E3.3763
G1 X197.241 Y149.948 E3.41154
G1 X196.968 Y150.595 E3.44679
G1 X196.632 Y151.212 E3.48203
G1 X196.236 Y151.792 E3.51728
G1 X195.785 Y152.33 E3.55253
G1 X195.282 Y152.821 E3.58777
G1 X194.733 Y153.259 E3.62302
G1 X194.143 Y153.64 E3.65826
G1 X193.518 Y153.96 E3.69351
G1 X192.864 Y154.217 E3.72875
G1 X192.188 Y154.407 E3.764
G1 X191.497 Y154.529 E3.79925
G1 X190.796 Y154.581 E3.83449
G1 X190.094 Y154.564 E3.86973
G1 X189.397 Y154.476 E3.90498
G1 X188.713 Y154.32 E3.94022
G1 X188.047 Y154.096 E3.97547
G1 X187.407 Y153.808 E4.01071
G1 X186.799 Y153.456 E4.04596
G1 X186.228 Y153.046 E4.08121
G1 X185.702 Y152.582 E4.11645
G1 X185.224 Y152.067 E4.1517
G1 X184.8 Y151.507 E4.18694
G1 X184.483 Y150.988 E4.21745
G1 X184.746 Y150.757 F7800
G1 F1800
G1 X184.447 Y150.141 E4.25183
G1 X184.219 Y149.513 E4.28535
G1 X184.054 Y148.866 E4.31886
G1 X183.955 Y148.206 E4.35238
G1 X183.922 Y147.551 E4.38527
G1 X183.93 Y147.198 E4.403
G1 X183.996 Y146.54 E4.43618
G1 X184.128 Y145.886 E4.4697
G1 X184.325 Y145.247 E4.50321
G1 X184.585 Y144.632 E4.53673
G1 X184.904 Y144.045 E4.57025
G1 X185.28 Y143.494 E4.60377
G1 X185.71 Y142.982 E4.63729
G1 X186.188 Y142.516 E4.6708
G1 X186.71 Y142.099 E4.70432
G1 X187.271 Y141.737 E4.73784
G1 X187.865 Y141.432 E4.77136
G1 X188.487 Y141.188 E4.80487
G1 X189.13 Y141.007 E4.83839
G1 X189.788 Y140.891 E4.87191
G1 X190.454 Y140.841 E4.90543
G1 X191.121 Y140.858 E4.93895
G1 X191.784 Y140.941 E4.97246
G1 X192.435 Y141.09 E5.00598
G1 X193.068 Y141.302 E5.0395
G1 X193.677 Y141.577 E5.07302
G1 X194.255 Y141.911 E5.10654
G1 X194.798 Y142.301 E5.14005
G1 X195.298 Y142.743 E5.17357
G1 X195.753 Y143.232 E5.20709
G1 X196.156 Y143.765 E5.24061
G1 X196.504 Y144.335 E5.27412
G1 X196.794 Y144.936 E5.30764
G1 X197.022 Y145.564 E5.34116
G1 X197.187 Y146.211 E5.37468
G1 X197.287 Y146.872 E5.40819
G1 X197.32 Y147.526 E5.44108
G1 X197.311 Y147.879 E5.45881
G1 X197.245 Y148.537 E5.49199
G1 X197.113 Y149.192 E5.52551
G1 X196.916 Y149.83 E5.55903
G1 X196.657 Y150.445 E5.59255
G1 X196.337 Y151.032 E5.62606
G1 X195.961 Y151.584 E5.65958
G1 X195.532 Y152.095 E5.6931
G1 X195.054 Y152.562 E5.72662
G1 X194.531 Y152.978 E5.76014
G1 X193.97 Y153.341 E5.79365
G1 X193.376 Y153.645 E5.82717
G1 X192.754 Y153.889 E5.86069
G1 X192.111 Y154.07 E5.89421
G1 X191.454 Y154.186 E5.92773
G1 X190.788 Y154.236 E5.96124
G1 X190.12 Y154.219 E5.99476
G1 X189.457 Y154.136 E6.02828
G1 X188.806 Y153.988 E6.06179
G1 X188.173 Y153.775 E6.09531
G1 X187.564 Y153.5 E6.12883
G1 X186.986 Y153.166 E6.16235
G1 X186.444 Y152.777 E6.19587
G1 X185.943 Y152.335 E6.22938
G1 X185.489 Y151.845 E6.2629
G1 X185.085 Y151.313 E6.29642
G1 X184.777 Y150.809 E6.32606
G1 X185.04 Y150.578 F7800
;TYPE:External perimeter
G1 F1800
G1 X184.766 Y150.007 E6.35785
G1 X184.549 Y149.412 E6.38964
G1 X184.393 Y148.798 E6.42143
G1 X184.298 Y148.171 E6.45322
G1 X184.267 Y147.547 E6.48461
G1 X184.275 Y147.219 E6.50104
G1 X184.338 Y146.592 E6.5327
G1 X184.463 Y145.971 E6.56449
G1 X184.65 Y145.366 E6.59628
G1 X184.896 Y144.782 E6.62807
G1 X185.199 Y144.225 E6.65986
G1 X185.556 Y143.702 E6.69165
G1 X185.963 Y143.217 E6.72344
G1 X186.416 Y142.775 E6.75523
G1 X186.912 Y142.38 E6.78702
G1 X187.444 Y142.036 E6.81881
G1 X188.007 Y141.747 E6.8506
G1 X188.597 Y141.516 E6.88239
G1 X189.207 Y141.344 E6.91418
G1 X189.831 Y141.234 E6.94597
G1 X190.462 Y141.187 E6.97776
G1 X191.096 Y141.202 E7.00955
G1 X191.724 Y141.281 E7.04134
G1 X192.342 Y141.422 E7.07313
G1 X192.942 Y141.624 E7.10492
G1 X193.519 Y141.884 E7.13671
G1 X194.068 Y142.201 E7.16851
G1 X194.582 Y142.571 E7.2003
G1 X195.057 Y142.99 E7.23209
G1 X195.488 Y143.454 E7.26387
G1 X195.871 Y143.959 E7.29567
G1 X196.201 Y144.5 E7.32746
G1 X196.476 Y145.071 E7.35925
G1 X196.692 Y145.666 E7.39104
G1 X196.849 Y146.28 E7.42283
G1 X196.943 Y146.906 E7.45461
G1 X196.974 Y147.531 E7.486
G1 X196.967 Y147.858 E7.50243
G1 X196.904 Y148.486 E7.53409
G1 X196.778 Y149.107 E7.56588
G1 X196.592 Y149.712 E7.59768
G1 X196.346 Y150.296 E7.62947
G1 X196.043 Y150.852 E7.66126
G1 X195.686 Y151.375 E7.69305
G1 X195.279 Y151.861 E7.72484
G1 X194.825 Y152.303 E7.75663
G1 X194.33 Y152.698 E7.78842
G1 X193.798 Y153.042 E7.82021
G1 X193.234 Y153.33 E7.852
G1 X192.644 Y153.562 E7.88379
G1 X192.035 Y153.733 E7.91558
G1 X191.411 Y153.843 E7.94737
G1 X190.779 Y153.891 E7.97916
