; generated by PrusaSlicer 2.4.2 on 2022-07-21 at 01:33:06 UTC

; 

; external perimeters extrusion width = 0.45mm
; perimeters extrusion width = 0.45mm
; infill extrusion width = 0.45mm
; solid infill extrusion width = 0.45mm
; top infill extrusion width = 0.40mm
; first layer extrusion width = 0.42mm

M107
M190 S60 ; set bed temperature and wait for it to be reached
M104 S215 ; set temperature
;TYPE:Custom
G28 ; home all axes
G1 Z5 F5000 ; lift nozzle
M109 S215 ; set temperature and wait for it to be reached
G21 ; set units to millimeters
G90 ; use absolute coordinates
M82 ; use absolute distances for extrusion
G92 E0
; Filament gcode
M107
;LAYER_CHANGE
;Z:0.35
;HEIGHT:0.35
G1 Z.35 F7800
G1 E-2 F2400
G92 E0
G1 Z3.35 F7800
G1 X156.847 Y155.439
G1 Z.35
G1 E2 F2400
;TYPE:Skirt/Brim
;WIDTH:0.42
G1 F1800
G1 X159.085 Y153.373 E2.15288
G1 X161.46 Y151.392 E2.3081
G1 X163.931 Y149.531 E2.46333
G1 X166.492 Y147.796 E2.61856
G1 X169.136 Y146.191 E2.77378
G1 X171.856 Y144.719 E2.92901
G1 X174.647 Y143.385 E3.08424
G1 X177.5 Y142.192 E3.23947
G1 X180.41 Y141.142 E3.39469
G1 X183.368 Y140.239 E3.54992
G1 X186.367 Y139.484 E3.70515
G1 X189.401 Y138.879 E3.86037
G1 X192.461 Y138.427 E4.0156
G1 X195.539 Y138.128 E4.17082
G1 X198.629 Y137.982 E4.32605
G1 X201.722 Y137.991 E4.48128
G1 X204.81 Y138.154 E4.6365
G1 X207.887 Y138.471 E4.79174
G1 X210.945 Y138.94 E4.94696
G1 X213.974 Y139.562 E5.10219
G1 X216.97 Y140.334 E5.25742
G1 X219.923 Y141.254 E5.41264
G1 X222.826 Y142.32 E5.56787
G1 X225.673 Y143.529 E5.7231
G1 X228.144 Y144.719 E5.86073
G1 X230.864 Y146.191 E6.01596
G1 X233.508 Y147.796 E6.17118
G1 X236.069 Y149.531 E6.32641
G1 X238.539 Y151.392 E6.48163
G1 X240.915 Y153.373 E6.63686
G1 X243.188 Y155.471 E6.79209
G1 X245.354 Y157.679 E6.94731
G1 X247.407 Y159.992 E7.10255
G1 X249.342 Y162.405 E7.25777
G1 X251.155 Y164.911 E7.413
G1 X252.84 Y167.504 E7.56822
G1 X254.394 Y170.179 E7.72345
G1 X255.813 Y172.927 E7.87868
G1 X257.093 Y175.743 E8.03391
G1 X258.232 Y178.619 E8.18914
G1 X259.225 Y181.548 E8.34436
G1 X260.071 Y184.523 E8.49958
G1 X260.768 Y187.537 E8.65481
G1 X261.313 Y190.581 E8.81004
G1 X261.707 Y193.649 E8.96526
G1 X261.947 Y196.733 E9.12049
G1 X262.032 Y199.825 E9.27572
G1 X261.964 Y202.917 E9.43095
G1 X261.742 Y206.002 E9.58617
G1 X261.366 Y209.072 E9.7414
G1 X260.837 Y212.12 E9.89663
G1 X260.158 Y215.137 E10.05185
G1 X259.328 Y218.117 E10.20708
G1 X258.351 Y221.052 E10.36231
G1 X257.23 Y223.934 E10.51753
G1 X255.965 Y226.757 E10.67277
G1 X254.562 Y229.513 E10.82799
G1 X253.023 Y232.196 E10.98321
G1 X251.352 Y234.799 E11.13844
G1 X249.554 Y237.316 E11.29367
G1 X247.632 Y239.739 E11.4489
G1 X245.592 Y242.064 E11.60412
G1 X243.153 Y244.561 E11.77929
G1 X240.915 Y246.627 E11.93217
G1 X238.54 Y248.608 E12.0874
G1 X236.069 Y250.469 E12.24262
G1 X233.508 Y252.204 E12.39785
G1 X230.864 Y253.809 E12.55308
G1 X228.144 Y255.281 E12.7083
G1 X225.353 Y256.615 E12.86353
G1 X222.5 Y257.808 E13.01876
G1 X219.59 Y258.858 E13.17398
G1 X216.632 Y259.761 E13.32921
G1 X213.633 Y260.516 E13.48444
G1 X210.599 Y261.121 E13.63966
G1 X207.539 Y261.573 E13.79489
G1 X204.461 Y261.872 E13.95012
G1 X201.371 Y262.018 E14.10535
G1 X198.278 Y262.009 E14.26057
G1 X195.189 Y261.846 E14.4158
G1 X192.113 Y261.529 E14.57103
G1 X189.055 Y261.06 E14.72625
G1 X186.026 Y260.438 E14.88148
G1 X183.03 Y259.666 E15.03671
G1 X180.077 Y258.746 E15.19194
G1 X177.174 Y257.68 E15.34716
G1 X174.327 Y256.471 E15.50239
G1 X171.856 Y255.281 E15.64002
G1 X169.136 Y253.809 E15.79525
G1 X166.492 Y252.204 E15.95047
G1 X163.931 Y250.469 E16.1057
G1 X161.461 Y248.608 E16.26093
G1 X159.085 Y246.627 E16.41615
G1 X156.812 Y244.529 E16.57138
G1 X154.646 Y242.321 E16.72661
G1 X152.593 Y240.008 E16.88184
G1 X150.658 Y237.595 E17.03706
G1 X148.845 Y235.089 E17.19229
G1 X147.16 Y232.496 E17.34752
G1 X145.606 Y229.821 E17.50274
G1 X144.187 Y227.073 E17.65797
G1 X142.907 Y224.257 E17.8132
G1 X141.768 Y221.381 E17.96843
G1 X140.775 Y218.452 E18.12365
G1 X139.929 Y215.477 E18.27888
G1 X139.232 Y212.463 E18.4341
G1 X138.686 Y209.419 E18.58934
G1 X138.293 Y206.351 E18.74456
G1 X138.053 Y203.267 E18.89979
G1 X137.968 Y200.175 E19.05501
G1 X138.036 Y197.083 E19.21024
G1 X138.258 Y193.998 E19.36546
G1 X138.634 Y190.928 E19.52069
G1 X139.163 Y187.88 E19.67592
G1 X139.842 Y184.863 E19.83114
G1 X140.672 Y181.883 E19.98637
G1 X141.649 Y178.948 E20.1416
G1 X142.77 Y176.066 E20.29683
G1 X144.035 Y173.243 E20.45206
G1 X145.438 Y170.487 E20.60728
G1 X146.977 Y167.804 E20.76251
G1 X148.648 Y165.201 E20.91773
G1 X150.446 Y162.684 E21.07296
G1 X152.368 Y160.261 E21.22819
G1 X154.408 Y157.936 E21.38341
G1 X156.805 Y155.482 E21.55557
G1 X157.051 Y155.722 F7800
G1 F1800
G1 X159.307 Y153.637 E21.70974
G1 X161.669 Y151.667 E21.86411
G1 X164.126 Y149.816 E22.01847
G1 X166.672 Y148.09 E22.17284
G1 X169.301 Y146.494 E22.3272
G1 X172.006 Y145.03 E22.48156
G1 X174.781 Y143.703 E22.63593
G1 X177.618 Y142.516 E22.79029
G1 X180.511 Y141.471 E22.94466
G1 X183.453 Y140.573 E23.09902
G1 X186.436 Y139.822 E23.25339
G1 X189.452 Y139.221 E23.40775
G1 X192.495 Y138.77 E23.56211
G1 X195.556 Y138.472 E23.71647
G1 X198.629 Y138.327 E23.87084
G1 X201.705 Y138.336 E24.02521
G1 X204.776 Y138.497 E24.17956
G1 X207.836 Y138.812 E24.33394
G1 X210.876 Y139.278 E24.4883
G1 X213.889 Y139.896 E24.64266
G1 X216.868 Y140.663 E24.79703
G1 X219.805 Y141.578 E24.95139
G1 X222.692 Y142.637 E25.10575
G1 X225.523 Y143.84 E25.26012
G1 X227.994 Y145.03 E25.39775
G1 X230.699 Y146.494 E25.55212
G1 X233.328 Y148.09 E25.70648
G1 X235.874 Y149.816 E25.86085
G1 X238.331 Y151.667 E26.0152
G1 X240.693 Y153.637 E26.16957
G1 X242.953 Y155.723 E26.32394
G1 X245.107 Y157.919 E26.4783
G1 X247.148 Y160.22 E26.63267
G1 X249.073 Y162.62 E26.78703
G1 X250.875 Y165.112 E26.9414
G1 X252.551 Y167.692 E27.09576
G1 X254.096 Y170.351 E27.25012
G1 X255.506 Y173.084 E27.40448
G1 X256.779 Y175.885 E27.55885
G1 X257.91 Y178.745 E27.71322
G1 X258.898 Y181.658 E27.86757
G1 X259.739 Y184.616 E28.02194
G1 X260.432 Y187.613 E28.1763
G1 X260.974 Y190.641 E28.33067
G1 X261.365 Y193.692 E28.48503
G1 X261.603 Y196.759 E28.6394
G1 X261.688 Y199.833 E28.79376
G1 X261.619 Y202.908 E28.94812
G1 X261.398 Y205.976 E29.10249
G1 X261.024 Y209.029 E29.25685
G1 X260.498 Y212.06 E29.41122
G1 X259.821 Y215.06 E29.56558
G1 X258.996 Y218.023 E29.71994
G1 X258.025 Y220.942 E29.87431
G1 X256.909 Y223.808 E30.02867
G1 X255.651 Y226.615 E30.18304
G1 X254.255 Y229.356 E30.3374
G1 X252.725 Y232.024 E30.49176
G1 X251.063 Y234.612 E30.64613
G1 X249.274 Y237.114 E30.80049
G1 X247.363 Y239.524 E30.95486
G1 X245.334 Y241.836 E31.10922
G1 X242.919 Y244.308 E31.28266
G1 X240.693 Y246.363 E31.43468
G1 X238.331 Y248.333 E31.58904
G1 X235.874 Y250.184 E31.74341
G1 X233.328 Y251.91 E31.89777
G1 X230.699 Y253.506 E32.05213
G1 X227.994 Y254.97 E32.2065
G1 X225.219 Y256.297 E32.36087
G1 X222.382 Y257.484 E32.51523
G1 X219.489 Y258.529 E32.66959
G1 X216.547 Y259.427 E32.82396
G1 X213.564 Y260.178 E32.97832
G1 X210.548 Y260.779 E33.13268
G1 X207.505 Y261.23 E33.28705
G1 X204.444 Y261.528 E33.44141
G1 X201.371 Y261.673 E33.59578
G1 X198.295 Y261.664 E33.75014
G1 X195.224 Y261.503 E33.90451
G1 X192.164 Y261.188 E34.05887
G1 X189.124 Y260.722 E34.21323
G1 X186.111 Y260.104 E34.3676
G1 X183.132 Y259.337 E34.52196
G1 X180.195 Y258.422 E34.67633
G1 X177.308 Y257.363 E34.83069
G1 X174.477 Y256.16 E34.98505
G1 X172.006 Y254.97 E35.12268
G1 X169.3 Y253.506 E35.27705
G1 X166.672 Y251.91 E35.43141
G1 X164.126 Y250.184 E35.58578
G1 X161.669 Y248.333 E35.74014
G1 X159.307 Y246.363 E35.8945
G1 X157.047 Y244.277 E36.04887
G1 X154.893 Y242.081 E36.20323
G1 X152.852 Y239.78 E36.3576
G1 X150.927 Y237.38 E36.51196
G1 X149.125 Y234.888 E36.66633
G1 X147.449 Y232.308 E36.82069
G1 X145.904 Y229.649 E36.97505
G1 X144.494 Y226.915 E37.12942
G1 X143.221 Y224.115 E37.28379
G1 X142.09 Y221.255 E37.43815
G1 X141.102 Y218.342 E37.59251
G1 X140.261 Y215.384 E37.74687
G1 X139.568 Y212.387 E37.90124
G1 X139.026 Y209.359 E38.05561
G1 X138.635 Y206.308 E38.20997
G1 X138.397 Y203.241 E38.36433
G1 X138.312 Y200.167 E38.51869
G1 X138.381 Y197.092 E38.67306
G1 X138.602 Y194.024 E38.82742
G1 X138.976 Y190.971 E38.98179
G1 X139.502 Y187.94 E39.13615
G1 X140.179 Y184.94 E39.29051
G1 X141.004 Y181.977 E39.44488
G1 X141.975 Y179.058 E39.59924
G1 X143.091 Y176.192 E39.75361
G1 X144.349 Y173.385 E39.90797
G1 X145.745 Y170.644 E40.06233
G1 X147.276 Y167.976 E40.2167
G1 X148.937 Y165.388 E40.37106
G1 X150.726 Y162.886 E40.52543
G1 X152.637 Y160.476 E40.67979
G1 X154.666 Y158.164 E40.83415
G1 X157.009 Y155.765 E41.00243
G1 X157.256 Y156.006 F7800
G1 F1800
G1 X159.529 Y153.902 E41.15789
G1 X161.877 Y151.942 E41.3114
G1 X164.32 Y150.101 E41.4649
G1 X166.852 Y148.385 E41.6184
G1 X169.466 Y146.796 E41.7719
G1 X172.155 Y145.341 E41.9254
G1 X174.915 Y144.021 E42.0789
G1 X177.736 Y142.84 E42.2324
G1 X180.613 Y141.801 E42.38591
G1 X183.538 Y140.907 E42.53941
G1 X186.504 Y140.16 E42.69291
G1 X189.504 Y139.562 E42.84641
G1 X192.529 Y139.113 E42.99991
G1 X195.574 Y138.817 E43.15341
G1 X198.629 Y138.672 E43.30691
G1 X201.687 Y138.68 E43.46041
G1 X204.742 Y138.84 E43.61391
G1 X207.785 Y139.153 E43.76742
G1 X210.808 Y139.616 E43.92092
G1 X213.804 Y140.23 E44.07442
G1 X216.766 Y140.993 E44.22792
G1 X219.687 Y141.902 E44.38142
G1 X222.264 Y142.84 E44.51905
G1 X225.085 Y144.021 E44.67255
G1 X227.845 Y145.341 E44.82605
G1 X230.535 Y146.796 E44.97956
G1 X233.148 Y148.385 E45.13306
G1 X235.68 Y150.101 E45.28656
G1 X238.123 Y151.942 E45.44006
G1 X240.471 Y153.902 E45.59356
G1 X242.719 Y155.976 E45.74707
G1 X244.86 Y158.16 E45.90056
G1 X246.89 Y160.448 E46.05407
G1 X248.803 Y162.835 E46.20756
G1 X250.595 Y165.314 E46.36107
G1 X252.261 Y167.879 E46.51457
G1 X253.797 Y170.524 E46.66807
G1 X255.199 Y173.242 E46.82157
G1 X256.465 Y176.027 E46.97508
G1 X257.589 Y178.871 E47.12858
G1 X258.571 Y181.768 E47.28207
G1 X259.407 Y184.71 E47.43558
G1 X260.095 Y187.69 E47.58908
G1 X260.634 Y190.701 E47.74258
G1 X261.022 Y193.735 E47.89608
G1 X261.259 Y196.784 E48.04958
G1 X261.343 Y199.842 E48.20308
G1 X261.275 Y202.9 E48.35658
G1 X261.054 Y205.95 E48.51008
G1 X260.681 Y208.986 E48.66359
G1 X260.158 Y212 E48.81709
G1 X259.485 Y214.984 E48.97059
G1 X258.664 Y217.93 E49.12409
G1 X257.698 Y220.832 E49.27759
G1 X256.587 Y223.682 E49.43109
G1 X255.337 Y226.473 E49.5846
G1 X253.948 Y229.199 E49.7381
G1 X252.426 Y231.851 E49.8916
G1 X250.773 Y234.425 E50.0451
G1 X248.994 Y236.913 E50.1986
G1 X247.093 Y239.309 E50.3521
G1 X245.075 Y241.608 E50.5056
G1 X242.684 Y244.056 E50.67732
G1 X240.471 Y246.098 E50.82847
G1 X238.123 Y248.058 E50.98197
G1 X235.68 Y249.899 E51.13547
G1 X233.148 Y251.615 E51.28898
G1 X230.534 Y253.204 E51.44248
G1 X227.845 Y254.66 E51.59598
G1 X225.085 Y255.979 E51.74948
G1 X222.264 Y257.16 E51.90298
G1 X219.387 Y258.199 E52.05648
G1 X216.462 Y259.093 E52.20998
G1 X213.496 Y259.84 E52.36349
G1 X210.496 Y260.438 E52.51699
G1 X207.471 Y260.887 E52.67049
G1 X204.426 Y261.183 E52.82399
G1 X201.371 Y261.328 E52.97749
G1 X198.313 Y261.32 E53.13099
G1 X195.258 Y261.16 E53.28449
G1 X192.215 Y260.847 E53.43799
G1 X189.192 Y260.384 E53.5915
G1 X186.196 Y259.77 E53.745
G1 X183.234 Y259.007 E53.8985
G1 X180.313 Y258.098 E54.052
G1 X177.442 Y257.045 E54.2055
G1 X174.626 Y255.849 E54.359
G1 X171.874 Y254.515 E54.5125
G1 X169.192 Y253.045 E54.666
G1 X166.586 Y251.444 E54.81951
G1 X164.063 Y249.714 E54.97301
G1 X161.63 Y247.861 E55.12651
G1 X159.292 Y245.889 E55.28001
G1 X157.055 Y243.803 E55.43351
G1 X154.925 Y241.608 E55.58701
G1 X152.907 Y239.309 E55.74051
G1 X151.006 Y236.913 E55.89402
G1 X149.405 Y234.686 E56.03165
G1 X147.739 Y232.121 E56.18515
G1 X146.203 Y229.476 E56.33865
G1 X144.801 Y226.758 E56.49215
G1 X143.535 Y223.973 E56.64565
G1 X142.411 Y221.129 E56.79916
G1 X141.429 Y218.232 E56.95265
G1 X140.593 Y215.29 E57.10615
G1 X139.905 Y212.31 E57.25965
G1 X139.366 Y209.299 E57.41316
G1 X138.978 Y206.265 E57.56666
G1 X138.741 Y203.216 E57.72016
G1 X138.657 Y200.158 E57.87366
G1 X138.725 Y197.1 E58.02716
G1 X138.946 Y194.05 E58.18066
G1 X139.319 Y191.014 E58.33417
G1 X139.842 Y188 E58.48766
G1 X140.515 Y185.016 E58.64116
G1 X141.336 Y182.07 E58.79467
G1 X142.302 Y179.168 E58.94817
G1 X143.413 Y176.318 E59.10167
G1 X144.663 Y173.527 E59.25518
G1 X146.052 Y170.801 E59.40867
G1 X147.574 Y168.149 E59.56218
G1 X149.227 Y165.575 E59.71567
G1 X151.006 Y163.087 E59.86918
G1 X152.907 Y160.691 E60.02268
G1 X154.925 Y158.392 E60.17618
G1 X157.214 Y156.049 E60.34057
G1 E58.34057 F2400
G92 E0
G1 Z3.35 F7800
G1 X152.052 Y198.702
G1 Z.35
G1 E2 F2400
;TYPE:Perimeter
G1 F1800
G1 X152.216 Y198.356 E2.01922
G1 X152.399 Y198.082 E2.03576
G1 X152.682 Y197.745 E2.05785
G1 X153.187 Y197.32 E2.09096
G1 X153.741 Y197.02 E2.12256
G1 X154.219 Y196.871 E2.14772
G1 X154.337 Y195.343 E2.22462
G1 X154.626 Y193.074 E2.3394
G1 X155.027 Y190.822 E2.45419
G1 X155.54 Y188.593 E2.56897
G1 X156.163 Y186.393 E2.68376
G1 X156.896 Y184.226 E2.79854
G1 X157.735 Y182.098 E2.91333
G1 X158.679 Y180.015 E3.02812
G1 X159.726 Y177.981 E3.1429
G1 X160.873 Y176.003 E3.25769
G1 X162.117 Y174.083 E3.37247
G1 X163.455 Y172.228 E3.48726
G1 X164.884 Y170.442 E3.60205
G1 X166.4 Y168.73 E3.71683
G1 X167.999 Y167.095 E3.83162
G1 X169.678 Y165.541 E3.9464
G1 X171.432 Y164.074 E4.06119
G1 X173.257 Y162.695 E4.17597
G1 X175.149 Y161.409 E4.29076
G1 X177.102 Y160.219 E4.40554
G1 X179.112 Y159.128 E4.52033
G1 X181.174 Y158.138 E4.63511
G1 X183.283 Y157.252 E4.7499
G1 X185.433 Y156.473 E4.86469
G1 X187.619 Y155.801 E4.97947
G1 X189.837 Y155.239 E5.09426
G1 X192.079 Y154.789 E5.20905
G1 X194.341 Y154.45 E5.32383
G1 X196.617 Y154.225 E5.43861
G1 X198.737 Y154.121 E5.54512
G1 X201.187 Y154.115 E5.6681
G1 X203.473 Y154.232 E5.78296
G1 X205.749 Y154.461 E5.89775
G1 X208.01 Y154.804 E6.01253
G1 X210.251 Y155.259 E6.12732
G1 X212.467 Y155.826 E6.2421
G1 X214.653 Y156.502 E6.35689
G1 X216.801 Y157.285 E6.47168
G1 X218.908 Y158.175 E6.58646
G1 X220.968 Y159.169 E6.70125
G1 X222.976 Y160.264 E6.81603
G1 X224.927 Y161.458 E6.93082
G1 X226.816 Y162.748 E7.0456
G1 X228.638 Y164.13 E7.16039
G1 X230.39 Y165.601 E7.27518
G1 X232.065 Y167.158 E7.38996
G1 X233.662 Y168.796 E7.50475
G1 X235.174 Y170.511 E7.61953
G1 X236.6 Y172.3 E7.73432
G1 X237.934 Y174.158 E7.8491
G1 X239.174 Y176.08 E7.96389
G1 X240.317 Y178.061 E8.07867
G1 X241.36 Y180.096 E8.19346
G1 X242.3 Y182.181 E8.30825
G1 X243.135 Y184.311 E8.42303
G1 X243.863 Y186.479 E8.53782
G1 X244.482 Y188.681 E8.6526
G1 X244.991 Y190.911 E8.76739
G1 X245.388 Y193.163 E8.88217
G1 X245.672 Y195.433 E8.99696
G1 X245.843 Y197.714 E9.11175
G1 X245.9 Y200 E9.22653
G1 X245.843 Y202.286 E9.34131
G1 X245.672 Y204.567 E9.4561
G1 X245.388 Y206.837 E9.57089
G1 X244.991 Y209.089 E9.68567
G1 X244.482 Y211.319 E9.80046
G1 X243.863 Y213.521 E9.91525
G1 X243.135 Y215.689 E10.03003
G1 X242.3 Y217.819 E10.14481
G1 X241.36 Y219.904 E10.2596
G1 X240.317 Y221.939 E10.37439
G1 X239.174 Y223.92 E10.48917
G1 X237.934 Y225.842 E10.60396
G1 X236.6 Y227.7 E10.71874
G1 X235.174 Y229.489 E10.83353
G1 X233.662 Y231.204 E10.94831
G1 X232.065 Y232.842 E11.0631
G1 X230.39 Y234.399 E11.17788
G1 X228.638 Y235.87 E11.29267
G1 X226.816 Y237.252 E11.40746
G1 X224.927 Y238.542 E11.52224
G1 X222.976 Y239.736 E11.63703
G1 X220.968 Y240.831 E11.75181
G1 X218.908 Y241.825 E11.8666
G1 X216.801 Y242.715 E11.98138
G1 X214.653 Y243.498 E12.09617
G1 X212.467 Y244.174 E12.21096
G1 X210.251 Y244.741 E12.32574
G1 X208.01 Y245.196 E12.44053
G1 X205.749 Y245.539 E12.55531
G1 X203.473 Y245.768 E12.6701
G1 X201.189 Y245.885 E12.78489
G1 X198.902 Y245.887 E12.89967
G1 X196.617 Y245.775 E13.01445
G1 X194.341 Y245.55 E13.12924
G1 X192.079 Y245.211 E13.24402
G1 X189.837 Y244.761 E13.35881
G1 X187.619 Y244.199 E13.4736
G1 X185.433 Y243.527 E13.58838
G1 X183.283 Y242.748 E13.70317
G1 X181.174 Y241.862 E13.81796
G1 X179.112 Y240.872 E13.93274
G1 X177.102 Y239.781 E14.04753
G1 X175.149 Y238.591 E14.16231
G1 X173.257 Y237.305 E14.2771
G1 X171.432 Y235.926 E14.39188
G1 X169.678 Y234.459 E14.50667
G1 X167.999 Y232.905 E14.62145
G1 X166.4 Y231.27 E14.73624
