; generated by PrusaSlicer 2.4.2 on 2022-07-19 at 03:54:23 UTC

; 

; external perimeters extrusion width = 0.45mm
; perimeters extrusion width = 0.45mm
; infill extrusion width = 0.45mm
; solid infill extrusion width = 0.45mm
; top infill extrusion width = 0.40mm
; first layer extrusion width = 0.42mm

M107
M190 S60 ; set bed temperature and wait for it to be reached
M104 S215 ; set temperature
;TYPE:Custom
G28 ; home all axes
G1 Z5 F5000 ; lift nozzle
M109 S215 ; set temperature and wait for it to be reached
G21 ; set units to millimeters
G90 ; use absolute coordinates
M82 ; use absolute distances for extrusion
G92 E0
; Filament gcode
M107
;LAYER_CHANGE
;Z:0.35
;HEIGHT:0.35
G1 Z.35 F7800
G1 E-2 F2400
G92 E0
G1 X165.743 Y164.478 F7800
G1 E2 F2400
;TYPE:Skirt/Brim
;WIDTH:0.42
G1 F1800
G1 X167.555 Y162.816 E2.12336
G1 X169.199 Y161.443 E2.23086
G1 X171.157 Y159.957 E2.35422
G1 X173.187 Y158.57 E2.47758
G1 X175.283 Y157.287 E2.60094
G1 X177.44 Y156.109 E2.7243
G1 X179.654 Y155.04 E2.84766
G1 X181.918 Y154.083 E2.97101
G1 X184.227 Y153.239 E3.09437
G1 X186.575 Y152.512 E3.21773
G1 X188.956 Y151.902 E3.34109
G1 X191.364 Y151.412 E3.46445
G1 X193.794 Y151.042 E3.58781
G1 X196.24 Y150.794 E3.71117
G1 X198.695 Y150.668 E3.83452
G1 X201.153 Y150.664 E3.95788
G1 X203.608 Y150.783 E4.08124
G1 X206.054 Y151.023 E4.2046
G1 X208.485 Y151.386 E4.32796
G1 X210.895 Y151.868 E4.45132
G1 X213.279 Y152.471 E4.57467
G1 X215.629 Y153.191 E4.69804
G1 X217.94 Y154.027 E4.82139
G1 X220.207 Y154.977 E4.94475
G1 X222.424 Y156.039 E5.06811
G1 X224.585 Y157.211 E5.19147
G1 X226.685 Y158.488 E5.31483
G1 X228.719 Y159.868 E5.43818
G1 X230.682 Y161.348 E5.56154
G1 X232.568 Y162.924 E5.6849
G1 X234.374 Y164.591 E5.80826
G1 X235.99 Y166.239 E5.9241
G1 X237.928 Y168.428 E6.07082
G1 X239.453 Y170.356 E6.19418
G1 X240.881 Y172.357 E6.31754
G1 X242.206 Y174.427 E6.4409
G1 X243.427 Y176.56 E6.56426
G1 X244.541 Y178.752 E6.68762
G1 X245.543 Y180.996 E6.81097
G1 X246.433 Y183.287 E6.93433
G1 X247.208 Y185.62 E7.05769
G1 X247.865 Y187.988 E7.18105
G1 X248.404 Y190.387 E7.30441
G1 X248.823 Y192.809 E7.42777
G1 X249.12 Y195.249 E7.55113
G1 X249.296 Y197.701 E7.67448
G1 X249.349 Y200.158 E7.79784
G1 X249.28 Y202.615 E7.9212
G1 X249.089 Y205.066 E8.04456
G1 X248.776 Y207.504 E8.16792
G1 X248.341 Y209.923 E8.29128
G1 X247.787 Y212.318 E8.41464
G1 X247.115 Y214.682 E8.53799
G1 X246.325 Y217.01 E8.66135
G1 X245.421 Y219.295 E8.78471
G1 X244.404 Y221.533 E8.90807
G1 X243.276 Y223.717 E9.03143
G1 X242.042 Y225.843 E9.15479
G1 X240.703 Y227.904 E9.27815
G1 X239.263 Y229.896 E9.40151
G1 X237.725 Y231.814 E9.52486
G1 X236.095 Y233.653 E9.64822
G1 X234.374 Y235.409 E9.77158
G1 X232.568 Y237.076 E9.89494
G1 X230.682 Y238.652 E10.0183
G1 X228.719 Y240.132 E10.14166
G1 X226.685 Y241.512 E10.26502
G1 X224.585 Y242.789 E10.38837
G1 X222.424 Y243.961 E10.51173
G1 X220.207 Y245.023 E10.63509
G1 X217.94 Y245.973 E10.75845
G1 X215.629 Y246.809 E10.88181
G1 X213.279 Y247.529 E11.00517
G1 X210.895 Y248.132 E11.12853
G1 X208.485 Y248.614 E11.25188
G1 X206.054 Y248.977 E11.37524
G1 X203.608 Y249.217 E11.4986
G1 X201.153 Y249.336 E11.62196
G1 X198.695 Y249.332 E11.74532
G1 X196.24 Y249.206 E11.86868
G1 X193.794 Y248.958 E11.99204
G1 X191.364 Y248.588 E12.1154
G1 X188.956 Y248.098 E12.23875
G1 X186.575 Y247.488 E12.36211
G1 X184.227 Y246.761 E12.48547
G1 X181.918 Y245.917 E12.60883
G1 X179.654 Y244.96 E12.73219
G1 X177.44 Y243.891 E12.85555
G1 X175.283 Y242.713 E12.9789
G1 X173.187 Y241.43 E13.10226
G1 X171.157 Y240.043 E13.22562
G1 X169.199 Y238.557 E13.34898
G1 X167.317 Y236.976 E13.47234
G1 X165.517 Y235.302 E13.5957
G1 X163.802 Y233.542 E13.71906
G1 X162.176 Y231.698 E13.84241
G1 X160.645 Y229.775 E13.96577
G1 X159.211 Y227.778 E14.08913
G1 X157.879 Y225.713 E14.21249
G1 X156.651 Y223.584 E14.33585
G1 X155.53 Y221.396 E14.45921
G1 X154.52 Y219.155 E14.58257
G1 X153.622 Y216.867 E14.70592
G1 X152.84 Y214.536 E14.82928
G1 X152.175 Y212.17 E14.95264
G1 X151.628 Y209.774 E15.076
G1 X151.202 Y207.353 E15.19936
G1 X150.896 Y204.914 E15.32272
G1 X150.729 Y202.778 E15.43022
G1 X150.71 Y197.716 E15.68426
G1 X150.928 Y194.772 E15.83244
G1 X151.25 Y192.335 E15.9558
G1 X151.692 Y189.917 E16.07916
G1 X152.254 Y187.524 E16.20252
G1 X152.934 Y185.162 E16.32588
G1 X153.731 Y182.837 E16.44924
G1 X154.643 Y180.554 E16.5726
G1 X155.668 Y178.32 E16.69595
G1 X156.802 Y176.139 E16.81931
G1 X158.044 Y174.018 E16.94267
G1 X159.39 Y171.961 E17.06603
G1 X160.836 Y169.974 E17.18939
G1 X162.38 Y168.061 E17.31275
G1 X164.017 Y166.227 E17.43611
G1 X165.701 Y164.52 E17.55645
G1 E15.55645 F2400
G92 E0
G1 X172.404 Y195.273 F7800
G1 E2 F2400
;TYPE:Perimeter
G1 F1800
G1 X192.813 Y195.273 E3.02422
G1 X192.993 Y194.993 E3.04094
G1 X193.512 Y194.338 E3.08287
G1 X193.819 Y194.006 E3.10556
G1 X194.447 Y193.42 E3.14866
G1 X195.112 Y192.914 E3.19059
G1 X195.491 Y192.668 E3.21328
G1 X196.244 Y192.256 E3.25638
G1 X197.014 Y191.93 E3.29831
G1 X197.431 Y191.788 E3.32042
G1 X197.855 Y191.668 E3.34253
G1 X198.685 Y191.498 E3.38508
G1 X199.551 Y191.41 E3.42874
G1 X200.398 Y191.409 E3.47124
G1 X201.252 Y191.493 E3.51431
G1 X202.071 Y191.657 E3.55623
G1 X202.517 Y191.781 E3.57948
G1 X203.305 Y192.066 E3.62151
G1 X203.727 Y192.256 E3.64476
G1 X204.461 Y192.655 E3.68668
G1 X205.171 Y193.138 E3.72976
G1 X205.821 Y193.682 E3.77232
G1 X206.153 Y194.006 E3.79557
G1 X206.706 Y194.632 E3.83749
G1 X207.207 Y195.328 E3.88057
G1 X207.637 Y196.071 E3.92366
G1 X207.986 Y196.844 E3.96618
G1 X208.141 Y197.268 E3.98886
G1 X208.371 Y198.084 E4.03138
G1 X208.52 Y198.929 E4.07447
G1 X208.583 Y199.774 E4.11699
G1 X208.583 Y200.226 E4.13967
G1 X208.521 Y201.06 E4.18163
G1 X208.453 Y201.506 E4.2043
G1 X208.264 Y202.332 E4.24683
G1 X207.991 Y203.146 E4.28992
G1 X207.641 Y203.919 E4.33247
G1 X207.419 Y204.325 E4.35572
G1 X206.965 Y205.027 E4.39765
G1 X206.429 Y205.697 E4.44073
G1 X205.829 Y206.311 E4.48381
G1 X205.171 Y206.862 E4.5269
G1 X204.47 Y207.339 E4.56943
G1 X204.078 Y207.564 E4.5921
G1 X203.315 Y207.931 E4.63463
G1 X202.517 Y208.219 E4.67718
G1 X202.071 Y208.343 E4.70043
G1 X201.252 Y208.507 E4.74236
G1 X200.397 Y208.591 E4.78544
G1 X199.539 Y208.589 E4.82852
G1 X198.685 Y208.502 E4.87161
G1 X197.854 Y208.332 E4.91417
G1 X197.409 Y208.205 E4.93742
G1 X196.624 Y207.917 E4.97934
G1 X195.852 Y207.542 E5.02242
G1 X195.121 Y207.093 E5.06551
G1 X194.446 Y206.579 E5.10806
G1 X194.1 Y206.271 E5.13132
G1 X193.519 Y205.67 E5.17324
G1 X192.986 Y204.998 E5.21632
G1 X192.812 Y204.727 E5.23246
G1 X172.404 Y204.727 E6.25665
G1 X172.404 Y195.333 E6.72808
G1 X172.749 Y195.618 F7800
G1 F1800
G1 X193.001 Y195.618 E7.74444
G1 X193.274 Y195.194 E7.76975
G1 X193.774 Y194.562 E7.81018
G1 X194.063 Y194.249 E7.83157
G1 X194.67 Y193.684 E7.87315
G1 X195.311 Y193.196 E7.91358
G1 X195.668 Y192.964 E7.93497
G1 X196.395 Y192.567 E7.97655
G1 X197.136 Y192.252 E8.01698
G1 X197.533 Y192.118 E8.038
G1 X197.936 Y192.003 E8.05903
G1 X198.737 Y191.839 E8.10006
G1 X199.568 Y191.755 E8.14199
G1 X200.381 Y191.754 E8.18276
G1 X201.201 Y191.834 E8.22411
G1 X201.991 Y191.992 E8.26453
G1 X202.412 Y192.109 E8.28648
G1 X203.175 Y192.386 E8.32719
G1 X203.573 Y192.565 E8.34914
G1 X204.281 Y192.95 E8.38956
G1 X204.963 Y193.413 E8.43091
G1 X205.59 Y193.938 E8.47194
G1 X205.903 Y194.243 E8.49389
G1 X206.436 Y194.847 E8.53432
G1 X206.917 Y195.516 E8.57567
G1 X207.33 Y196.229 E8.61703
G1 X207.666 Y196.974 E8.65804
G1 X207.812 Y197.374 E8.67942
G1 X208.034 Y198.161 E8.72043
G1 X208.177 Y198.972 E8.76178
G1 X208.238 Y199.787 E8.80279
G1 X208.238 Y200.213 E8.82417
G1 X208.178 Y201.021 E8.86483
G1 X208.114 Y201.442 E8.88621
G1 X207.932 Y202.239 E8.92723
G1 X207.669 Y203.02 E8.96858
G1 X207.333 Y203.765 E9.00961
G1 X207.123 Y204.149 E9.03156
G1 X206.685 Y204.825 E9.07199
G1 X206.171 Y205.468 E9.11334
G1 X205.595 Y206.058 E9.1547
G1 X204.963 Y206.587 E9.19605
G1 X204.287 Y207.046 E9.23706
G1 X203.918 Y207.259 E9.25844
G1 X203.181 Y207.612 E9.29945
G1 X202.412 Y207.891 E9.34048
G1 X201.991 Y208.008 E9.36243
G1 X201.201 Y208.166 E9.40286
G1 X200.381 Y208.246 E9.44421
G1 X199.557 Y208.244 E9.48557
G1 X198.737 Y208.161 E9.52693
G1 X197.936 Y207.997 E9.56796
G1 X197.515 Y207.877 E9.58991
G1 X196.759 Y207.599 E9.63033
G1 X196.018 Y207.239 E9.67168
G1 X195.316 Y206.808 E9.71304
G1 X194.666 Y206.312 E9.75407
G1 X194.339 Y206.021 E9.77602
G1 X193.779 Y205.443 E9.81644
G1 X193.267 Y204.797 E9.8578
G1 X193.001 Y204.382 E9.88254
G1 X172.749 Y204.382 E10.89888
G1 X172.749 Y195.678 E11.33569
G1 X173.094 Y195.963 F7800
;TYPE:External perimeter
G1 F1800
G1 X193.19 Y195.963 E12.34419
G1 X193.555 Y195.395 E12.3781
G1 X194.037 Y194.787 E12.41702
G1 X194.308 Y194.493 E12.43711
G1 X194.892 Y193.948 E12.47717
G1 X195.509 Y193.479 E12.5161
G1 X195.845 Y193.26 E12.53618
G1 X196.545 Y192.877 E12.57625
G1 X197.259 Y192.575 E12.61517
G1 X197.636 Y192.447 E12.63512
G1 X198.018 Y192.339 E12.65507
G1 X198.789 Y192.181 E12.69457
G1 X199.586 Y192.1 E12.73477
G1 X200.364 Y192.099 E12.77383
G1 X201.15 Y192.176 E12.81345
G1 X201.911 Y192.328 E12.85237
G1 X202.307 Y192.438 E12.87302
G1 X203.045 Y192.705 E12.9124
G1 X203.42 Y192.875 E12.93305
G1 X204.102 Y193.245 E12.97197
G1 X204.754 Y193.689 E13.0116
G1 X205.358 Y194.194 E13.0511
G1 X205.652 Y194.481 E13.07175
G1 X206.166 Y195.063 E13.11068
G1 X206.627 Y195.703 E13.1503
G1 X207.023 Y196.387 E13.18993
G1 X207.347 Y197.104 E13.22943
G1 X207.484 Y197.48 E13.24951
G1 X207.697 Y198.238 E13.28901
G1 X207.835 Y199.015 E13.32863
G1 X207.893 Y199.8 E13.36813
G1 X207.893 Y200.2 E13.38821
G1 X207.835 Y200.982 E13.42758
G1 X207.775 Y201.378 E13.44766
G1 X207.6 Y202.145 E13.48716
G1 X207.348 Y202.894 E13.52678
G1 X207.024 Y203.611 E13.56629
G1 X206.826 Y203.972 E13.58694
G1 X206.405 Y204.623 E13.62586
G1 X205.912 Y205.24 E13.66549
G1 X205.36 Y205.804 E13.70511
G1 X204.754 Y206.311 E13.74474
G1 X204.104 Y206.754 E13.78424
G1 X203.757 Y206.953 E13.80432
G1 X203.047 Y207.294 E13.84382
G1 X202.307 Y207.562 E13.88332
G1 X201.911 Y207.672 E13.90397
G1 X201.15 Y207.824 E13.94289
G1 X200.364 Y207.901 E13.98252
G1 X199.575 Y207.9 E14.02215
G1 X198.789 Y207.819 E14.06178
G1 X198.018 Y207.661 E14.10128
G1 X197.622 Y207.549 E14.12193
G1 X196.894 Y207.281 E14.16085
G1 X196.184 Y206.937 E14.20048
G1 X195.511 Y206.523 E14.24011
G1 X194.885 Y206.046 E14.27961
G1 X194.578 Y205.772 E14.30026
G1 X194.038 Y205.215 E14.33918
G1 X193.548 Y204.596 E14.37881
G1 X193.189 Y204.037 E14.41215
G1 X173.094 Y204.037 E15.42064
G1 X173.094 Y196.023 E15.82284
G1 X172.94 Y195.594 F7800
G1 E13.82284 F2400
G92 E0
G1 X209.426 Y175.791 F7800
G1 E2 F2400
;TYPE:Perimeter
G1 F1800
G1 X209.269 Y175.483 E2.01735
G1 X209.008 Y174.865 E2.05103
G1 X208.806 Y174.208 E2.08555
G1 X208.669 Y173.533 E2.12008
G1 X208.601 Y172.849 E2.1546
G1 X208.601 Y172.161 E2.18913
G1 X208.669 Y171.476 E2.22366
G1 X208.806 Y170.802 E2.25818
G1 X209.008 Y170.145 E2.29271
G1 X209.276 Y169.511 E2.32723
G1 X209.605 Y168.906 E2.36176
G1 X209.992 Y168.338 E2.39629
G1 X210.434 Y167.811 E2.43081
G1 X210.927 Y167.331 E2.46534
G1 X211.465 Y166.902 E2.49986
G1 X212.043 Y166.528 E2.53439
G1 X212.655 Y166.215 E2.56892
G1 X213.295 Y165.963 E2.60344
G1 X213.958 Y165.777 E2.63797
G1 X214.635 Y165.658 E2.67249
G1 X215.321 Y165.606 E2.70702
G1 X216.009 Y165.623 E2.74154
G1 X216.691 Y165.709 E2.77607
G1 X217.362 Y165.862 E2.8106
G1 X218.014 Y166.081 E2.84512
G1 X218.641 Y166.364 E2.87965
G1 X219.237 Y166.708 E2.91418
G1 X219.796 Y167.11 E2.9487
G1 X220.312 Y167.565 E2.98323
G1 X220.78 Y168.069 E3.01775
G1 X221.195 Y168.617 E3.05228
G1 X221.554 Y169.204 E3.08681
G1 X221.852 Y169.824 E3.12133
G1 X222.087 Y170.471 E3.15586
G1 X222.257 Y171.137 E3.19038
G1 X222.36 Y171.818 E3.22491
G1 X222.393 Y172.488 E3.25859
G1 X222.384 Y172.86 E3.27725
G1 X222.317 Y173.533 E3.31123
G1 X222.181 Y174.208 E3.34575
G1 X221.978 Y174.865 E3.38028
G1 X221.711 Y175.499 E3.41481
G1 X221.382 Y176.103 E3.44933
G1 X220.994 Y176.672 E3.48386
G1 X220.552 Y177.199 E3.51838
G1 X220.059 Y177.679 E3.55291
G1 X219.522 Y178.108 E3.58743
G1 X218.944 Y178.481 E3.62196
G1 X218.331 Y178.795 E3.65649
G1 X217.691 Y179.046 E3.69101
G1 X217.029 Y179.233 E3.72554
G1 X216.351 Y179.352 E3.76007
G1 X215.665 Y179.404 E3.79459
G1 X214.977 Y179.386 E3.82912
G1 X214.295 Y179.301 E3.86365
G1 X213.624 Y179.148 E3.89817
G1 X212.972 Y178.929 E3.9327
G1 X212.345 Y178.646 E3.96722
G1 X211.749 Y178.302 E4.00175
G1 X211.19 Y177.9 E4.03627
G1 X210.675 Y177.445 E4.0708
G1 X210.207 Y176.941 E4.10533
G1 X209.791 Y176.392 E4.13985
G1 X209.456 Y175.843 E4.17213
G1 X209.739 Y175.646 F7800
G1 F1800
G1 X209.582 Y175.338 E4.1895
G1 X209.333 Y174.747 E4.22167
G1 X209.14 Y174.122 E4.25447
G1 X209.011 Y173.482 E4.28727
G1 X208.946 Y172.832 E4.32006
G1 X208.946 Y172.178 E4.35286
G1 X209.011 Y171.528 E4.38566
G1 X209.14 Y170.887 E4.41846
G1 X209.333 Y170.263 E4.45126
G1 X209.587 Y169.66 E4.48406
G1 X209.899 Y169.087 E4.51686
G1 X210.267 Y168.547 E4.54965
G1 X210.688 Y168.046 E4.58245
G1 X211.155 Y167.59 E4.61525
G1 X211.666 Y167.182 E4.64805
G1 X212.215 Y166.828 E4.68085
G1 X212.797 Y166.529 E4.71365
G1 X213.405 Y166.291 E4.74644
G1 X214.034 Y166.114 E4.77924
G1 X214.678 Y166 E4.81204
G1 X215.33 Y165.951 E4.84484
G1 X215.983 Y165.968 E4.87764
G1 X216.632 Y166.049 E4.91044
G1 X217.269 Y166.194 E4.94323
G1 X217.888 Y166.402 E4.97603
G1 X218.484 Y166.671 E5.00883
G1 X219.05 Y166.998 E5.04163
G1 X219.58 Y167.379 E5.07443
G1 X220.07 Y167.812 E5.10723
G1 X220.515 Y168.291 E5.14002
G1 X220.91 Y168.812 E5.17282
G1 X221.25 Y169.37 E5.20562
G1 X221.534 Y169.958 E5.23842
G1 X221.757 Y170.573 E5.27122
G1 X221.919 Y171.206 E5.30402
G1 X222.016 Y171.852 E5.33681
G1 X222.048 Y172.492 E5.36899
G1 X222.04 Y172.838 E5.38635
G1 X221.975 Y173.482 E5.41881
G1 X221.846 Y174.122 E5.45161
G1 X221.653 Y174.747 E5.48441
G1 X221.4 Y175.349 E5.51721
G1 X221.087 Y175.923 E5.55001
G1 X220.719 Y176.463 E5.5828
G1 X220.299 Y176.964 E5.6156
G1 X219.831 Y177.42 E5.6484
G1 X219.32 Y177.828 E5.6812
G1 X218.771 Y178.182 E5.714
G1 X218.189 Y178.48 E5.7468
G1 X217.581 Y178.719 E5.77959
G1 X216.952 Y178.896 E5.81239
G1 X216.308 Y179.01 E5.84519
G1 X215.657 Y179.058 E5.87799
G1 X215.003 Y179.042 E5.91079
G1 X214.355 Y178.961 E5.94359
G1 X213.718 Y178.815 E5.97638
G1 X213.098 Y178.607 E6.00918
G1 X212.502 Y178.338 E6.04198
G1 X211.936 Y178.012 E6.07478
G1 X211.406 Y177.63 E6.10758
G1 X210.916 Y177.198 E6.14038
G1 X210.471 Y176.719 E6.17317
G1 X210.077 Y176.198 E6.20597
G1 X209.771 Y175.697 E6.23542
G1 X210.04 Y175.477 F7800
;TYPE:External perimeter
G1 F1800
G1 X209.895 Y175.192 E6.25149
G1 X209.657 Y174.629 E6.28216
G1 X209.475 Y174.037 E6.31323
G1 X209.352 Y173.43 E6.3443
G1 X209.291 Y172.814 E6.37537
G1 X209.291 Y172.195 E6.40645
G1 X209.352 Y171.579 E6.43752
G1 X209.475 Y170.972 E6.46858
G1 X209.657 Y170.381 E6.49966
G1 X209.898 Y169.81 E6.53073
G1 X210.194 Y169.267 E6.5618
G1 X210.543 Y168.755 E6.59287
G1 X210.941 Y168.281 E6.62394
G1 X211.384 Y167.849 E6.65501
G1 X211.868 Y167.462 E6.68608
G1 X212.388 Y167.127 E6.71715
G1 X212.939 Y166.844 E6.74822
G1 X213.515 Y166.618 E6.77929
G1 X214.111 Y166.45 E6.81036
G1 X214.721 Y166.343 E6.84143
G1 X215.338 Y166.297 E6.87251
G1 X215.957 Y166.312 E6.90357
G1 X216.572 Y166.389 E6.93465
G1 X217.175 Y166.527 E6.96572
G1 X217.762 Y166.724 E6.99679
G1 X218.326 Y166.978 E7.02786
G1 X218.862 Y167.288 E7.05893
G1 X219.365 Y167.649 E7.09
G1 X219.829 Y168.059 E7.12107
G1 X220.25 Y168.513 E7.15214
G1 X220.624 Y169.006 E7.18321
G1 X220.947 Y169.535 E7.21428
G1 X221.216 Y170.093 E7.24535
G1 X221.427 Y170.674 E7.27642
G1 X221.58 Y171.274 E7.30749
G1 X221.673 Y171.886 E7.33856
G1 X221.703 Y172.497 E7.36924
G1 X221.695 Y172.817 E7.3853
G1 X221.634 Y173.43 E7.41625
G1 X221.511 Y174.037 E7.44732
G1 X221.329 Y174.629 E7.47839
G1 X221.088 Y175.199 E7.50946
G1 X220.792 Y175.743 E7.54053
G1 X220.444 Y176.255 E7.5716
G1 X220.046 Y176.729 E7.60267
G1 X219.602 Y177.161 E7.63374
G1 X219.118 Y177.547 E7.66481
G1 X218.598 Y177.883 E7.69588
G1 X218.047 Y178.166 E7.72695
G1 X217.471 Y178.392 E7.75802
G1 X216.875 Y178.559 E7.78909
G1 X216.265 Y178.667 E7.82016
