; generated by PrusaSlicer 2.4.2 on 2022-07-12 at 03:34:36 UTC

; 

; external perimeters extrusion width = 0.45mm
; perimeters extrusion width = 0.45mm
; infill extrusion width = 0.45mm
; solid infill extrusion width = 0.45mm
; top infill extrusion width = 0.40mm
; first layer extrusion width = 0.42mm

M107
M190 S60 ; set bed temperature and wait for it to be reached
M104 S215 ; set temperature
;TYPE:Custom
G28 ; home all axes
G1 Z5 F5000 ; lift nozzle
M109 S215 ; set temperature and wait for it to be reached
G21 ; set units to millimeters
G90 ; use absolute coordinates
M82 ; use absolute distances for extrusion
G92 E0
; Filament gcode
M107
;LAYER_CHANGE
;Z:0.35
;HEIGHT:0.35
G1 Z.35 F7800
G1 E-2 F2400
G92 E0
G1 X139.731 Y139.067 F7800
G1 E2 F2400
;TYPE:Skirt/Brim
;WIDTH:0.42
G1 F1800
G1 X141.566 Y137.354 E2.12599
G1 X143.484 Y135.734 E2.25198
G1 X145.355 Y134.307 E2.37005
G1 X147.816 Y132.619 E2.51983
G1 X149.962 Y131.317 E2.64582
G1 X152.171 Y130.123 E2.77181
G1 X154.436 Y129.041 E2.8978
G1 X156.753 Y128.073 E3.0238
G1 X159.114 Y127.222 E3.14979
G1 X161.516 Y126.49 E3.27578
G1 X163.95 Y125.878 E3.40177
G1 X166.413 Y125.388 E3.52776
G1 X168.896 Y125.022 E3.65375
G1 X171.395 Y124.78 E3.77975
G1 X173.903 Y124.662 E3.90574
G1 X176.413 Y124.67 E4.03173
G1 X178.92 Y124.803 E4.15772
G1 X181.418 Y125.061 E4.28371
G1 X183.899 Y125.443 E4.40971
G1 X186.358 Y125.948 E4.5357
G1 X188.789 Y126.575 E4.66169
G1 X191.186 Y127.323 E4.78768
G1 X193.542 Y128.189 E4.91367
G1 X195.852 Y129.171 E5.03966
G1 X198.111 Y130.268 E5.16566
G1 X200.312 Y131.475 E5.29165
G1 X202.45 Y132.791 E5.41764
G1 X204.52 Y134.212 E5.54363
G1 X206.516 Y135.734 E5.66962
G1 X208.434 Y137.354 E5.79562
G1 X210.269 Y139.067 E5.92161
G1 X212.016 Y140.87 E6.0476
G1 X213.672 Y142.757 E6.17359
G1 X215.231 Y144.725 E6.29958
G1 X216.69 Y146.768 E6.42558
G1 X218.045 Y148.881 E6.55157
G1 X219.294 Y151.059 E6.67756
G1 X220.432 Y153.297 E6.80355
G1 X221.457 Y155.588 E6.92954
G1 X222.259 Y157.631 E7.03966
G1 X223.066 Y160.008 E7.16565
G1 X223.753 Y162.423 E7.29165
G1 X224.32 Y164.868 E7.41764
G1 X224.763 Y167.339 E7.54363
G1 X225.083 Y169.829 E7.66962
G1 X225.279 Y172.332 E7.79561
G1 X225.349 Y174.842 E7.9216
G1 X225.295 Y177.352 E8.0476
G1 X225.115 Y179.856 E8.17359
G1 X224.811 Y182.348 E8.29958
G1 X224.382 Y184.822 E8.42557
G1 X223.831 Y187.271 E8.55156
G1 X223.159 Y189.69 E8.67756
G1 X222.367 Y192.072 E8.80355
G1 X221.457 Y194.412 E8.92954
G1 X220.432 Y196.703 E9.05553
G1 X219.294 Y198.941 E9.18152
G1 X218.045 Y201.119 E9.30752
G1 X216.69 Y203.232 E9.43351
G1 X215.231 Y205.275 E9.5595
G1 X213.672 Y207.243 E9.68549
G1 X212.016 Y209.13 E9.81148
G1 X210.269 Y210.933 E9.93748
G1 X208.434 Y212.646 E10.06347
G1 X206.516 Y214.266 E10.18946
G1 X204.645 Y215.693 E10.30753
G1 X202.184 Y217.381 E10.45731
G1 X200.038 Y218.683 E10.5833
G1 X197.829 Y219.877 E10.70929
G1 X195.564 Y220.959 E10.83528
G1 X193.247 Y221.927 E10.96127
G1 X190.886 Y222.778 E11.08726
G1 X188.484 Y223.51 E11.21326
G1 X186.05 Y224.122 E11.33925
G1 X183.587 Y224.612 E11.46524
G1 X181.104 Y224.978 E11.59123
G1 X178.605 Y225.22 E11.71722
G1 X176.097 Y225.338 E11.84321
G1 X173.587 Y225.33 E11.96921
G1 X171.08 Y225.197 E12.0952
G1 X168.582 Y224.939 E12.22119
G1 X166.101 Y224.557 E12.34718
G1 X163.642 Y224.052 E12.47317
G1 X161.211 Y223.425 E12.59917
G1 X158.814 Y222.677 E12.72516
G1 X156.458 Y221.811 E12.85115
G1 X154.148 Y220.829 E12.97714
G1 X151.889 Y219.732 E13.10313
G1 X149.688 Y218.525 E13.22912
G1 X147.55 Y217.209 E13.35512
G1 X145.48 Y215.788 E13.48111
G1 X143.484 Y214.266 E13.6071
G1 X141.566 Y212.646 E13.73309
G1 X139.731 Y210.933 E13.85908
G1 X137.984 Y209.13 E13.98508
G1 X136.328 Y207.243 E14.11107
G1 X134.769 Y205.275 E14.23706
G1 X133.31 Y203.232 E14.36305
G1 X131.955 Y201.119 E14.48904
G1 X130.706 Y198.941 E14.61504
G1 X129.568 Y196.703 E14.74103
G1 X128.543 Y194.412 E14.86702
G1 X127.741 Y192.369 E14.97714
G1 X126.934 Y189.992 E15.10313
G1 X126.247 Y187.577 E15.22912
G1 X125.68 Y185.132 E15.35511
G1 X125.237 Y182.661 E15.48111
G1 X124.917 Y180.171 E15.6071
G1 X124.721 Y177.668 E15.73309
G1 X124.651 Y175.158 E15.85908
G1 X124.705 Y172.648 E15.98507
G1 X124.885 Y170.144 E16.11106
G1 X125.189 Y167.652 E16.23706
G1 X125.618 Y165.178 E16.36305
G1 X126.169 Y162.729 E16.48904
G1 X126.841 Y160.31 E16.61503
G1 X127.633 Y157.928 E16.74102
G1 X128.543 Y155.588 E16.86702
G1 X129.568 Y153.297 E16.99301
G1 X130.706 Y151.059 E17.119
G1 X131.955 Y148.881 E17.24499
G1 X133.31 Y146.768 E17.37098
G1 X134.769 Y144.725 E17.49697
G1 X136.328 Y142.757 E17.62297
G1 X137.984 Y140.87 E17.74896
G1 X139.689 Y139.11 E17.87194
G1 E15.87194 F2400
G92 E0
G1 X147.14 Y146.437 F7800
G1 E2 F2400
;TYPE:Perimeter
G1 F1800
G1 X148.599 Y145.084 E2.09984
G1 X150.123 Y143.805 E2.19969
G1 X151.709 Y142.604 E2.29953
G1 X153.352 Y141.483 E2.39937
G1 X155.05 Y140.446 E2.49922
G1 X156.797 Y139.494 E2.59906
G1 X158.59 Y138.631 E2.6989
G1 X160.423 Y137.858 E2.79875
G1 X162.292 Y137.178 E2.89859
G1 X164.193 Y136.591 E2.99844
G1 X166.121 Y136.1 E3.09828
G1 X168.071 Y135.706 E3.19812
G1 X170.039 Y135.41 E3.29797
G1 X172.018 Y135.212 E3.39781
G1 X174.005 Y135.112 E3.49765
G1 X175.995 Y135.112 E3.59749
G1 X177.982 Y135.212 E3.69734
G1 X179.961 Y135.41 E3.79718
G1 X181.929 Y135.706 E3.89703
G1 X183.879 Y136.1 E3.99687
G1 X185.807 Y136.591 E4.09671
G1 X187.708 Y137.178 E4.19656
G1 X189.577 Y137.858 E4.2964
G1 X191.41 Y138.631 E4.39624
G1 X193.203 Y139.494 E4.49608
G1 X194.95 Y140.446 E4.59593
G1 X196.648 Y141.483 E4.69577
G1 X198.291 Y142.604 E4.79562
G1 X199.877 Y143.805 E4.89546
G1 X201.401 Y145.084 E4.9953
G1 X202.86 Y146.437 E5.09515
G1 X204.249 Y147.861 E5.19499
G1 X205.565 Y149.353 E5.29483
G1 X206.806 Y150.908 E5.39468
G1 X207.967 Y152.523 E5.49452
G1 X209.046 Y154.195 E5.59437
G1 X210.041 Y155.918 E5.69421
G1 X210.949 Y157.688 E5.79405
G1 X211.767 Y159.501 E5.8939
G1 X212.494 Y161.353 E5.99374
G1 X213.127 Y163.239 E6.09358
G1 X213.666 Y165.154 E6.19343
G1 X214.109 Y167.094 E6.29327
G1 X214.454 Y169.053 E6.39311
G1 X214.702 Y171.027 E6.49296
G1 X214.85 Y173.011 E6.5928
G1 X214.9 Y175 E6.69264
G1 X214.85 Y176.989 E6.79249
G1 X214.702 Y178.973 E6.89233
G1 X214.454 Y180.947 E6.99217
G1 X214.109 Y182.906 E7.09202
G1 X213.666 Y184.846 E7.19186
G1 X213.127 Y186.761 E7.2917
G1 X212.494 Y188.647 E7.39155
G1 X211.767 Y190.499 E7.49139
G1 X210.949 Y192.312 E7.59123
G1 X210.041 Y194.082 E7.69108
G1 X209.046 Y195.805 E7.79092
G1 X207.967 Y197.477 E7.89077
G1 X206.806 Y199.092 E7.99061
G1 X205.565 Y200.647 E8.09045
G1 X204.249 Y202.139 E8.1903
G1 X202.86 Y203.563 E8.29014
G1 X201.401 Y204.916 E8.38998
G1 X199.877 Y206.195 E8.48982
G1 X198.291 Y207.396 E8.58967
G1 X196.648 Y208.517 E8.68951
G1 X194.95 Y209.554 E8.78935
G1 X193.203 Y210.506 E8.8892
G1 X191.41 Y211.369 E8.98904
G1 X189.577 Y212.142 E9.08889
G1 X187.708 Y212.822 E9.18873
G1 X185.807 Y213.409 E9.28857
G1 X183.879 Y213.9 E9.38842
G1 X181.929 Y214.294 E9.48826
G1 X179.961 Y214.59 E9.58811
G1 X177.982 Y214.788 E9.68795
G1 X175.995 Y214.888 E9.78779
G1 X174.005 Y214.888 E9.88763
G1 X172.018 Y214.788 E9.98748
G1 X170.039 Y214.59 E10.08732
G1 X168.071 Y214.294 E10.18717
G1 X166.121 Y213.9 E10.28701
G1 X164.193 Y213.409 E10.38685
G1 X162.292 Y212.822 E10.4867
G1 X160.423 Y212.142 E10.58654
G1 X158.59 Y211.369 E10.68638
G1 X156.797 Y210.506 E10.78622
G1 X155.05 Y209.554 E10.88607
G1 X153.352 Y208.517 E10.98591
G1 X151.709 Y207.396 E11.08575
G1 X150.123 Y206.195 E11.1856
G1 X148.599 Y204.916 E11.28544
G1 X147.14 Y203.563 E11.38529
G1 X145.751 Y202.139 E11.48513
G1 X144.435 Y200.647 E11.58497
G1 X143.194 Y199.092 E11.68482
G1 X142.033 Y197.477 E11.78466
G1 X140.954 Y195.805 E11.8845
G1 X139.959 Y194.082 E11.98435
G1 X139.051 Y192.312 E12.08419
G1 X138.233 Y190.499 E12.18403
G1 X137.506 Y188.647 E12.28388
G1 X136.873 Y186.761 E12.38372
G1 X136.334 Y184.846 E12.48357
G1 X135.891 Y182.906 E12.5834
G1 X135.546 Y180.947 E12.68325
G1 X135.298 Y178.973 E12.7831
G1 X135.15 Y176.989 E12.88294
G1 X135.101 Y175.034 E12.98105
G1 X135.15 Y173.011 E13.08261
G1 X135.298 Y171.027 E13.18246
G1 X135.546 Y169.053 E13.28231
G1 X135.891 Y167.094 E13.38216
G1 X136.334 Y165.154 E13.482
G1 X136.873 Y163.239 E13.58184
G1 X137.506 Y161.353 E13.68168
G1 X138.233 Y159.501 E13.78153
G1 X139.051 Y157.688 E13.88137
G1 X139.959 Y155.918 E13.98121
G1 X140.954 Y154.195 E14.08106
G1 X142.033 Y152.523 E14.1809
G1 X143.194 Y150.908 E14.28074
G1 X144.435 Y149.353 E14.38059
G1 X145.751 Y147.861 E14.48043
G1 X147.098 Y146.48 E14.57726
G1 X147.381 Y146.684 F7800
G1 F1800
G1 X148.827 Y145.342 E14.67625
G1 X150.338 Y144.075 E14.77522
G1 X151.91 Y142.884 E14.87421
G1 X153.54 Y141.773 E14.97318
G1 X155.222 Y140.744 E15.07216
G1 X156.955 Y139.801 E15.17115
G1 X158.731 Y138.945 E15.27012
G1 X160.549 Y138.179 E15.36911
G1 X162.402 Y137.505 E15.46809
G1 X164.287 Y136.923 E15.56707
G1 X166.198 Y136.437 E15.66605
G1 X168.131 Y136.046 E15.76503
G1 X170.082 Y135.752 E15.86401
G1 X172.044 Y135.556 E15.96299
G1 X174.014 Y135.457 E16.06197
G1 X175.986 Y135.457 E16.16095
G1 X177.956 Y135.556 E16.25993
G1 X179.918 Y135.752 E16.35891
G1 X181.869 Y136.046 E16.45789
G1 X183.802 Y136.437 E16.55687
G1 X185.713 Y136.923 E16.65585
G1 X187.598 Y137.505 E16.75483
G1 X189.451 Y138.179 E16.85381
G1 X191.269 Y138.945 E16.95279
G1 X193.045 Y139.801 E17.05177
G1 X194.778 Y140.744 E17.15075
G1 X196.46 Y141.773 E17.24973
G1 X198.09 Y142.884 E17.34871
G1 X199.662 Y144.075 E17.44769
G1 X201.173 Y145.342 E17.54667
G1 X202.619 Y146.684 E17.64565
G1 X203.996 Y148.096 E17.74463
G1 X205.301 Y149.574 E17.84361
G1 X206.531 Y151.116 E17.94259
G1 X207.682 Y152.718 E18.04157
G1 X208.752 Y154.375 E18.14055
G1 X209.738 Y156.083 E18.23953
G1 X210.638 Y157.838 E18.33851
G1 X211.449 Y159.635 E18.43749
G1 X212.17 Y161.471 E18.53647
G1 X212.798 Y163.341 E18.63545
G1 X213.332 Y165.24 E18.73443
G1 X213.771 Y167.162 E18.83341
G1 X214.113 Y169.105 E18.93239
G1 X214.359 Y171.062 E19.03137
G1 X214.506 Y173.028 E19.13035
G1 X214.555 Y175 E19.22933
G1 X214.506 Y176.972 E19.32831
G1 X214.359 Y178.938 E19.42729
G1 X214.113 Y180.895 E19.52627
G1 X213.771 Y182.838 E19.62526
G1 X213.332 Y184.76 E19.72423
G1 X212.798 Y186.659 E19.82321
G1 X212.17 Y188.529 E19.92219
G1 X211.449 Y190.365 E20.02117
G1 X210.638 Y192.162 E20.12015
G1 X209.738 Y193.917 E20.21913
G1 X208.752 Y195.625 E20.31811
G1 X207.682 Y197.282 E20.4171
G1 X206.531 Y198.884 E20.51607
G1 X205.301 Y200.425 E20.61505
G1 X203.996 Y201.904 E20.71404
G1 X202.619 Y203.316 E20.81302
G1 X201.173 Y204.658 E20.912
G1 X199.662 Y205.925 E21.01097
G1 X198.09 Y207.116 E21.10996
G1 X196.46 Y208.227 E21.20894
G1 X194.778 Y209.256 E21.30792
G1 X193.045 Y210.199 E21.4069
G1 X191.268 Y211.055 E21.50588
G1 X189.451 Y211.821 E21.60486
G1 X187.598 Y212.495 E21.70384
G1 X185.713 Y213.077 E21.80282
G1 X183.802 Y213.563 E21.9018
G1 X181.869 Y213.954 E22.00078
G1 X179.918 Y214.248 E22.09976
G1 X177.956 Y214.444 E22.19874
G1 X175.986 Y214.543 E22.29772
G1 X174.014 Y214.543 E22.3967
G1 X172.044 Y214.444 E22.49568
G1 X170.082 Y214.248 E22.59466
G1 X168.131 Y213.954 E22.69364
G1 X166.198 Y213.563 E22.79262
G1 X164.287 Y213.077 E22.8916
G1 X162.402 Y212.495 E22.99058
G1 X160.549 Y211.821 E23.08956
G1 X158.731 Y211.055 E23.18854
G1 X156.955 Y210.199 E23.28752
G1 X155.222 Y209.256 E23.3865
G1 X153.54 Y208.227 E23.48548
G1 X151.91 Y207.116 E23.58446
G1 X150.338 Y205.925 E23.68344
G1 X148.827 Y204.658 E23.78242
G1 X147.381 Y203.316 E23.8814
G1 X146.004 Y201.904 E23.98038
G1 X144.699 Y200.426 E24.07936
G1 X143.469 Y198.884 E24.17834
G1 X142.318 Y197.282 E24.27732
G1 X141.248 Y195.625 E24.3763
G1 X140.262 Y193.917 E24.47528
G1 X139.362 Y192.162 E24.57426
G1 X138.551 Y190.365 E24.67324
G1 X137.83 Y188.529 E24.77222
G1 X137.202 Y186.659 E24.8712
G1 X136.668 Y184.76 E24.97018
G1 X136.229 Y182.838 E25.06916
G1 X135.887 Y180.895 E25.16814
G1 X135.641 Y178.938 E25.26712
G1 X135.494 Y176.972 E25.3661
G1 X135.446 Y175.034 E25.46336
G1 X135.494 Y173.029 E25.56405
G1 X135.641 Y171.062 E25.66304
G1 X135.887 Y169.105 E25.76202
G1 X136.229 Y167.162 E25.861
G1 X136.668 Y165.24 E25.95998
G1 X137.202 Y163.341 E26.05896
G1 X137.83 Y161.471 E26.15794
G1 X138.551 Y159.635 E26.25692
G1 X139.362 Y157.838 E26.3559
G1 X140.262 Y156.083 E26.45488
G1 X141.248 Y154.375 E26.55386
G1 X142.318 Y152.718 E26.65284
G1 X143.469 Y151.116 E26.75182
G1 X144.699 Y149.574 E26.85081
G1 X146.004 Y148.096 E26.94978
G1 X147.339 Y146.727 E27.04575
G1 X147.622 Y146.931 F7800
;TYPE:External perimeter
G1 F1800
G1 X149.055 Y145.601 E27.14387
G1 X150.553 Y144.344 E27.24199
G1 X152.111 Y143.164 E27.3401
G1 X153.727 Y142.063 E27.43822
G1 X155.395 Y141.043 E27.53634
G1 X157.112 Y140.108 E27.63446
G1 X158.873 Y139.26 E27.73257
G1 X160.675 Y138.5 E27.83069
G1 X162.512 Y137.832 E27.9288
G1 X164.38 Y137.255 E28.02692
G1 X166.275 Y136.773 E28.12504
G1 X168.191 Y136.386 E28.22315
G1 X170.124 Y136.094 E28.32127
G1 X172.07 Y135.9 E28.41939
G1 X174.022 Y135.802 E28.51751
G1 X175.978 Y135.802 E28.61562
G1 X177.93 Y135.9 E28.71374
G1 X179.876 Y136.094 E28.81186
G1 X181.809 Y136.386 E28.90997
G1 X183.725 Y136.773 E29.00809
G1 X185.62 Y137.255 E29.10621
G1 X187.488 Y137.832 E29.20432
G1 X189.325 Y138.5 E29.30244
G1 X191.127 Y139.26 E29.40056
G1 X192.888 Y140.108 E29.49867
G1 X194.605 Y141.043 E29.59679
G1 X196.273 Y142.063 E29.69491
G1 X197.889 Y143.164 E29.79303
G1 X199.447 Y144.344 E29.89114
G1 X200.945 Y145.601 E29.98926
G1 X202.378 Y146.931 E30.08738
G1 X203.743 Y148.33 E30.18549
G1 X205.037 Y149.796 E30.28361
G1 X206.256 Y151.325 E30.38173
G1 X207.397 Y152.912 E30.47984
G1 X208.458 Y154.554 E30.57796
G1 X209.435 Y156.248 E30.67608
G1 X210.327 Y157.987 E30.77419
G1 X211.131 Y159.769 E30.87231
G1 X211.845 Y161.589 E30.97043
G1 X212.468 Y163.443 E31.06855
G1 X212.998 Y165.325 E31.16666
G1 X213.433 Y167.231 E31.26478
G1 X213.772 Y169.156 E31.3629
G1 X214.015 Y171.096 E31.46101
G1 X214.161 Y173.046 E31.55913
G1 X214.21 Y175 E31.65725
G1 X214.161 Y176.954 E31.75536
G1 X214.015 Y178.904 E31.85348
G1 X213.772 Y180.844 E31.9516
G1 X213.433 Y182.769 E32.04972
G1 X212.998 Y184.675 E32.14783
G1 X212.468 Y186.557 E32.24595
G1 X211.845 Y188.411 E32.34406
G1 X211.131 Y190.231 E32.44218
G1 X210.327 Y192.013 E32.5403
G1 X209.435 Y193.752 E32.63842
G1 X208.458 Y195.446 E32.73653
G1 X207.397 Y197.088 E32.83465
G1 X206.256 Y198.675 E32.93276
G1 X205.037 Y200.204 E33.03088
G1 X203.743 Y201.67 E33.129
G1 X202.378 Y203.069 E33.22712
G1 X200.945 Y204.399 E33.32523
G1 X199.447 Y205.656 E33.42335
G1 X197.889 Y206.836 E33.52147
G1 X196.273 Y207.937 E33.61958
G1 X194.605 Y208.957 E33.7177
G1 X192.888 Y209.892 E33.81582
G1 X191.127 Y210.74 E33.91393
G1 X189.325 Y211.5 E34.01205
G1 X187.488 Y212.168 E34.11017
G1 X185.62 Y212.745 E34.20829
G1 X183.725 Y213.227 E34.3064
G1 X181.809 Y213.614 E34.40452
G1 X179.876 Y213.906 E34.50264
G1 X177.93 Y214.1 E34.60075
G1 X175.978 Y214.198 E34.69887
G1 X174.022 Y214.198 E34.79699
G1 X172.07 Y214.1 E34.8951
G1 X170.124 Y213.906 E34.99322
G1 X168.191 Y213.614 E35.09134
G1 X166.275 Y213.227 E35.18945
G1 X164.38 Y212.745 E35.28757
G1 X162.512 Y212.168 E35.38569
G1 X160.675 Y211.5 E35.4838
G1 X158.873 Y210.74 E35.58192
G1 X157.112 Y209.892 E35.68004
G1 X155.395 Y208.957 E35.77816
G1 X153.727 Y207.937 E35.87627
G1 X152.111 Y206.836 E35.97439
G1 X150.553 Y205.656 E36.07251
G1 X149.055 Y204.399 E36.17062
G1 X147.622 Y203.069 E36.26874
G1 X146.257 Y201.67 E36.36686
G1 X144.963 Y200.204 E36.46497
G1 X143.744 Y198.675 E36.56309
G1 X142.603 Y197.088 E36.66121
G1 X141.542 Y195.446 E36.75932
G1 X140.565 Y193.752 E36.85744
G1 X139.673 Y192.013 E36.95556
G1 X138.869 Y190.231 E37.05367
G1 X138.155 Y188.411 E37.15179
G1 X137.532 Y186.557 E37.24991
G1 X137.002 Y184.675 E37.34803
G1 X136.567 Y182.769 E37.44614
G1 X136.228 Y180.844 E37.54426
G1 X135.985 Y178.904 E37.64238
G1 X135.839 Y176.954 E37.74049
G1 X135.791 Y175.034 E37.8369
G1 X135.839 Y173.046 E37.93672
G1 X135.985 Y171.096 E38.03484
G1 X136.228 Y169.156 E38.13296
G1 X136.567 Y167.231 E38.23108
G1 X137.002 Y165.325 E38.32919
G1 X137.532 Y163.443 E38.42731
