; generated by PrusaSlicer 2.4.2 on 2022-07-20 at 03:31:03 UTC

; 

; external perimeters extrusion width = 0.45mm
; perimeters extrusion width = 0.45mm
; infill extrusion width = 0.45mm
; solid infill extrusion width = 0.45mm
; top infill extrusion width = 0.40mm
; first layer extrusion width = 0.42mm

M107
M190 S60 ; set bed temperature and wait for it to be reached
M104 S215 ; set temperature
;TYPE:Custom
G28 ; home all axes
G1 Z5 F5000 ; lift nozzle
M109 S215 ; set temperature and wait for it to be reached
G21 ; set units to millimeters
G90 ; use absolute coordinates
M82 ; use absolute distances for extrusion
G92 E0
; Filament gcode
M107
;LAYER_CHANGE
;Z:0.35
;HEIGHT:0.35
G1 Z.35 F7800
G1 E-2 F2400
G92 E0
G1 X132.316 Y130.944 F7800
G1 E2 F2400
;TYPE:Skirt/Brim
;WIDTH:0.42
G1 F1800
G1 X134.529 Y128.902 E2.15115
G1 X136.877 Y126.942 E2.30465
G1 X139.32 Y125.101 E2.45815
G1 X141.852 Y123.385 E2.61166
G1 X144.466 Y121.796 E2.76516
G1 X147.155 Y120.341 E2.91866
G1 X149.915 Y119.021 E3.07216
G1 X152.736 Y117.84 E3.22566
G1 X155.613 Y116.801 E3.37916
G1 X158.538 Y115.907 E3.53266
G1 X161.504 Y115.16 E3.68617
G1 X164.504 Y114.562 E3.83967
G1 X167.529 Y114.113 E3.99317
G1 X170.574 Y113.817 E4.14666
G1 X173.629 Y113.672 E4.30017
G1 X176.687 Y113.68 E4.45367
G1 X179.742 Y113.84 E4.60716
G1 X182.785 Y114.153 E4.76067
G1 X185.808 Y114.616 E4.91418
G1 X188.804 Y115.23 E5.06768
G1 X191.766 Y115.993 E5.22118
G1 X194.687 Y116.902 E5.37468
G1 X197.264 Y117.84 E5.51231
G1 X200.085 Y119.021 E5.66581
G1 X202.845 Y120.341 E5.81931
G1 X205.535 Y121.796 E5.97282
G1 X208.148 Y123.385 E6.12631
G1 X210.68 Y125.101 E6.27982
G1 X213.123 Y126.942 E6.43332
G1 X215.471 Y128.902 E6.58682
G1 X217.719 Y130.976 E6.74032
G1 X219.86 Y133.16 E6.89382
G1 X221.89 Y135.448 E7.04733
G1 X223.803 Y137.835 E7.20082
G1 X225.595 Y140.314 E7.35433
G1 X227.261 Y142.879 E7.50783
G1 X228.797 Y145.524 E7.66133
G1 X230.199 Y148.242 E7.81483
G1 X231.465 Y151.027 E7.96833
G1 X232.589 Y153.871 E8.12184
G1 X233.571 Y156.768 E8.27533
G1 X234.407 Y159.71 E8.42883
G1 X235.095 Y162.69 E8.58233
G1 X235.634 Y165.701 E8.73584
G1 X236.022 Y168.735 E8.88934
G1 X236.259 Y171.784 E9.04284
G1 X236.343 Y174.842 E9.19634
G1 X236.275 Y177.9 E9.34984
G1 X236.054 Y180.95 E9.50334
G1 X235.681 Y183.986 E9.65684
G1 X235.158 Y187 E9.81035
G1 X234.485 Y189.984 E9.96384
G1 X233.664 Y192.93 E10.11735
G1 X232.698 Y195.832 E10.27085
G1 X231.587 Y198.682 E10.42435
G1 X230.337 Y201.473 E10.57785
G1 X228.948 Y204.199 E10.73135
G1 X227.426 Y206.851 E10.88485
G1 X225.773 Y209.425 E11.03835
G1 X223.994 Y211.913 E11.19186
G1 X222.093 Y214.309 E11.34536
G1 X220.075 Y216.608 E11.49886
G1 X217.684 Y219.056 E11.67058
G1 X215.471 Y221.098 E11.82173
G1 X213.123 Y223.058 E11.97523
G1 X210.68 Y224.899 E12.12873
G1 X208.148 Y226.615 E12.28223
G1 X205.534 Y228.204 E12.43573
G1 X202.845 Y229.66 E12.58924
G1 X200.085 Y230.979 E12.74274
G1 X197.264 Y232.16 E12.89624
G1 X194.387 Y233.199 E13.04974
G1 X191.462 Y234.093 E13.20324
G1 X188.496 Y234.84 E13.35674
G1 X185.496 Y235.438 E13.51024
G1 X182.471 Y235.887 E13.66374
G1 X179.426 Y236.183 E13.81725
G1 X176.371 Y236.328 E13.97075
G1 X173.313 Y236.32 E14.12425
G1 X170.258 Y236.16 E14.27775
G1 X167.215 Y235.847 E14.43125
G1 X164.192 Y235.384 E14.58475
G1 X161.196 Y234.77 E14.73825
G1 X158.234 Y234.007 E14.89176
G1 X155.313 Y233.098 E15.04526
G1 X152.442 Y232.045 E15.19876
G1 X149.626 Y230.849 E15.35226
G1 X146.874 Y229.515 E15.50576
G1 X144.192 Y228.045 E15.65926
G1 X141.586 Y226.444 E15.81276
G1 X139.063 Y224.714 E15.96626
G1 X136.63 Y222.861 E16.11977
G1 X134.292 Y220.889 E16.27327
G1 X132.055 Y218.803 E16.42677
G1 X129.925 Y216.608 E16.58027
G1 X127.907 Y214.309 E16.73377
G1 X126.006 Y211.913 E16.88727
G1 X124.405 Y209.686 E17.02491
G1 X122.739 Y207.121 E17.1784
G1 X121.203 Y204.476 E17.3319
G1 X119.801 Y201.758 E17.48541
G1 X118.535 Y198.973 E17.63891
G1 X117.411 Y196.129 E17.79241
G1 X116.429 Y193.232 E17.94591
G1 X115.593 Y190.29 E18.09941
G1 X114.905 Y187.31 E18.25291
G1 X114.366 Y184.299 E18.40642
G1 X113.978 Y181.265 E18.55991
G1 X113.741 Y178.216 E18.71342
G1 X113.657 Y175.158 E18.86692
G1 X113.725 Y172.1 E19.02042
G1 X113.946 Y169.05 E19.17392
G1 X114.319 Y166.014 E19.32742
G1 X114.842 Y163 E19.48092
G1 X115.515 Y160.016 E19.63442
G1 X116.336 Y157.07 E19.78793
G1 X117.302 Y154.168 E19.94142
G1 X118.413 Y151.318 E20.09493
G1 X119.663 Y148.527 E20.24843
G1 X121.052 Y145.801 E20.40193
G1 X122.574 Y143.149 E20.55543
G1 X124.227 Y140.575 E20.70893
G1 X126.006 Y138.087 E20.86243
G1 X127.907 Y135.691 E21.01594
G1 X129.925 Y133.392 E21.16943
G1 X132.274 Y130.987 E21.33814
G1 E19.33814 F2400
G92 E0
G1 X127.052 Y173.702 F7800
G1 E2 F2400
;TYPE:Perimeter
G1 F1800
G1 X127.216 Y173.356 E2.01922
G1 X127.399 Y173.082 E2.03576
G1 X127.682 Y172.745 E2.05785
G1 X128.187 Y172.32 E2.09096
G1 X128.741 Y172.02 E2.12256
G1 X129.219 Y171.871 E2.14772
G1 X129.337 Y170.343 E2.22462
G1 X129.626 Y168.074 E2.3394
G1 X130.027 Y165.822 E2.45419
G1 X130.54 Y163.593 E2.56897
G1 X131.163 Y161.393 E2.68376
G1 X131.896 Y159.226 E2.79854
G1 X132.735 Y157.098 E2.91333
G1 X133.679 Y155.015 E3.02812
G1 X134.726 Y152.981 E3.1429
G1 X135.873 Y151.003 E3.25769
G1 X137.117 Y149.083 E3.37247
G1 X138.455 Y147.228 E3.48726
G1 X139.884 Y145.442 E3.60205
G1 X141.4 Y143.73 E3.71683
G1 X142.999 Y142.095 E3.83162
G1 X144.678 Y140.541 E3.9464
G1 X146.432 Y139.074 E4.06119
G1 X148.257 Y137.695 E4.17597
G1 X150.149 Y136.409 E4.29076
G1 X152.102 Y135.219 E4.40554
G1 X154.112 Y134.128 E4.52033
G1 X156.174 Y133.138 E4.63511
G1 X158.283 Y132.252 E4.7499
G1 X160.433 Y131.473 E4.86469
G1 X162.619 Y130.801 E4.97947
G1 X164.837 Y130.239 E5.09426
G1 X167.079 Y129.789 E5.20905
G1 X169.341 Y129.45 E5.32383
G1 X171.617 Y129.225 E5.43861
G1 X173.737 Y129.121 E5.54512
G1 X176.187 Y129.115 E5.6681
G1 X178.473 Y129.232 E5.78296
G1 X180.749 Y129.461 E5.89775
G1 X183.01 Y129.804 E6.01253
G1 X185.251 Y130.259 E6.12732
G1 X187.467 Y130.826 E6.2421
G1 X189.653 Y131.502 E6.35689
G1 X191.801 Y132.285 E6.47168
G1 X193.908 Y133.175 E6.58646
G1 X195.968 Y134.169 E6.70125
G1 X197.976 Y135.264 E6.81603
G1 X199.927 Y136.458 E6.93082
G1 X201.816 Y137.748 E7.0456
G1 X203.638 Y139.13 E7.16039
G1 X205.39 Y140.601 E7.27518
G1 X207.065 Y142.158 E7.38996
G1 X208.662 Y143.796 E7.50475
G1 X210.174 Y145.511 E7.61953
G1 X211.6 Y147.3 E7.73432
G1 X212.934 Y149.158 E7.8491
G1 X214.174 Y151.08 E7.96389
G1 X215.317 Y153.061 E8.07867
G1 X216.36 Y155.096 E8.19346
G1 X217.3 Y157.181 E8.30825
G1 X218.135 Y159.311 E8.42303
G1 X218.863 Y161.479 E8.53782
G1 X219.482 Y163.681 E8.6526
G1 X219.991 Y165.911 E8.76739
G1 X220.388 Y168.163 E8.88217
G1 X220.672 Y170.433 E8.99696
G1 X220.843 Y172.714 E9.11175
G1 X220.9 Y175 E9.22653
G1 X220.843 Y177.286 E9.34131
G1 X220.672 Y179.567 E9.4561
G1 X220.388 Y181.837 E9.57089
G1 X219.991 Y184.089 E9.68567
G1 X219.482 Y186.319 E9.80046
G1 X218.863 Y188.521 E9.91525
G1 X218.135 Y190.689 E10.03003
G1 X217.3 Y192.819 E10.14481
G1 X216.36 Y194.904 E10.2596
G1 X215.317 Y196.939 E10.37439
G1 X214.174 Y198.92 E10.48917
G1 X212.934 Y200.842 E10.60396
G1 X211.6 Y202.7 E10.71874
G1 X210.174 Y204.489 E10.83353
G1 X208.662 Y206.204 E10.94831
G1 X207.065 Y207.842 E11.0631
G1 X205.39 Y209.399 E11.17788
G1 X203.638 Y210.87 E11.29267
G1 X201.816 Y212.252 E11.40746
G1 X199.927 Y213.542 E11.52224
G1 X197.976 Y214.736 E11.63703
G1 X195.968 Y215.831 E11.75181
G1 X193.908 Y216.825 E11.8666
G1 X191.801 Y217.715 E11.98138
G1 X189.653 Y218.498 E12.09617
G1 X187.467 Y219.174 E12.21096
G1 X185.251 Y219.741 E12.32574
G1 X183.01 Y220.196 E12.44053
G1 X180.749 Y220.539 E12.55531
G1 X178.473 Y220.768 E12.6701
G1 X176.189 Y220.885 E12.78489
G1 X173.902 Y220.887 E12.89967
G1 X171.617 Y220.775 E13.01445
G1 X169.341 Y220.55 E13.12924
G1 X167.079 Y220.211 E13.24402
G1 X164.837 Y219.761 E13.35881
G1 X162.619 Y219.199 E13.4736
G1 X160.433 Y218.527 E13.58838
G1 X158.283 Y217.748 E13.70317
G1 X156.174 Y216.862 E13.81796
G1 X154.112 Y215.872 E13.93274
G1 X152.102 Y214.781 E14.04753
G1 X150.149 Y213.591 E14.16231
G1 X148.257 Y212.305 E14.2771
G1 X146.432 Y210.926 E14.39188
G1 X144.678 Y209.459 E14.50667
G1 X142.999 Y207.905 E14.62145
G1 X141.4 Y206.27 E14.73624
G1 X139.884 Y204.558 E14.85102
G1 X138.455 Y202.772 E14.96581
G1 X137.117 Y200.917 E15.0806
G1 X135.873 Y198.997 E15.19538
G1 X134.726 Y197.019 E15.31017
G1 X133.679 Y194.985 E15.42495
G1 X132.735 Y192.902 E15.53974
G1 X131.896 Y190.774 E15.65453
G1 X131.163 Y188.607 E15.76931
G1 X130.54 Y186.407 E15.8841
G1 X130.027 Y184.178 E15.99888
G1 X129.626 Y181.926 E16.11367
G1 X129.337 Y179.657 E16.22845
G1 X129.22 Y178.133 E16.30516
G1 X128.804 Y178.003 E16.32704
G1 X128.295 Y177.748 E16.35561
G1 X127.806 Y177.377 E16.38643
G1 X127.382 Y176.9 E16.41842
G1 X127.032 Y176.316 E16.45259
G1 X126.727 Y176.698 E16.47714
G1 X126.364 Y177 E16.50082
G1 X125.966 Y177.22 E16.52367
G1 X125.537 Y177.361 E16.54632
G1 X125.027 Y177.422 E16.57211
G1 X124.515 Y177.373 E16.59793
G1 X124.081 Y177.24 E16.62067
G1 X123.675 Y177.027 E16.64368
G1 X123.303 Y176.728 E16.66763
G1 X122.99 Y176.35 E16.6923
G1 X122.778 Y175.962 E16.71447
G1 X122.622 Y175.459 E16.74091
G1 X122.578 Y174.993 E16.76437
G1 X122.633 Y174.487 E16.78991
G1 X122.768 Y174.062 E16.81232
G1 X122.971 Y173.679 E16.83405
G1 X123.28 Y173.295 E16.8588
G1 X123.65 Y172.99 E16.88283
G1 X124.053 Y172.772 E16.90587
G1 X124.483 Y172.634 E16.92853
G1 X124.995 Y172.578 E16.95436
G1 X125.506 Y172.632 E16.98014
G1 X125.935 Y172.767 E17.00274
G1 X126.336 Y172.981 E17.02555
G1 X126.703 Y173.279 E17.04928
G1 X127.014 Y173.656 E17.07379
G1 X127.004 Y174.498 F7800
G1 F1800
G1 X127.16 Y174.495 E17.08163
G1 X127.284 Y174.017 E17.10641
G1 X127.517 Y173.527 E17.13366
G1 X127.675 Y173.289 E17.14799
G1 X127.927 Y172.99 E17.1676
G1 X128.382 Y172.607 E17.19746
G1 X128.876 Y172.339 E17.22563
G1 X129.399 Y172.176 E17.25316
G1 X129.543 Y172.156 E17.26046
G1 X129.68 Y170.378 E17.34994
G1 X129.967 Y168.126 E17.46386
G1 X130.365 Y165.891 E17.57779
G1 X130.874 Y163.679 E17.69171
G1 X131.493 Y161.495 E17.80563
G1 X132.22 Y159.344 E17.91955
G1 X133.053 Y157.233 E18.03348
G1 X133.99 Y155.165 E18.1474
G1 X135.029 Y153.147 E18.26132
G1 X136.167 Y151.183 E18.37525
G1 X137.402 Y149.278 E18.48917
G1 X138.73 Y147.437 E18.60309
G1 X140.148 Y145.664 E18.71701
G1 X141.652 Y143.965 E18.83094
G1 X143.24 Y142.342 E18.94486
G1 X144.906 Y140.8 E19.05878
G1 X146.647 Y139.344 E19.17271
G1 X148.458 Y137.976 E19.28663
G1 X150.336 Y136.699 E19.40055
G1 X152.274 Y135.518 E19.51447
G1 X154.269 Y134.435 E19.6284
G1 X156.316 Y133.453 E19.74232
G1 X158.409 Y132.574 E19.85624
G1 X160.543 Y131.8 E19.97016
G1 X162.713 Y131.133 E20.08409
G1 X164.913 Y130.576 E20.19801
G1 X167.139 Y130.128 E20.31194
G1 X169.383 Y129.792 E20.42586
G1 X171.642 Y129.569 E20.53978
G1 X173.746 Y129.466 E20.64545
G1 X176.179 Y129.46 E20.76757
G1 X178.447 Y129.576 E20.88154
G1 X180.705 Y129.804 E20.99546
G1 X182.95 Y130.144 E21.10939
G1 X185.174 Y130.596 E21.22331
G1 X187.374 Y131.158 E21.33723
G1 X189.542 Y131.828 E21.45115
G1 X191.675 Y132.606 E21.56508
G1 X193.766 Y133.49 E21.679
G1 X195.811 Y134.476 E21.79292
G1 X197.803 Y135.563 E21.90684
G1 X199.74 Y136.748 E22.02077
G1 X201.614 Y138.028 E22.13469
G1 X203.423 Y139.4 E22.24861
G1 X205.161 Y140.86 E22.36254
G1 X206.824 Y142.405 E22.47646
G1 X208.409 Y144.03 E22.59038
G1 X209.91 Y145.733 E22.7043
G1 X211.325 Y147.508 E22.81823
G1 X212.649 Y149.352 E22.93215
G1 X213.88 Y151.259 E23.04607
G1 X215.014 Y153.226 E23.16
G1 X216.049 Y155.246 E23.27392
G1 X216.982 Y157.315 E23.38784
G1 X217.811 Y159.429 E23.50177
G1 X218.534 Y161.581 E23.61569
G1 X219.148 Y163.766 E23.72961
G1 X219.653 Y165.979 E23.84353
G1 X220.047 Y168.215 E23.95746
G1 X220.329 Y170.467 E24.07138
G1 X220.499 Y172.731 E24.1853
G1 X220.555 Y175 E24.29922
G1 X220.499 Y177.269 E24.41315
G1 X220.329 Y179.533 E24.52707
G1 X220.047 Y181.785 E24.64099
G1 X219.653 Y184.021 E24.75492
G1 X219.148 Y186.234 E24.86884
G1 X218.534 Y188.419 E24.98276
G1 X217.811 Y190.571 E25.09668
G1 X216.982 Y192.685 E25.21061
G1 X216.049 Y194.754 E25.32453
G1 X215.014 Y196.774 E25.43845
G1 X213.88 Y198.741 E25.55237
G1 X212.649 Y200.648 E25.6663
G1 X211.325 Y202.492 E25.78022
G1 X209.91 Y204.267 E25.89414
G1 X208.409 Y205.97 E26.00807
G1 X206.824 Y207.595 E26.12199
G1 X205.161 Y209.14 E26.23591
G1 X203.423 Y210.6 E26.34984
G1 X201.614 Y211.972 E26.46376
G1 X199.74 Y213.252 E26.57768
G1 X197.803 Y214.437 E26.69161
G1 X195.811 Y215.524 E26.80553
G1 X193.766 Y216.51 E26.91945
G1 X191.675 Y217.394 E27.03337
G1 X189.542 Y218.172 E27.1473
G1 X187.374 Y218.842 E27.26122
G1 X185.174 Y219.404 E27.37514
G1 X182.95 Y219.856 E27.48906
G1 X180.705 Y220.196 E27.60299
G1 X178.447 Y220.424 E27.71691
G1 X176.18 Y220.54 E27.83083
G1 X173.91 Y220.542 E27.94475
G1 X171.642 Y220.431 E28.05868
G1 X169.383 Y220.208 E28.1726
G1 X167.139 Y219.872 E28.28652
G1 X164.913 Y219.424 E28.40045
G1 X162.713 Y218.867 E28.51437
G1 X160.543 Y218.2 E28.62829
G1 X158.409 Y217.426 E28.74221
G1 X156.316 Y216.547 E28.85614
G1 X154.269 Y215.565 E28.97006
G1 X152.274 Y214.482 E29.08398
G1 X150.336 Y213.301 E29.19791
G1 X148.458 Y212.024 E29.31183
G1 X146.647 Y210.656 E29.42575
G1 X144.906 Y209.2 E29.53968
G1 X143.24 Y207.658 E29.6536
G1 X141.652 Y206.035 E29.76752
G1 X140.148 Y204.336 E29.88144
G1 X138.73 Y202.563 E29.99537
G1 X137.402 Y200.722 E30.10929
G1 X136.167 Y198.817 E30.22321
G1 X135.029 Y196.853 E30.33714
G1 X133.99 Y194.835 E30.45106
G1 X133.053 Y192.767 E30.56498
G1 X132.22 Y190.656 E30.67891
G1 X131.493 Y188.505 E30.79283
G1 X130.874 Y186.321 E30.90675
G1 X130.365 Y184.109 E31.02067
G1 X129.967 Y181.874 E31.1346
G1 X129.68 Y179.622 E31.24852
G1 X129.544 Y177.851 E31.33768
G1 X129.238 Y177.784 E31.3534
G1 X128.936 Y177.684 E31.36937
G1 X128.478 Y177.454 E31.39508
G1 X128.041 Y177.123 E31.4226
G1 X127.662 Y176.695 E31.45128
G1 X127.408 Y176.272 E31.47606
G1 X127.265 Y175.922 E31.49501
G1 X127.17 Y175.526 E31.51548
G1 X127.005 Y175.512 E31.52377
G1 X126.913 Y175.803 E31.53909
G1 X126.742 Y176.127 E31.55748
G1 X126.479 Y176.456 E31.57861
G1 X126.169 Y176.714 E31.59888
G1 X125.827 Y176.903 E31.61846
G1 X125.462 Y177.023 E31.63776
G1 X125.023 Y177.075 E31.65995
G1 X124.582 Y177.033 E31.68216
G1 X124.213 Y176.92 E31.70155
G1 X123.865 Y176.737 E31.72125
G1 X123.547 Y176.481 E31.74177
G1 X123.276 Y176.155 E31.76303
G1 X123.097 Y175.827 E31.7818
G1 X122.962 Y175.391 E31.8047
G1 X122.925 Y174.996 E31.82461
G1 X122.972 Y174.559 E31.84667
G1 X123.088 Y174.196 E31.8658
G1 X123.26 Y173.869 E31.88432
G1 X123.527 Y173.539 E31.90564
G1 X123.843 Y173.278 E31.92623
G1 X124.189 Y173.09 E31.94597
G1 X124.555 Y172.973 E31.96527
G1 X124.996 Y172.924 E31.98749
G1 X125.435 Y172.971 E32.00967
G1 X125.801 Y173.086 E32.02894
G1 X126.145 Y173.27 E32.04848
G1 X126.459 Y173.525 E32.0688
G1 X126.726 Y173.849 E32.08986
G1 X126.904 Y174.175 E32.1085
G1 X126.986 Y174.441 E32.12249
G1 E30.12249 F2400
G92 E0
G1 X129.865 Y177.527 F7800
G1 E2 F2400
;TYPE:External perimeter
G1 F1800
G1 X129.593 Y177.509 E2.01366
G1 X129.329 Y177.451 E2.02724
G1 X129.068 Y177.364 E2.04104
G1 X128.661 Y177.16 E2.06389
G1 X128.277 Y176.868 E2.08811
G1 X127.941 Y176.49 E2.11349
G1 X127.717 Y176.117 E2.13534
G1 X127.591 Y175.809 E2.15201
G1 X127.526 Y175.579 E2.16403
G1 X127.461 Y175.114 E2.1876
G1 X127.491 Y174.594 E2.21374
G1 X127.61 Y174.135 E2.23751
G1 X127.818 Y173.697 E2.26188
G1 X127.952 Y173.496 E2.27399
G1 X128.172 Y173.235 E2.29113
G1 X128.577 Y172.893 E2.31774
G1 X129.011 Y172.659 E2.34247
G1 X129.475 Y172.513 E2.36688
G1 X129.866 Y172.459 E2.38669
G1 X130.023 Y170.413 E2.48969
G1 X130.308 Y168.178 E2.60274
G1 X130.703 Y165.96 E2.71581
G1 X131.208 Y163.765 E2.82886
G1 X131.822 Y161.597 E2.94193
G1 X132.544 Y159.463 E3.05498
G1 X133.37 Y157.367 E3.16805
G1 X134.3 Y155.315 E3.28111
G1 X135.331 Y153.312 E3.39416
G1 X136.461 Y151.363 E3.50723
G1 X137.686 Y149.473 E3.62029
G1 X139.004 Y147.646 E3.73335
G1 X140.412 Y145.887 E3.84641
G1 X141.905 Y144.2 E3.95947
G1 X143.48 Y142.589 E4.07253
G1 X145.134 Y141.059 E4.18559
