; generated by PrusaSlicer 2.4.2 on 2022-07-12 at 03:35:50 UTC

; 

; external perimeters extrusion width = 0.45mm
; perimeters extrusion width = 0.45mm
; infill extrusion width = 0.45mm
; solid infill extrusion width = 0.45mm
; top infill extrusion width = 0.40mm
; first layer extrusion width = 0.42mm

M107
M190 S60 ; set bed temperature and wait for it to be reached
M104 S215 ; set temperature
;TYPE:Custom
G28 ; home all axes
G1 Z5 F5000 ; lift nozzle
M109 S215 ; set temperature and wait for it to be reached
G21 ; set units to millimeters
G90 ; use absolute coordinates
M82 ; use absolute distances for extrusion
G92 E0
; Filament gcode
M107
;LAYER_CHANGE
;Z:0.35
;HEIGHT:0.35
G1 Z.35 F7800
G1 E-2 F2400
G92 E0
G1 X134.802 Y134.013 F7800
G1 E2 F2400
;TYPE:Skirt/Brim
;WIDTH:0.42
G1 F1800
G1 X136.895 Y132.06 E2.14365
G1 X139.082 Y130.214 E2.28731
G1 X141.359 Y128.48 E2.43097
G1 X143.72 Y126.861 E2.57463
G1 X146.158 Y125.361 E2.71829
G1 X148.669 Y123.985 E2.86194
G1 X151.244 Y122.736 E3.0056
G1 X153.879 Y121.617 E3.14926
G1 X156.566 Y120.631 E3.29292
G1 X159.299 Y119.779 E3.43657
G1 X162.071 Y119.065 E3.58023
G1 X164.875 Y118.491 E3.72389
G1 X167.661 Y118.063 E3.86531
G1 X170.868 Y117.74 E4.02707
G1 X173.727 Y117.605 E4.17073
G1 X176.589 Y117.613 E4.31439
G1 X179.448 Y117.763 E4.45804
G1 X182.295 Y118.056 E4.6017
G1 X185.125 Y118.491 E4.74536
G1 X187.929 Y119.065 E4.88902
G1 X190.701 Y119.779 E5.03268
G1 X193.434 Y120.631 E5.17633
G1 X196.121 Y121.617 E5.31999
G1 X198.756 Y122.736 E5.46365
G1 X201.05 Y123.841 E5.59144
G1 X203.568 Y125.203 E5.73509
G1 X206.014 Y126.689 E5.87875
G1 X208.384 Y128.295 E6.02241
G1 X210.67 Y130.017 E6.16606
G1 X212.868 Y131.851 E6.30972
G1 X214.972 Y133.792 E6.45339
G1 X216.976 Y135.836 E6.59705
G1 X218.876 Y137.977 E6.7407
G1 X220.667 Y140.21 E6.88435
G1 X222.345 Y142.53 E7.02801
G1 X223.904 Y144.93 E7.17167
G1 X225.342 Y147.405 E7.31533
G1 X226.655 Y149.949 E7.45898
G1 X227.84 Y152.555 E7.60264
G1 X228.893 Y155.216 E7.74631
G1 X229.812 Y157.927 E7.88996
G1 X230.595 Y160.681 E8.03362
G1 X231.239 Y163.47 E8.17727
G1 X231.744 Y166.287 E8.32094
G1 X232.108 Y169.126 E8.46459
G1 X232.33 Y171.981 E8.60825
G1 X232.409 Y174.842 E8.75191
G1 X232.346 Y177.704 E8.89556
G1 X232.14 Y180.559 E9.03922
G1 X231.791 Y183.4 E9.18288
G1 X231.302 Y186.22 E9.32653
G1 X230.673 Y189.013 E9.47019
G1 X229.905 Y191.771 E9.61385
G1 X229.001 Y194.486 E9.75751
G1 X227.963 Y197.154 E9.90116
G1 X226.792 Y199.766 E10.04482
G1 X225.494 Y202.317 E10.18848
G1 X224.069 Y204.8 E10.33214
G1 X222.523 Y207.209 E10.4758
G1 X220.858 Y209.538 E10.61945
G1 X219.08 Y211.781 E10.76311
G1 X217.191 Y213.932 E10.90677
G1 X215.198 Y215.987 E11.05043
G1 X213.105 Y217.94 E11.19408
G1 X210.918 Y219.786 E11.33774
G1 X208.641 Y221.52 E11.4814
G1 X206.28 Y223.139 E11.62506
G1 X203.842 Y224.639 E11.76871
G1 X201.331 Y226.015 E11.91237
G1 X198.756 Y227.264 E12.05603
G1 X196.121 Y228.383 E12.19969
G1 X193.434 Y229.369 E12.34334
G1 X190.701 Y230.221 E12.48701
G1 X187.929 Y230.935 E12.63066
G1 X185.125 Y231.509 E12.77432
G1 X182.339 Y231.937 E12.91574
G1 X179.132 Y232.26 E13.0775
G1 X176.273 Y232.395 E13.22116
G1 X173.411 Y232.387 E13.36482
G1 X170.552 Y232.237 E13.50847
G1 X168.018 Y231.983 E13.63627
G1 X165.187 Y231.564 E13.77992
G1 X162.379 Y231.005 E13.92357
G1 X159.604 Y230.306 E14.06723
G1 X156.866 Y229.47 E14.21089
G1 X154.173 Y228.498 E14.35455
G1 X151.533 Y227.394 E14.4982
G1 X148.95 Y226.159 E14.64187
G1 X146.432 Y224.797 E14.78552
G1 X143.986 Y223.311 E14.92918
G1 X141.616 Y221.705 E15.07283
G1 X139.33 Y219.983 E15.21649
G1 X137.132 Y218.149 E15.36015
G1 X135.028 Y216.208 E15.50381
G1 X133.024 Y214.164 E15.64747
G1 X131.124 Y212.023 E15.79113
G1 X129.333 Y209.79 E15.93478
G1 X127.655 Y207.47 E16.07844
G1 X126.096 Y205.07 E16.2221
G1 X124.658 Y202.595 E16.36576
G1 X123.345 Y200.051 E16.50941
G1 X122.16 Y197.445 E16.65307
G1 X121.107 Y194.784 E16.79673
G1 X120.188 Y192.073 E16.94038
G1 X119.405 Y189.319 E17.08404
G1 X118.761 Y186.53 E17.2277
G1 X118.256 Y183.713 E17.37136
G1 X117.892 Y180.874 E17.51501
G1 X117.67 Y178.019 E17.65868
G1 X117.591 Y175.158 E17.80233
G1 X117.654 Y172.296 E17.94599
G1 X117.86 Y169.441 E18.08964
G1 X118.209 Y166.6 E18.2333
G1 X118.698 Y163.78 E18.37696
G1 X119.327 Y160.987 E18.52062
G1 X120.095 Y158.229 E18.66428
G1 X120.999 Y155.514 E18.80793
G1 X122.037 Y152.846 E18.95159
G1 X123.208 Y150.234 E19.09526
G1 X124.506 Y147.683 E19.23891
G1 X125.931 Y145.2 E19.38256
G1 X127.477 Y142.791 E19.52623
G1 X129.142 Y140.462 E19.66988
G1 X130.92 Y138.219 E19.81354
G1 X132.809 Y136.068 E19.95719
G1 X134.76 Y134.056 E20.09784
G1 E18.09784 F2400
G92 E0
G1 X142.939 Y142.154 F7800
G1 E2 F2400
;TYPE:Perimeter
G1 F1800
G1 X144.629 Y140.585 E2.11572
G1 X146.382 Y139.114 E2.23058
G1 X148.206 Y137.732 E2.34544
G1 X150.097 Y136.443 E2.46029
G1 X152.05 Y135.249 E2.57515
G1 X154.06 Y134.155 E2.69001
G1 X156.122 Y133.162 E2.80486
G1 X158.231 Y132.273 E2.91972
G1 X160.381 Y131.49 E3.03458
G1 X162.568 Y130.815 E3.14944
G1 X164.786 Y130.251 E3.2643
G1 X167.03 Y129.797 E3.37915
G1 X169.293 Y129.456 E3.49401
G1 X171.57 Y129.228 E3.60887
G1 X173.856 Y129.114 E3.72373
G1 X176.144 Y129.114 E3.83858
G1 X178.43 Y129.228 E3.95344
G1 X180.707 Y129.456 E4.0683
G1 X182.97 Y129.797 E4.18316
G1 X185.214 Y130.251 E4.29801
G1 X187.432 Y130.815 E4.41287
G1 X189.619 Y131.49 E4.52773
G1 X191.769 Y132.273 E4.64259
G1 X193.878 Y133.162 E4.75744
G1 X195.94 Y134.155 E4.8723
G1 X197.95 Y135.249 E4.98716
G1 X199.903 Y136.443 E5.10201
G1 X201.794 Y137.732 E5.21687
G1 X203.618 Y139.114 E5.33173
G1 X205.371 Y140.585 E5.44659
G1 X207.049 Y142.142 E5.56144
G1 X208.647 Y143.78 E5.6763
G1 X210.161 Y145.496 E5.79116
G1 X211.588 Y147.285 E5.90602
G1 X212.924 Y149.144 E6.02087
G1 X214.166 Y151.066 E6.13573
G1 X215.31 Y153.048 E6.25059
G1 X216.355 Y155.085 E6.36545
G1 X217.296 Y157.171 E6.4803
G1 X218.132 Y159.301 E6.59516
G1 X218.861 Y161.471 E6.71002
G1 X219.481 Y163.674 E6.82488
G1 X219.99 Y165.905 E6.93973
G1 X220.387 Y168.159 E7.05459
G1 X220.672 Y170.43 E7.16945
G1 X220.843 Y172.712 E7.28431
G1 X220.9 Y175 E7.39916
G1 X220.843 Y177.288 E7.51402
G1 X220.672 Y179.57 E7.62888
G1 X220.387 Y181.841 E7.74374
G1 X219.99 Y184.095 E7.8586
G1 X219.481 Y186.326 E7.97345
G1 X218.861 Y188.529 E8.08831
G1 X218.132 Y190.699 E8.20317
G1 X217.296 Y192.829 E8.31802
G1 X216.355 Y194.915 E8.43288
G1 X215.31 Y196.952 E8.54774
G1 X214.166 Y198.934 E8.6626
G1 X212.924 Y200.856 E8.77746
G1 X211.588 Y202.715 E8.89231
G1 X210.161 Y204.505 E9.00725
G1 X208.535 Y206.335 E9.1301
G1 X207.049 Y207.858 E9.23687
G1 X205.371 Y209.415 E9.35174
G1 X203.618 Y210.886 E9.46659
G1 X201.794 Y212.268 E9.58145
G1 X199.903 Y213.557 E9.69631
G1 X197.95 Y214.751 E9.81116
G1 X195.94 Y215.845 E9.92602
G1 X193.878 Y216.838 E10.04088
G1 X191.769 Y217.727 E10.15574
G1 X189.619 Y218.51 E10.27059
G1 X187.432 Y219.185 E10.38545
G1 X185.214 Y219.749 E10.50031
G1 X182.97 Y220.203 E10.61516
G1 X180.707 Y220.544 E10.73002
G1 X178.43 Y220.772 E10.84488
G1 X176.144 Y220.886 E10.95974
G1 X173.856 Y220.886 E11.07459
G1 X171.57 Y220.772 E11.18945
G1 X169.293 Y220.544 E11.30431
G1 X167.03 Y220.203 E11.41917
G1 X164.786 Y219.749 E11.53402
G1 X162.568 Y219.185 E11.64888
G1 X160.381 Y218.51 E11.76374
G1 X158.231 Y217.727 E11.8786
G1 X156.122 Y216.838 E11.99346
G1 X154.06 Y215.845 E12.10831
G1 X152.05 Y214.751 E12.22317
G1 X150.097 Y213.557 E12.33803
G1 X148.206 Y212.268 E12.45288
G1 X146.382 Y210.886 E12.56775
G1 X144.629 Y209.415 E12.6826
G1 X142.951 Y207.858 E12.79746
G1 X141.353 Y206.22 E12.91231
G1 X139.839 Y204.504 E13.02717
G1 X138.412 Y202.715 E13.14203
G1 X137.076 Y200.856 E13.25689
G1 X135.834 Y198.934 E13.37175
G1 X134.69 Y196.952 E13.4866
G1 X133.645 Y194.915 E13.60146
G1 X132.704 Y192.829 E13.71632
G1 X131.868 Y190.699 E13.83118
G1 X131.139 Y188.529 E13.94603
G1 X130.519 Y186.326 E14.06089
G1 X130.01 Y184.095 E14.17574
G1 X129.613 Y181.841 E14.29061
G1 X129.328 Y179.57 E14.40547
G1 X129.157 Y177.288 E14.52032
G1 X129.1 Y175 E14.63518
G1 X129.157 Y172.712 E14.75004
G1 X129.328 Y170.43 E14.86489
G1 X129.613 Y168.159 E14.97975
G1 X130.01 Y165.905 E15.09461
G1 X130.519 Y163.674 E15.20946
G1 X131.139 Y161.471 E15.32432
G1 X131.868 Y159.301 E15.43918
G1 X132.645 Y157.321 E15.54595
G1 X133.645 Y155.086 E15.66881
G1 X134.69 Y153.048 E15.78374
G1 X135.834 Y151.066 E15.8986
G1 X137.076 Y149.144 E16.01346
G1 X138.412 Y147.285 E16.12832
G1 X139.839 Y145.496 E16.24317
G1 X141.353 Y143.78 E16.35803
G1 X142.897 Y142.197 E16.46901
G1 X143.186 Y142.395 F7800
G1 F1800
G1 X144.857 Y140.844 E16.58344
G1 X146.597 Y139.384 E16.69743
G1 X148.408 Y138.012 E16.81143
G1 X150.284 Y136.733 E16.92542
G1 X152.222 Y135.548 E17.03941
G1 X154.217 Y134.462 E17.15341
G1 X156.264 Y133.476 E17.26741
G1 X158.357 Y132.594 E17.3814
G1 X160.491 Y131.817 E17.49539
G1 X162.662 Y131.148 E17.60939
G1 X164.863 Y130.587 E17.72338
G1 X167.089 Y130.137 E17.83738
G1 X169.336 Y129.798 E17.95137
G1 X171.596 Y129.572 E18.06536
G1 X173.864 Y129.459 E18.17936
G1 X176.136 Y129.459 E18.29335
G1 X178.404 Y129.572 E18.40735
G1 X180.664 Y129.798 E18.52134
G1 X182.911 Y130.137 E18.63534
G1 X185.137 Y130.587 E18.74933
G1 X187.338 Y131.148 E18.86332
G1 X189.509 Y131.817 E18.97732
G1 X191.643 Y132.594 E19.09131
G1 X193.736 Y133.476 E19.20531
G1 X195.783 Y134.462 E19.3193
G1 X197.778 Y135.548 E19.4333
G1 X199.716 Y136.733 E19.54729
G1 X201.592 Y138.012 E19.66128
G1 X203.403 Y139.384 E19.77528
G1 X205.143 Y140.844 E19.88927
G1 X206.808 Y142.389 E20.00327
G1 X208.394 Y144.015 E20.11726
G1 X209.897 Y145.718 E20.23125
G1 X211.313 Y147.494 E20.34525
G1 X212.639 Y149.338 E20.45924
G1 X213.872 Y151.246 E20.57324
G1 X215.007 Y153.213 E20.68723
G1 X216.044 Y155.234 E20.80123
G1 X216.978 Y157.305 E20.91522
G1 X217.808 Y159.419 E21.02921
G1 X218.531 Y161.572 E21.14321
G1 X219.146 Y163.759 E21.2572
G1 X219.652 Y165.973 E21.37119
G1 X220.046 Y168.21 E21.48519
G1 X220.329 Y170.464 E21.59919
G1 X220.498 Y172.729 E21.71318
G1 X220.555 Y175 E21.82717
G1 X220.498 Y177.271 E21.94117
G1 X220.329 Y179.536 E22.05516
G1 X220.046 Y181.79 E22.16916
G1 X219.652 Y184.027 E22.28315
G1 X219.146 Y186.241 E22.39714
G1 X218.531 Y188.428 E22.51114
G1 X217.808 Y190.581 E22.62513
G1 X216.978 Y192.695 E22.73913
G1 X216.044 Y194.766 E22.85312
G1 X215.007 Y196.787 E22.96712
G1 X213.872 Y198.754 E23.08111
G1 X212.639 Y200.662 E23.1951
G1 X211.313 Y202.506 E23.3091
G1 X209.897 Y204.283 E23.42314
G1 X208.282 Y206.1 E23.54513
G1 X206.808 Y207.611 E23.65107
G1 X205.143 Y209.156 E23.76507
G1 X203.403 Y210.616 E23.87906
G1 X201.592 Y211.988 E23.99305
G1 X199.716 Y213.267 E24.10705
G1 X197.778 Y214.452 E24.22104
G1 X195.783 Y215.538 E24.33504
G1 X193.736 Y216.524 E24.44903
G1 X191.643 Y217.406 E24.56302
G1 X189.509 Y218.183 E24.67702
G1 X187.338 Y218.852 E24.79101
G1 X185.137 Y219.413 E24.90501
G1 X182.911 Y219.863 E25.019
G1 X180.664 Y220.202 E25.133
G1 X178.404 Y220.428 E25.24699
G1 X176.136 Y220.541 E25.36099
G1 X173.864 Y220.541 E25.47498
G1 X171.596 Y220.428 E25.58897
G1 X169.336 Y220.202 E25.70297
G1 X167.089 Y219.863 E25.81696
G1 X164.863 Y219.413 E25.93095
G1 X162.662 Y218.852 E26.04495
G1 X160.491 Y218.183 E26.15894
G1 X158.357 Y217.406 E26.27294
G1 X156.264 Y216.524 E26.38693
G1 X154.217 Y215.538 E26.50093
G1 X152.222 Y214.452 E26.61492
G1 X150.284 Y213.267 E26.72891
G1 X148.408 Y211.988 E26.84291
G1 X146.597 Y210.616 E26.9569
G1 X144.857 Y209.156 E27.0709
G1 X143.192 Y207.611 E27.18489
G1 X141.606 Y205.985 E27.29889
G1 X140.103 Y204.282 E27.41288
G1 X138.687 Y202.506 E27.52688
G1 X137.361 Y200.662 E27.64087
G1 X136.128 Y198.754 E27.75486
G1 X134.993 Y196.787 E27.86886
G1 X133.956 Y194.766 E27.98285
G1 X133.022 Y192.695 E28.09685
G1 X132.192 Y190.581 E28.21084
G1 X131.469 Y188.428 E28.32483
G1 X130.854 Y186.241 E28.43883
G1 X130.348 Y184.027 E28.55282
G1 X129.954 Y181.79 E28.66682
G1 X129.671 Y179.536 E28.78081
G1 X129.502 Y177.271 E28.89481
G1 X129.445 Y175 E29.0088
G1 X129.502 Y172.729 E29.12279
G1 X129.671 Y170.464 E29.23679
G1 X129.954 Y168.21 E29.35078
G1 X130.348 Y165.973 E29.46478
G1 X130.854 Y163.759 E29.57877
G1 X131.469 Y161.572 E29.69276
G1 X132.192 Y159.419 E29.80676
G1 X132.963 Y157.454 E29.9127
G1 X133.956 Y155.235 E30.03469
G1 X134.993 Y153.213 E30.14873
G1 X136.128 Y151.246 E30.26273
G1 X137.361 Y149.338 E30.37672
G1 X138.687 Y147.494 E30.49071
G1 X140.103 Y145.718 E30.60471
G1 X141.606 Y144.015 E30.7187
G1 X143.144 Y142.438 E30.82925
G1 X143.433 Y142.636 F7800
;TYPE:External perimeter
G1 F1800
G1 X145.085 Y141.102 E30.94239
G1 X146.812 Y139.653 E31.05552
G1 X148.609 Y138.292 E31.16865
G1 X150.471 Y137.022 E31.28178
G1 X152.395 Y135.847 E31.39491
G1 X154.375 Y134.769 E31.50804
G1 X156.406 Y133.791 E31.62117
G1 X158.483 Y132.915 E31.7343
G1 X160.601 Y132.144 E31.84743
G1 X162.755 Y131.48 E31.96056
G1 X164.94 Y130.923 E32.0737
G1 X167.149 Y130.477 E32.18682
G1 X169.378 Y130.141 E32.29996
G1 X171.621 Y129.916 E32.41309
G1 X173.873 Y129.804 E32.52622
G1 X176.127 Y129.804 E32.63935
G1 X178.379 Y129.916 E32.75248
G1 X180.622 Y130.141 E32.86561
G1 X182.851 Y130.477 E32.97874
G1 X185.06 Y130.923 E33.09187
G1 X187.245 Y131.48 E33.205
G1 X189.399 Y132.144 E33.31813
G1 X191.517 Y132.915 E33.43127
G1 X193.594 Y133.791 E33.5444
G1 X195.625 Y134.769 E33.65753
G1 X197.605 Y135.847 E33.77066
G1 X199.529 Y137.022 E33.88379
G1 X201.391 Y138.292 E33.99692
G1 X203.188 Y139.653 E34.11005
G1 X204.915 Y141.102 E34.22318
G1 X206.567 Y142.636 E34.33631
G1 X208.141 Y144.249 E34.44944
G1 X209.633 Y145.94 E34.56257
G1 X211.038 Y147.702 E34.67571
G1 X212.354 Y149.532 E34.78884
G1 X213.577 Y151.426 E34.90197
G1 X214.704 Y153.378 E35.0151
G1 X215.733 Y155.384 E35.12823
G1 X216.66 Y157.439 E35.24136
G1 X217.484 Y159.537 E35.35449
G1 X218.202 Y161.674 E35.46762
G1 X218.812 Y163.844 E35.58075
G1 X219.314 Y166.042 E35.69388
G1 X219.705 Y168.262 E35.80701
G1 X219.985 Y170.499 E35.92015
G1 X220.154 Y172.746 E36.03328
G1 X220.21 Y175 E36.14641
G1 X220.154 Y177.254 E36.25954
G1 X219.985 Y179.501 E36.37267
G1 X219.705 Y181.738 E36.4858
G1 X219.314 Y183.958 E36.59893
G1 X218.812 Y186.156 E36.71206
G1 X218.202 Y188.326 E36.82519
G1 X217.484 Y190.463 E36.93832
G1 X216.66 Y192.561 E37.05145
G1 X215.733 Y194.616 E37.16459
G1 X214.704 Y196.622 E37.27772
G1 X213.577 Y198.574 E37.39085
G1 X212.354 Y200.468 E37.50398
G1 X211.038 Y202.298 E37.61711
G1 X209.633 Y204.061 E37.73026
G1 X208.03 Y205.865 E37.85139
G1 X206.567 Y207.364 E37.95649
G1 X204.915 Y208.898 E38.06962
G1 X203.188 Y210.347 E38.18275
G1 X201.391 Y211.708 E38.29589
G1 X199.529 Y212.978 E38.40902
G1 X197.605 Y214.153 E38.52215
G1 X195.625 Y215.231 E38.63528
G1 X193.594 Y216.209 E38.74841
G1 X191.517 Y217.085 E38.86154
G1 X189.399 Y217.856 E38.97467
G1 X187.245 Y218.52 E39.0878
G1 X185.06 Y219.077 E39.20093
G1 X182.851 Y219.523 E39.31406
G1 X180.622 Y219.859 E39.42719
G1 X178.379 Y220.084 E39.54033
G1 X176.127 Y220.196 E39.65346
G1 X173.873 Y220.196 E39.76659
G1 X171.621 Y220.084 E39.87972
G1 X169.378 Y219.859 E39.99285
G1 X167.149 Y219.523 E40.10598
G1 X164.94 Y219.077 E40.21911
G1 X162.755 Y218.52 E40.33224
G1 X160.601 Y217.856 E40.44537
G1 X158.483 Y217.085 E40.5585
G1 X156.406 Y216.209 E40.67163
G1 X154.375 Y215.231 E40.78476
G1 X152.395 Y214.153 E40.8979
G1 X150.471 Y212.978 E41.01103
G1 X148.609 Y211.708 E41.12416
G1 X146.812 Y210.347 E41.23729
G1 X145.085 Y208.898 E41.35042
G1 X143.433 Y207.364 E41.46355
G1 X141.859 Y205.751 E41.57668
G1 X140.367 Y204.06 E41.68981
G1 X138.962 Y202.298 E41.80294
G1 X137.646 Y200.468 E41.91607
G1 X136.423 Y198.574 E42.02921
G1 X135.296 Y196.622 E42.14234
G1 X134.267 Y194.616 E42.25547
G1 X133.34 Y192.561 E42.3686
G1 X132.516 Y190.463 E42.48173
G1 X131.798 Y188.326 E42.59486
G1 X131.188 Y186.156 E42.70799
G1 X130.686 Y183.958 E42.82112
G1 X130.295 Y181.738 E42.93425
G1 X130.015 Y179.501 E43.04738
G1 X129.846 Y177.254 E43.16051
G1 X129.79 Y175 E43.27365
G1 X129.846 Y172.746 E43.38678
G1 X130.015 Y170.499 E43.49991
G1 X130.295 Y168.262 E43.61304
G1 X130.686 Y166.042 E43.72617
G1 X131.188 Y163.844 E43.8393
G1 X131.798 Y161.674 E43.95243
