; generated by PrusaSlicer 2.4.2 on 2022-07-24 at 18:20:08 UTC

; 

; external perimeters extrusion width = 0.45mm
; perimeters extrusion width = 0.45mm
; infill extrusion width = 0.45mm
; solid infill extrusion width = 0.45mm
; top infill extrusion width = 0.40mm
; first layer extrusion width = 0.42mm

; external perimeters extrusion width = 0.45mm
; perimeters extrusion width = 0.45mm
; infill extrusion width = 0.45mm
; solid infill extrusion width = 0.45mm
; top infill extrusion width = 0.40mm
; first layer extrusion width = 0.42mm

; external perimeters extrusion width = 0.45mm
; perimeters extrusion width = 0.45mm
; infill extrusion width = 0.45mm
; solid infill extrusion width = 0.45mm
; top infill extrusion width = 0.40mm
; first layer extrusion width = 0.42mm

; external perimeters extrusion width = 0.45mm
; perimeters extrusion width = 0.45mm
; infill extrusion width = 0.45mm
; solid infill extrusion width = 0.45mm
; top infill extrusion width = 0.40mm
; first layer extrusion width = 0.42mm

; external perimeters extrusion width = 0.45mm
; perimeters extrusion width = 0.45mm
; infill extrusion width = 0.45mm
; solid infill extrusion width = 0.45mm
; top infill extrusion width = 0.40mm
; first layer extrusion width = 0.42mm

M107
M190 S60 ; set bed temperature and wait for it to be reached
M104 S215 ; set temperature
;TYPE:Custom
G28 ; home all axes
G1 Z5 F5000 ; lift nozzle
M109 S215 ; set temperature and wait for it to be reached
G21 ; set units to millimeters
G90 ; use absolute coordinates
M82 ; use absolute distances for extrusion
G92 E0
; Filament gcode
M107
;LAYER_CHANGE
;Z:0.35
;HEIGHT:0.35
G1 Z.35 F7800
G1 E-2 F2400
G92 E0
G1 Z3.35 F7800
G1 X18.488 Y19.043
G1 Z.35
G1 E2 F2400
;TYPE:Skirt/Brim
;WIDTH:0.42
G1 F1800
G1 X19.761 Y17.922 E2.08512
G1 X20.626 Y17.282 E2.13913
G1 X22.02 Y16.424 E2.22127
G1 X23.031 Y15.909 E2.27825
G1 X24.605 Y15.276 E2.36337
G1 X25.634 Y14.961 E2.41738
G1 X27.292 Y14.604 E2.5025
G1 X28.36 Y14.467 E2.5565
G1 X30.054 Y14.395 E2.64163
G1 X269.565 Y14.562 E14.66172
G1 X272.049 Y14.829 E14.78708
G1 X273.101 Y15.055 E14.84108
G1 X274.723 Y15.552 E14.92621
G1 X275.721 Y15.953 E14.98022
G1 X277.236 Y16.717 E15.06534
G1 X278.152 Y17.281 E15.11935
G1 X279.516 Y18.29 E15.20447
G1 X280.324 Y19.001 E15.25848
G1 X281.497 Y20.225 E15.3436
G1 X282.173 Y21.063 E15.39761
G1 X283.123 Y22.468 E15.48273
G1 X283.648 Y23.407 E15.53674
G1 X284.322 Y24.899 E15.61888
G1 X284.705 Y25.968 E15.67585
G1 X285.133 Y27.609 E15.76098
G1 X285.315 Y28.67 E15.81499
G1 X285.458 Y30.36 E15.90012
G1 X287.064 Y269.313 E27.89246
G1 X286.897 Y271.583 E28.0067
G1 X286.715 Y272.644 E28.06071
G1 X286.288 Y274.285 E28.14584
G1 X285.929 Y275.3 E28.19984
G1 X285.231 Y276.845 E28.28496
G1 X284.706 Y277.785 E28.33897
G1 X283.756 Y279.19 E28.42409
G1 X283.08 Y280.027 E28.4781
G1 X281.906 Y281.252 E28.56322
G1 X281.098 Y281.963 E28.61723
G1 X279.735 Y282.972 E28.70235
G1 X278.818 Y283.536 E28.75636
G1 X277.304 Y284.299 E28.84148
G1 X276.305 Y284.701 E28.89549
G1 X274.683 Y285.197 E28.98062
G1 X273.632 Y285.424 E29.03462
G1 X271.195 Y285.691 E29.15764
G1 X30.369 Y287.646 E41.24411
G1 X28.353 Y287.569 E41.34533
G1 X27.286 Y287.432 E41.39933
G1 X25.628 Y287.074 E41.48445
G1 X24.599 Y286.759 E41.53846
G1 X23.025 Y286.127 E41.62359
G1 X22.064 Y285.642 E41.6776
G1 X20.62 Y284.753 E41.76272
G1 X19.755 Y284.113 E41.81672
G1 X18.481 Y282.993 E41.90184
G1 X17.737 Y282.216 E41.95586
G1 X16.671 Y280.896 E42.04098
G1 X16.069 Y280.004 E42.09498
G1 X15.241 Y278.524 E42.18011
G1 X14.798 Y277.543 E42.23411
G1 X14.253 Y276 E42.31625
G1 X13.962 Y274.902 E42.37323
G1 X13.675 Y273.231 E42.45835
G1 X13.584 Y272.158 E42.51236
G1 X13.59 Y29.877 E54.67147
G1 X13.681 Y28.805 E54.72547
G1 X13.968 Y27.133 E54.8106
G1 X14.239 Y26.092 E54.8646
G1 X14.804 Y24.492 E54.94973
G1 X15.248 Y23.512 E55.00373
G1 X16.075 Y22.031 E55.08886
G1 X16.677 Y21.14 E55.14286
G1 X17.743 Y19.82 E55.22799
G1 X18.446 Y19.086 E55.27898
G1 E53.27898 F2400
G92 E0
G1 Z3.35 F7800
G1 X30.279 Y280.399
G1 Z.35
G1 E2 F2400
;TYPE:Perimeter
G1 F1800
G1 X28.737 Y280.334 E2.07743
G1 X27.229 Y280.009 E2.15487
G1 X25.797 Y279.433 E2.2323
G1 X24.484 Y278.624 E2.30974
G1 X23.325 Y277.605 E2.38717
G1 X22.356 Y276.404 E2.46461
G1 X21.603 Y275.057 E2.54204
G1 X21.089 Y273.603 E2.61948
G1 X20.829 Y272.082 E2.69691
G1 X20.829 Y270.539 E2.77434
G1 X21.089 Y269.018 E2.85178
G1 X21.603 Y267.563 E2.92922
G1 X22.328 Y266.266 E3.0038
G1 X23.327 Y265.014 E3.08417
G1 X24.484 Y263.996 E3.16148
G1 X25.797 Y263.187 E3.23891
G1 X27.229 Y262.612 E3.31635
G1 X28.735 Y262.288 E3.39365
G1 X30.335 Y262.229 E3.47402
G1 X31.809 Y262.418 E3.54861
G1 X33.285 Y262.869 E3.62604
G1 X34.662 Y263.564 E3.70348
G1 X35.903 Y264.481 E3.78091
G1 X36.971 Y265.595 E3.85835
G1 X37.835 Y266.874 E3.93578
G1 X38.47 Y268.28 E4.01322
G1 X38.859 Y269.773 E4.09065
G1 X38.99 Y271.31 E4.16808
G1 X38.859 Y272.848 E4.24552
G1 X38.47 Y274.341 E4.32295
G1 X37.835 Y275.747 E4.40039
G1 X36.971 Y277.025 E4.47782
G1 X35.903 Y278.139 E4.55526
G1 X34.662 Y279.057 E4.63269
G1 X33.285 Y279.751 E4.71013
G1 X31.809 Y280.203 E4.78756
G1 X30.338 Y280.391 E4.86198
G1 X30.294 Y280.745 F7800
G1 F1800
G1 X28.693 Y280.677 E4.94237
G1 X27.128 Y280.34 E5.02275
G1 X25.642 Y279.742 E5.10313
G1 X24.278 Y278.903 E5.18351
G1 X23.075 Y277.844 E5.26389
G1 X22.069 Y276.598 E5.34427
G1 X21.288 Y275.2 E5.42465
G1 X20.754 Y273.69 E5.50503
G1 X20.484 Y272.111 E5.58541
G1 X20.484 Y270.51 E5.66579
G1 X20.754 Y268.931 E5.74617
G1 X21.288 Y267.421 E5.82656
G1 X22.041 Y266.073 E5.90404
G1 X23.077 Y264.775 E5.98736
G1 X24.278 Y263.718 E6.06766
G1 X25.642 Y262.878 E6.14804
G1 X27.128 Y262.281 E6.22842
G1 X28.692 Y261.944 E6.30872
G1 X30.351 Y261.883 E6.39204
G1 X31.882 Y262.079 E6.46952
G1 X33.414 Y262.548 E6.5499
G1 X34.844 Y263.269 E6.63028
G1 X36.132 Y264.222 E6.71066
G1 X37.24 Y265.378 E6.79104
G1 X38.137 Y266.705 E6.87142
G1 X38.797 Y268.164 E6.95181
G1 X39.2 Y269.714 E7.03219
G1 X39.336 Y271.31 E7.11257
G1 X39.2 Y272.906 E7.19295
G1 X38.797 Y274.456 E7.27333
G1 X38.137 Y275.916 E7.35371
G1 X37.24 Y277.243 E7.43409
G1 X36.132 Y278.399 E7.51447
G1 X34.844 Y279.351 E7.59485
G1 X33.414 Y280.072 E7.67523
G1 X31.882 Y280.541 E7.75562
G1 X30.353 Y280.737 E7.83299
G1 X30.308 Y281.091 F7800
;TYPE:External perimeter
G1 F1800
G1 X28.649 Y281.02 E7.91631
G1 X27.026 Y280.67 E7.99964
G1 X25.486 Y280.051 E8.08297
G1 X24.072 Y279.181 E8.16629
G1 X22.825 Y278.084 E8.24962
G1 X21.782 Y276.792 E8.33295
G1 X20.973 Y275.343 E8.41628
G1 X20.42 Y273.777 E8.4996
G1 X20.139 Y272.141 E8.58293
G1 X20.139 Y270.48 E8.66626
G1 X20.42 Y268.844 E8.74958
G1 X20.973 Y267.278 E8.83291
G1 X21.754 Y265.88 E8.91329
G1 X22.826 Y264.536 E8.99956
G1 X24.072 Y263.44 E9.08285
G1 X25.486 Y262.569 E9.16618
G1 X27.026 Y261.95 E9.24951
G1 X28.649 Y261.601 E9.3328
G1 X30.367 Y261.537 E9.41907
G1 X31.955 Y261.741 E9.49945
G1 X33.543 Y262.227 E9.58278
G1 X35.025 Y262.975 E9.6661
G1 X36.36 Y263.962 E9.74943
G1 X37.509 Y265.161 E9.83276
G1 X38.439 Y266.536 E9.91608
G1 X39.123 Y268.049 E9.99941
G1 X39.541 Y269.656 E10.08274
G1 X39.682 Y271.31 E10.16607
G1 X39.541 Y272.965 E10.24939
G1 X39.123 Y274.572 E10.33272
G1 X38.439 Y276.084 E10.41605
G1 X37.509 Y277.46 E10.49937
G1 X36.36 Y278.659 E10.5827
G1 X35.025 Y279.646 E10.66603
G1 X33.543 Y280.394 E10.74936
G1 X31.955 Y280.88 E10.83268
G1 X30.368 Y281.083 E10.913
G1 X30.094 Y280.753 F7800
G1 E8.913 F2400
G92 E0
G1 Z3.35 F7800
G1 X37.254 Y266.199
G1 Z.35
G1 E2 F2400
;TYPE:Solid infill
;WIDTH:0.421276
G1 F1800
G1 X35.729 Y264.675 E2.10862
G1 X34.526 Y263.785 E2.18398
G1 X34.171 Y263.606 E2.20404
G1 X37.643 Y267.078 E2.45141
G1 X38.047 Y267.972 E2.50079
G1 X33.185 Y263.109 E2.84717
G1 X32.479 Y262.893 E2.88434
G1 X38.322 Y268.736 E3.30055
G1 X38.494 Y269.398 E3.335
G1 X31.773 Y262.677 E3.81375
G1 X31.208 Y262.601 E3.84248
G1 X38.62 Y270.013 E4.37046
G1 X38.665 Y270.548 E4.39751
G1 X30.647 Y262.529 E4.96873
G1 X30.324 Y262.488 E4.98514
G1 X30.123 Y262.495 E4.99525
G1 X38.711 Y271.083 E5.60701
G1 X38.73 Y271.31 E5.61849
G1 X38.708 Y271.57 E5.63162
G1 X29.651 Y262.513 E6.27682
G1 X29.179 Y262.53 E6.30062
G1 X38.67 Y272.021 E6.97673
G1 X38.631 Y272.472 E6.99954
G1 X28.715 Y262.556 E7.70591
G1 X28.313 Y262.643 E7.72666
G1 X38.576 Y272.907 E8.4578
G1 X38.475 Y273.295 E8.47802
G1 X27.91 Y262.73 E9.23065
G1 X27.507 Y262.817 E9.2514
G1 X38.374 Y273.684 E10.02552
G1 X38.273 Y274.072 E10.04574
G1 X27.131 Y262.93 E10.83944
G1 X26.782 Y263.071 E10.8584
G1 X38.145 Y274.433 E11.66783
G1 X37.992 Y274.77 E11.68647
G1 X26.433 Y263.211 E12.50993
G1 X26.083 Y263.351 E12.52888
G1 X37.84 Y275.108 E13.36636
G1 X37.687 Y275.445 E13.385
G1 X25.758 Y263.515 E14.2348
G1 X25.455 Y263.702 E14.25272
G1 X37.513 Y275.76 E15.11171
G1 X37.316 Y276.052 E15.12947
G1 X25.152 Y263.889 E15.99598
G1 X24.849 Y264.075 E16.0139
G1 X37.119 Y276.345 E16.88793
G1 X36.921 Y276.637 E16.90569
G1 X24.559 Y264.275 E17.78632
G1 X24.299 Y264.504 E17.80379
G1 X36.714 Y276.919 E18.68822
G1 X36.474 Y277.169 E18.70566
G1 X24.038 Y264.733 E19.59157
G1 X23.778 Y264.962 E19.60904
G1 X36.235 Y277.419 E20.49644
G1 X35.995 Y277.669 E20.51388
G1 X23.515 Y265.193 E21.40276
G1 X23.3 Y265.463 E21.42016
G1 X35.756 Y277.919 E22.30747
G1 X35.479 Y278.131 E22.32506
G1 X23.083 Y265.735 E23.2081
G1 X22.865 Y266.008 E23.22565
G1 X35.197 Y278.34 E24.10413
G1 X34.916 Y278.548 E24.12176
G1 X22.648 Y266.28 E24.99567
G1 X22.544 Y266.411 E25.00408
G1 X22.452 Y266.574 E25.01351
G1 X34.634 Y278.756 E25.8813
G1 X34.526 Y278.836 E25.88806
G1 X34.326 Y278.937 E25.89938
G1 X22.277 Y266.888 E26.75769
G1 X22.102 Y267.202 E26.77581
G1 X34 Y279.101 E27.62343
G1 X33.675 Y279.265 E27.64179
G1 X21.926 Y267.516 E28.47873
G1 X21.84 Y267.67 E28.48762
G1 X21.775 Y267.855 E28.49747
G1 X33.349 Y279.429 E29.32199
G1 X33.188 Y279.51 E29.33109
G1 X32.999 Y279.568 E29.34104
G1 X21.647 Y268.216 E30.14972
G1 X21.519 Y268.578 E30.16904
G1 X32.624 Y279.683 E30.96012
G1 X32.249 Y279.798 E30.97986
G1 X21.391 Y268.94 E31.75335
G1 X21.341 Y269.084 E31.76102
G1 X21.297 Y269.335 E31.7739
G1 X31.875 Y279.913 E32.52738
G1 X31.755 Y279.949 E32.5337
G1 X31.46 Y279.987 E32.54868
G1 X21.226 Y269.753 E33.2777
G1 X21.154 Y270.171 E33.29906
G1 X31.026 Y280.043 E34.00227
G1 X30.592 Y280.098 E34.02431
G1 X21.087 Y270.594 E34.70136
G1 X21.087 Y271.083 E34.72602
G1 X30.138 Y280.134 E35.37076
G1 X29.627 Y280.113 E35.39654
G1 X21.087 Y271.573 E36.00486
G1 X21.088 Y272.063 E36.02955
G1 X29.116 Y280.091 E36.60141
G1 X28.77 Y280.076 E36.61881
G1 X28.568 Y280.032 E36.62926
G1 X21.189 Y272.654 E37.15487
G1 X21.291 Y273.245 E37.18507
G1 X27.944 Y279.898 E37.65901
G1 X27.32 Y279.763 E37.69116
G1 X21.476 Y273.92 E38.10745
G1 X21.743 Y274.677 E38.14789
G1 X26.506 Y279.439 E38.48714
G1 X25.914 Y279.201 E38.51925
G1 X25.561 Y278.984 E38.54015
G1 X22.236 Y275.659 E38.77703
G1 X22.571 Y276.259 E38.81168
G1 X23.512 Y277.425 E38.88716
G1 X24.761 Y278.674 E38.97612
G1 E36.97612 F2400
G92 E0
G1 Z3.35 F7800
G1 X30.285 Y39.814
G1 Z.35
G1 E2 F2400
;TYPE:Perimeter
;WIDTH:0.42
G1 F1800
G1 X28.744 Y39.749 E2.07743
G1 X27.235 Y39.423 E2.15487
G1 X25.804 Y38.848 E2.2323
G1 X24.49 Y38.039 E2.30974
G1 X23.331 Y37.02 E2.38717
G1 X22.362 Y35.819 E2.46461
G1 X21.61 Y34.472 E2.54204
G1 X21.096 Y33.018 E2.61948
G1 X20.835 Y31.497 E2.69691
G1 X20.835 Y29.954 E2.77434
G1 X21.096 Y28.433 E2.85178
G1 X21.61 Y26.978 E2.92922
G1 X22.334 Y25.681 E3.0038
G1 X23.333 Y24.429 E3.08417
G1 X24.49 Y23.411 E3.16148
G1 X25.804 Y22.602 E3.23891
G1 X27.235 Y22.027 E3.31635
G1 X28.741 Y21.703 E3.39365
G1 X30.341 Y21.644 E3.47402
G1 X31.816 Y21.832 E3.54861
G1 X33.291 Y22.284 E3.62604
G1 X34.669 Y22.979 E3.70348
G1 X35.909 Y23.896 E3.78091
G1 X36.977 Y25.01 E3.85835
G1 X37.841 Y26.289 E3.93578
G1 X38.476 Y27.695 E4.01322
G1 X38.865 Y29.188 E4.09065
G1 X38.996 Y30.725 E4.16808
G1 X38.865 Y32.263 E4.24552
G1 X38.476 Y33.756 E4.32295
G1 X37.841 Y35.162 E4.40039
G1 X36.977 Y36.44 E4.47782
G1 X35.909 Y37.554 E4.55526
G1 X34.669 Y38.472 E4.63269
G1 X33.291 Y39.166 E4.71013
G1 X31.816 Y39.618 E4.78756
G1 X30.345 Y39.806 E4.86198
G1 X30.3 Y40.16 F7800
G1 F1800
G1 X28.7 Y40.092 E4.94237
G1 X27.134 Y39.754 E5.02275
G1 X25.648 Y39.157 E5.10313
G1 X24.284 Y38.318 E5.18351
G1 X23.082 Y37.259 E5.26389
G1 X22.075 Y36.013 E5.34427
G1 X21.294 Y34.615 E5.42465
G1 X20.761 Y33.105 E5.50503
G1 X20.49 Y31.526 E5.58541
G1 X20.49 Y29.924 E5.66579
G1 X20.761 Y28.346 E5.74617
G1 X21.294 Y26.836 E5.82656
G1 X22.047 Y25.488 E5.90404
G1 X23.083 Y24.19 E5.98736
G1 X24.284 Y23.133 E6.06766
G1 X25.648 Y22.293 E6.14804
G1 X27.134 Y21.696 E6.22842
G1 X28.698 Y21.359 E6.30872
G1 X30.357 Y21.298 E6.39204
G1 X31.888 Y21.494 E6.46952
G1 X33.42 Y21.963 E6.5499
G1 X34.85 Y22.684 E6.63028
G1 X36.138 Y23.637 E6.71066
G1 X37.246 Y24.793 E6.79104
G1 X38.143 Y26.12 E6.87142
G1 X38.803 Y27.579 E6.95181
G1 X39.206 Y29.129 E7.03219
G1 X39.342 Y30.725 E7.11257
G1 X39.206 Y32.321 E7.19295
G1 X38.803 Y33.871 E7.27333
G1 X38.143 Y35.331 E7.35371
G1 X37.246 Y36.658 E7.43409
G1 X36.138 Y37.814 E7.51447
G1 X34.85 Y38.766 E7.59485
G1 X33.42 Y39.487 E7.67523
G1 X31.888 Y39.956 E7.75562
G1 X30.359 Y40.152 E7.83299
G1 X30.314 Y40.506 F7800
;TYPE:External perimeter
G1 F1800
G1 X28.656 Y40.435 E7.91631
G1 X27.033 Y40.085 E7.99964
G1 X25.492 Y39.466 E8.08297
G1 X24.078 Y38.596 E8.16629
G1 X22.832 Y37.499 E8.24962
G1 X21.789 Y36.207 E8.33295
G1 X20.979 Y34.757 E8.41628
G1 X20.426 Y33.192 E8.4996
G1 X20.145 Y31.555 E8.58293
G1 X20.145 Y29.895 E8.66626
G1 X20.426 Y28.259 E8.74958
G1 X20.979 Y26.693 E8.83291
G1 X21.76 Y25.295 E8.91329
G1 X22.832 Y23.951 E8.99956
G1 X24.078 Y22.855 E9.08285
G1 X25.492 Y21.984 E9.16618
G1 X27.033 Y21.365 E9.24951
G1 X28.655 Y21.015 E9.3328
G1 X30.373 Y20.952 E9.41907
G1 X31.961 Y21.156 E9.49945
G1 X33.549 Y21.642 E9.58278
G1 X35.032 Y22.389 E9.6661
G1 X36.367 Y23.377 E9.74943
G1 X37.515 Y24.575 E9.83276
G1 X38.445 Y25.951 E9.91608
G1 X39.129 Y27.464 E9.99941
G1 X39.547 Y29.071 E10.08274
G1 X39.688 Y30.725 E10.16607
G1 X39.547 Y32.38 E10.24939
G1 X39.129 Y33.986 E10.33272
G1 X38.445 Y35.499 E10.41605
G1 X37.515 Y36.875 E10.49937
G1 X36.367 Y38.074 E10.5827
G1 X35.032 Y39.061 E10.66603
G1 X33.549 Y39.809 E10.74936
G1 X31.961 Y40.295 E10.83268
G1 X30.374 Y40.498 E10.913
G1 X30.1 Y40.168 F7800
G1 E8.913 F2400
G92 E0
G1 Z3.35 F7800
G1 X37.26 Y25.614
G1 Z.35
G1 E2 F2400
;TYPE:Solid infill
;WIDTH:0.421276
G1 F1800
G1 X35.735 Y24.09 E2.10862
G1 X34.533 Y23.2 E2.18398
G1 X34.177 Y23.021 E2.20404
G1 X37.649 Y26.493 E2.45141
G1 X38.053 Y27.387 E2.50079
G1 X33.191 Y22.524 E2.84717
G1 X32.485 Y22.308 E2.88434
G1 X38.328 Y28.151 E3.30055
G1 X38.5 Y28.813 E3.335
G1 X31.78 Y22.092 E3.81375
G1 X31.214 Y22.016 E3.84248
G1 X38.626 Y29.428 E4.37046
G1 X38.672 Y29.963 E4.39751
G1 X30.653 Y21.944 E4.96873
G1 X30.33 Y21.903 E4.98514
G1 X30.129 Y21.91 E4.99525
G1 X38.717 Y30.498 E5.60701
G1 X38.736 Y30.725 E5.61849
G1 X38.714 Y30.985 E5.63162
G1 X29.657 Y21.928 E6.27682
G1 X29.185 Y21.945 E6.30062
G1 X38.676 Y31.436 E6.97673
G1 X38.638 Y31.887 E6.99954
G1 X28.722 Y21.971 E7.70591
G1 X28.319 Y22.058 E7.72666
G1 X38.582 Y32.322 E8.4578
G1 X38.481 Y32.71 E8.47802
G1 X27.916 Y22.145 E9.23065
G1 X27.513 Y22.232 E9.2514
G1 X38.38 Y33.099 E10.02552
G1 X38.279 Y33.487 E10.04574
G1 X27.137 Y22.345 E10.83944
G1 X26.788 Y22.486 E10.8584
G1 X38.151 Y33.848 E11.66783
G1 X37.998 Y34.185 E11.68647
G1 X26.439 Y22.626 E12.50993
G1 X26.09 Y22.766 E12.52888
G1 X37.846 Y34.523 E13.36636
G1 X37.694 Y34.86 E13.385
G1 X25.764 Y22.93 E14.2348
G1 X25.461 Y23.117 E14.25272
G1 X37.52 Y35.175 E15.11171
G1 X37.322 Y35.467 E15.12947
G1 X25.158 Y23.303 E15.99598
G1 X24.855 Y23.49 E16.0139
G1 X37.125 Y35.759 E16.88793
G1 X36.927 Y36.052 E16.90569
G1 X24.565 Y23.689 E17.78632
G1 X24.305 Y23.919 E17.80379
G1 X36.72 Y36.334 E18.68822
G1 X36.481 Y36.584 E18.70566
G1 X24.044 Y24.148 E19.59157
G1 X23.784 Y24.377 E19.60904
G1 X36.241 Y36.834 E20.49644
G1 X36.001 Y37.084 E20.51388
G1 X23.521 Y24.608 E21.40276
G1 X23.306 Y24.878 E21.42016
G1 X35.762 Y37.334 E22.30747
G1 X35.485 Y37.546 E22.32506
G1 X23.089 Y25.15 E23.2081
