; generated by PrusaSlicer 2.4.2 on 2022-07-18 at 22:31:56 UTC

; 

; external perimeters extrusion width = 0.45mm
; perimeters extrusion width = 0.45mm
; infill extrusion width = 0.45mm
; solid infill extrusion width = 0.45mm
; top infill extrusion width = 0.40mm
; first layer extrusion width = 0.42mm

M107
M190 S60 ; set bed temperature and wait for it to be reached
M104 S215 ; set temperature
;TYPE:Custom
G28 ; home all axes
G1 Z5 F5000 ; lift nozzle
M109 S215 ; set temperature and wait for it to be reached
G21 ; set units to millimeters
G90 ; use absolute coordinates
M82 ; use absolute distances for extrusion
G92 E0
; Filament gcode
M107
;LAYER_CHANGE
;Z:0.35
;HEIGHT:0.35
G1 Z.35 F7800
G1 E-2 F2400
G92 E0
G1 X215.193 Y235.859 F7800
G1 E2 F2400
;TYPE:Skirt/Brim
;WIDTH:0.42
G1 F1800
G1 X216.935 Y234.444 E2.11262
G1 X220 Y233.655 E2.27146
G1 X280 Y233.655 E5.28261
G1 X282.209 Y234.052 E5.39523
G1 X284.141 Y235.193 E5.50785
G1 X285.556 Y236.935 E5.62047
G1 X286.345 Y240 E5.77931
G1 X286.345 Y260 E6.78303
G1 X285.948 Y262.209 E6.89565
G1 X284.807 Y264.141 E7.00827
G1 X283.065 Y265.556 E7.12089
G1 X280 Y266.345 E7.27973
G1 X220 Y266.345 E10.29088
G1 X217.791 Y265.948 E10.4035
G1 X215.859 Y264.807 E10.51612
G1 X214.444 Y263.065 E10.62874
G1 X213.655 Y260 E10.78758
G1 X213.655 Y240 E11.7913
G1 X214.052 Y237.791 E11.90392
G1 X215.162 Y235.911 E12.01353
G1 E10.01353 F2400
G92 E0
G1 X220.9 Y240.9 F7800
G1 E2 F2400
;TYPE:Perimeter
G1 F1800
G1 X279.1 Y240.9 E4.92084
G1 X279.1 Y259.1 E5.83425
G1 X220.9 Y259.1 E8.75509
G1 X220.9 Y240.96 E9.66549
G1 X220.555 Y240.555 F7800
G1 F1800
G1 X279.445 Y240.555 E12.62095
G1 X279.445 Y259.445 E13.56897
G1 X220.555 Y259.445 E16.52443
G1 X220.555 Y240.615 E17.46944
G1 X220.21 Y240.21 F7800
;TYPE:External perimeter
G1 F1800
G1 X279.79 Y240.21 E20.45952
G1 X279.79 Y259.79 E21.44216
G1 X220.21 Y259.79 E24.43224
G1 X220.21 Y240.27 E25.41186
G1 X220.608 Y240.252 F7800
G1 E23.41186 F2400
G92 E0
G1 X278.997 Y241.705 F7800
G1 E2 F2400
;TYPE:Solid infill
;WIDTH:0.422077
G1 F1800
G1 X278.45 Y241.158 E2.03901
G1 X277.96 Y241.158 E2.06379
G1 X278.842 Y242.04 E2.12676
G1 X278.842 Y242.531 E2.15153
G1 X277.469 Y241.158 E2.24953
G1 X276.978 Y241.158 E2.27431
G1 X278.842 Y243.022 E2.40735
G1 X278.842 Y243.512 E2.43212
G1 X276.488 Y241.158 E2.60019
G1 X275.997 Y241.158 E2.62497
G1 X278.842 Y244.003 E2.82808
G1 X278.842 Y244.494 E2.85285
G1 X275.506 Y241.158 E3.09099
G1 X275.016 Y241.158 E3.11577
G1 X278.842 Y244.984 E3.38895
G1 X278.842 Y245.475 E3.41372
G1 X274.525 Y241.158 E3.72194
G1 X274.034 Y241.158 E3.74671
G1 X278.842 Y245.966 E4.08996
G1 X278.842 Y246.456 E4.11473
G1 X273.544 Y241.158 E4.49302
G1 X273.053 Y241.158 E4.51779
G1 X278.842 Y246.947 E4.93111
G1 X278.842 Y247.438 E4.95589
G1 X272.562 Y241.158 E5.40424
G1 X272.071 Y241.158 E5.42902
G1 X278.842 Y247.929 E5.91241
G1 X278.842 Y248.419 E5.93718
G1 X271.581 Y241.158 E6.45561
G1 X271.09 Y241.158 E6.48038
G1 X278.842 Y248.91 E7.03385
G1 X278.842 Y249.401 E7.05862
G1 X270.599 Y241.158 E7.64712
G1 X270.109 Y241.158 E7.67189
G1 X278.842 Y249.891 E8.29543
G1 X278.842 Y250.382 E8.3202
G1 X269.618 Y241.158 E8.97877
G1 X269.127 Y241.158 E9.00354
G1 X278.842 Y250.873 E9.69714
G1 X278.842 Y251.363 E9.72192
G1 X268.637 Y241.158 E10.45056
G1 X268.146 Y241.158 E10.47533
G1 X278.842 Y251.854 E11.239
G1 X278.842 Y252.345 E11.26378
G1 X267.655 Y241.158 E12.06249
G1 X267.165 Y241.158 E12.08726
G1 X278.842 Y252.835 E12.92101
G1 X278.842 Y253.326 E12.94578
G1 X266.674 Y241.158 E13.81456
G1 X266.183 Y241.158 E13.83933
G1 X278.842 Y253.817 E14.74315
G1 X278.842 Y254.307 E14.76792
G1 X265.693 Y241.158 E15.70677
G1 X265.202 Y241.158 E15.73155
G1 X278.842 Y254.798 E16.70543
G1 X278.842 Y255.289 E16.73021
G1 X264.711 Y241.158 E17.73913
G1 X264.221 Y241.158 E17.7639
G1 X278.842 Y255.779 E18.80786
G1 X278.842 Y256.27 E18.83263
G1 X263.73 Y241.158 E19.91162
G1 X263.239 Y241.158 E19.9364
G1 X278.842 Y256.761 E21.05042
G1 X278.842 Y257.252 E21.0752
G1 X262.748 Y241.158 E22.22426
G1 X262.258 Y241.158 E22.24903
G1 X278.842 Y257.742 E23.43313
G1 X278.842 Y258.233 E23.45791
G1 X261.767 Y241.158 E24.67704
G1 X261.276 Y241.158 E24.70181
G1 X278.842 Y258.724 E25.95598
G1 X278.842 Y258.842 E25.96194
G1 X278.469 Y258.842 E25.98075
G1 X260.786 Y241.158 E27.24335
G1 X260.295 Y241.158 E27.26812
G1 X277.978 Y258.842 E28.53071
G1 X277.488 Y258.842 E28.55549
G1 X259.804 Y241.158 E29.81808
G1 X259.314 Y241.158 E29.84285
G1 X276.997 Y258.842 E31.10545
G1 X276.506 Y258.842 E31.13022
G1 X258.823 Y241.158 E32.39281
G1 X258.332 Y241.158 E32.41759
G1 X276.015 Y258.842 E33.68018
G1 X275.525 Y258.842 E33.70495
G1 X257.842 Y241.158 E34.96755
G1 X257.351 Y241.158 E34.99232
G1 X275.034 Y258.842 E36.25491
G1 X274.543 Y258.842 E36.27969
G1 X256.86 Y241.158 E37.54228
G1 X256.37 Y241.158 E37.56705
G1 X274.053 Y258.842 E38.82965
G1 X273.562 Y258.842 E38.85442
G1 X255.879 Y241.158 E40.11701
G1 X255.388 Y241.158 E40.14179
G1 X273.071 Y258.842 E41.40438
G1 X272.581 Y258.842 E41.42916
G1 X254.898 Y241.158 E42.69175
G1 X254.407 Y241.158 E42.71652
G1 X272.09 Y258.842 E43.97911
G1 X271.599 Y258.842 E44.00389
G1 X253.916 Y241.158 E45.26648
G1 X253.425 Y241.158 E45.29126
G1 X271.109 Y258.842 E46.55385
G1 X270.618 Y258.842 E46.57862
G1 X252.935 Y241.158 E47.84122
G1 X252.444 Y241.158 E47.86599
G1 X270.127 Y258.842 E49.12858
G1 X269.637 Y258.842 E49.15336
G1 X251.953 Y241.158 E50.41595
G1 X251.463 Y241.158 E50.44072
G1 X269.146 Y258.842 E51.70332
G1 X268.655 Y258.842 E51.72809
G1 X250.972 Y241.158 E52.99068
G1 X250.481 Y241.158 E53.01546
G1 X268.165 Y258.842 E54.27805
G1 X267.674 Y258.842 E54.30282
G1 X249.991 Y241.158 E55.56542
G1 X249.5 Y241.158 E55.59019
G1 X267.183 Y258.842 E56.85278
G1 X266.692 Y258.842 E56.87756
G1 X249.009 Y241.158 E58.14015
G1 X248.519 Y241.158 E58.16492
G1 X266.202 Y258.842 E59.42752
G1 X265.711 Y258.842 E59.45229
G1 X248.028 Y241.158 E60.71488
G1 X247.537 Y241.158 E60.73966
G1 X265.22 Y258.842 E62.00225
G1 X264.73 Y258.842 E62.02702
G1 X247.047 Y241.158 E63.28962
G1 X246.556 Y241.158 E63.31439
G1 X264.239 Y258.842 E64.57698
G1 X263.748 Y258.842 E64.60176
G1 X246.065 Y241.158 E65.86435
G1 X245.575 Y241.158 E65.88912
G1 X263.258 Y258.842 E67.15172
G1 X262.767 Y258.842 E67.17649
G1 X245.084 Y241.158 E68.43908
G1 X244.593 Y241.158 E68.46386
G1 X262.276 Y258.842 E69.72645
G1 X261.786 Y258.842 E69.75122
G1 X244.102 Y241.158 E71.01382
G1 X243.612 Y241.158 E71.03859
G1 X261.295 Y258.842 E72.30118
G1 X260.804 Y258.842 E72.32596
G1 X243.121 Y241.158 E73.58855
G1 X242.63 Y241.158 E73.61332
G1 X260.314 Y258.842 E74.87592
G1 X259.823 Y258.842 E74.90069
G1 X242.14 Y241.158 E76.16328
G1 X241.649 Y241.158 E76.18806
G1 X259.332 Y258.842 E77.45065
G1 X258.842 Y258.842 E77.47542
G1 X241.158 Y241.158 E78.73802
G1 X240.668 Y241.158 E78.76279
G1 X258.351 Y258.842 E80.02538
G1 X257.86 Y258.842 E80.05016
G1 X240.177 Y241.158 E81.31275
G1 X239.686 Y241.158 E81.33752
G1 X257.369 Y258.842 E82.60012
G1 X256.879 Y258.842 E82.62489
G1 X239.196 Y241.158 E83.88748
G1 X238.705 Y241.158 E83.91226
G1 X256.388 Y258.842 E85.17485
G1 X255.897 Y258.842 E85.19963
G1 X238.214 Y241.158 E86.46222
G1 X237.724 Y241.158 E86.48699
G1 X255.407 Y258.842 E87.74958
G1 X254.916 Y258.842 E87.77436
G1 X237.233 Y241.158 E89.03695
G1 X236.742 Y241.158 E89.06173
G1 X254.425 Y258.842 E90.32432
G1 X253.935 Y258.842 E90.34909
G1 X236.252 Y241.158 E91.61169
G1 X235.761 Y241.158 E91.63646
G1 X253.444 Y258.842 E92.89905
G1 X252.953 Y258.842 E92.92383
G1 X235.27 Y241.158 E94.18642
G1 X234.779 Y241.158 E94.21119
G1 X252.463 Y258.842 E95.47379
G1 X251.972 Y258.842 E95.49856
G1 X234.289 Y241.158 E96.76115
G1 X233.798 Y241.158 E96.78593
G1 X251.481 Y258.842 E98.04852
G1 X250.991 Y258.842 E98.07329
G1 X233.307 Y241.158 E99.33589
G1 X232.817 Y241.158 E99.36066
G1 X250.5 Y258.842 E100.62325
G1 X250.009 Y258.842 E100.64803
G1 X232.326 Y241.158 E101.91062
G1 X231.835 Y241.158 E101.93539
G1 X249.519 Y258.842 E103.19799
G1 X249.028 Y258.842 E103.22276
G1 X231.345 Y241.158 E104.48535
G1 X230.854 Y241.158 E104.51013
G1 X248.537 Y258.842 E105.77272
G1 X248.046 Y258.842 E105.79749
G1 X230.363 Y241.158 E107.06009
G1 X229.873 Y241.158 E107.08486
G1 X247.556 Y258.842 E108.34745
G1 X247.065 Y258.842 E108.37223
G1 X229.382 Y241.158 E109.63482
G1 X228.891 Y241.158 E109.65959
G1 X246.574 Y258.842 E110.92219
G1 X246.084 Y258.842 E110.94696
G1 X228.401 Y241.158 E112.20955
G1 X227.91 Y241.158 E112.23433
G1 X245.593 Y258.842 E113.49692
G1 X245.102 Y258.842 E113.52169
G1 X227.419 Y241.158 E114.78429
G1 X226.929 Y241.158 E114.80906
G1 X244.612 Y258.842 E116.07165
G1 X244.121 Y258.842 E116.09643
G1 X226.438 Y241.158 E117.35902
G1 X225.947 Y241.158 E117.38379
G1 X243.63 Y258.842 E118.64639
G1 X243.14 Y258.842 E118.67116
G1 X225.456 Y241.158 E119.93375
G1 X224.966 Y241.158 E119.95853
G1 X242.649 Y258.842 E121.22112
G1 X242.158 Y258.842 E121.24589
G1 X224.475 Y241.158 E122.50849
G1 X223.984 Y241.158 E122.53326
G1 X241.668 Y258.842 E123.79585
G1 X241.177 Y258.842 E123.82063
G1 X223.494 Y241.158 E125.08322
G1 X223.003 Y241.158 E125.10799
G1 X240.686 Y258.842 E126.37059
G1 X240.196 Y258.842 E126.39536
G1 X222.512 Y241.158 E127.65795
G1 X222.022 Y241.158 E127.68273
G1 X239.705 Y258.842 E128.94532
G1 X239.214 Y258.842 E128.97009
G1 X221.531 Y241.158 E130.23269
G1 X221.158 Y241.158 E130.2515
G1 X221.158 Y241.277 E130.25746
G1 X238.723 Y258.842 E131.51162
G1 X238.233 Y258.842 E131.5364
G1 X221.158 Y241.767 E132.75552
G1 X221.158 Y242.258 E132.78029
G1 X237.742 Y258.842 E133.96438
G1 X237.251 Y258.842 E133.98916
G1 X221.158 Y242.749 E135.13821
G1 X221.158 Y243.239 E135.16299
G1 X236.761 Y258.842 E136.27701
G1 X236.27 Y258.842 E136.30178
G1 X221.158 Y243.73 E137.38076
G1 X221.158 Y244.221 E137.40554
G1 X235.779 Y258.842 E138.44949
G1 X235.289 Y258.842 E138.47426
G1 X221.158 Y244.711 E139.48317
G1 X221.158 Y245.202 E139.50795
G1 X234.798 Y258.842 E140.48183
G1 X234.307 Y258.842 E140.5066
G1 X221.158 Y245.693 E141.44544
G1 X221.158 Y246.183 E141.47022
G1 X233.817 Y258.842 E142.37402
G1 X233.326 Y258.842 E142.3988
G1 X221.158 Y246.674 E143.26757
G1 X221.158 Y247.165 E143.29234
G1 X232.835 Y258.842 E144.12608
G1 X232.345 Y258.842 E144.15085
G1 X221.158 Y247.655 E144.94956
G1 X221.158 Y248.146 E144.97433
G1 X231.854 Y258.842 E145.738
G1 X231.363 Y258.842 E145.76277
G1 X221.158 Y248.637 E146.4914
G1 X221.158 Y249.127 E146.51617
G1 X230.873 Y258.842 E147.20977
G1 X230.382 Y258.842 E147.23454
G1 X221.158 Y249.618 E147.8931
G1 X221.158 Y250.109 E147.91788
G1 X229.891 Y258.842 E148.5414
G1 X229.4 Y258.842 E148.56618
G1 X221.158 Y250.6 E149.15467
G1 X221.158 Y251.09 E149.17944
G1 X228.91 Y258.842 E149.7329
G1 X228.419 Y258.842 E149.75767
G1 X221.158 Y251.581 E150.27609
G1 X221.158 Y252.072 E150.30086
G1 X227.928 Y258.842 E150.78425
G1 X227.438 Y258.842 E150.80902
G1 X221.158 Y252.562 E151.25737
G1 X221.158 Y253.053 E151.28214
G1 X226.947 Y258.842 E151.69546
G1 X226.456 Y258.842 E151.72023
G1 X221.158 Y253.544 E152.09851
G1 X221.158 Y254.034 E152.12328
G1 X225.966 Y258.842 E152.46652
G1 X225.475 Y258.842 E152.4913
G1 X221.158 Y254.525 E152.79951
G1 X221.158 Y255.016 E152.82428
G1 X224.984 Y258.842 E153.09745
G1 X224.494 Y258.842 E153.12222
G1 X221.158 Y255.506 E153.36036
G1 X221.158 Y255.997 E153.38514
G1 X224.003 Y258.842 E153.58824
G1 X223.512 Y258.842 E153.61301
G1 X221.158 Y256.488 E153.78108
G1 X221.158 Y256.978 E153.80585
G1 X223.022 Y258.842 E153.93888
G1 X222.531 Y258.842 E153.96366
G1 X221.158 Y257.469 E154.06165
G1 X221.158 Y257.96 E154.08642
G1 X222.04 Y258.842 E154.14939
G1 X221.55 Y258.842 E154.17416
G1 X221.003 Y258.295 E154.21317
;LAYER_CHANGE
;Z:0.65
;HEIGHT:0.3
G1 Z.65 F7800
G1 E152.21317 F2400
G92 E0
G1 X220.996 Y240.996 F7800
G1 E2 F2400
;TYPE:Perimeter
;WIDTH:0.45
G1 F3600
G1 X279.004 Y240.996 E4.78996
G1 X279.004 Y259.004 E5.65606
G1 X220.996 Y259.004 E8.44603
G1 X220.996 Y241.056 E9.30924
G1 X220.611 Y240.611 F7800
G1 F3600
G1 X279.389 Y240.611 E12.1363
G1 X279.389 Y259.389 E13.0395
G1 X220.611 Y259.389 E15.86655
G1 X220.611 Y240.671 E16.76686
G1 X220.225 Y240.225 F7800
;TYPE:External perimeter
G1 F1800
G1 X279.775 Y240.225 E19.63101
G1 X279.775 Y259.775 E20.5713
G1 X220.225 Y259.775 E23.43545
G1 X220.225 Y240.285 E24.37286
G1 X220.623 Y240.267 F7800
G1 E22.37286 F2400
G92 E0
G1 X278.105 Y258.888 F7800
G1 E2 F2400
;TYPE:Solid infill
;WIDTH:0.451903
G1 F1200
G1 X278.715 Y258.278 E2.0417
G1 X278.715 Y257.73 E2.06819
G1 X277.73 Y258.715 E2.13549
G1 X277.182 Y258.715 E2.16197
G1 X278.715 Y257.182 E2.26673
G1 X278.715 Y256.634 E2.29322
G1 X276.634 Y258.715 E2.43544
G1 X276.086 Y258.715 E2.46193
G1 X278.715 Y256.086 E2.64161
G1 X278.715 Y255.538 E2.6681
G1 X275.538 Y258.715 E2.88524
G1 X274.99 Y258.715 E2.91173
G1 X278.715 Y254.99 E3.16633
G1 X278.715 Y254.442 E3.19282
G1 X274.442 Y258.715 E3.48489
G1 X273.894 Y258.715 E3.51138
G1 X278.715 Y253.894 E3.8409
G1 X278.715 Y253.346 E3.86739
G1 X273.346 Y258.715 E4.23437
G1 X272.798 Y258.715 E4.26086
G1 X278.715 Y252.798 E4.66531
G1 X278.715 Y252.25 E4.6918
G1 X272.25 Y258.715 E5.13371
G1 X271.702 Y258.715 E5.16019
G1 X278.715 Y251.702 E5.63956
G1 X278.715 Y251.154 E5.66605
G1 X271.154 Y258.715 E6.18288
G1 X270.606 Y258.715 E6.20937
G1 X278.715 Y250.606 E6.76366
G1 X278.715 Y250.057 E6.79015
G1 X270.057 Y258.715 E7.3819
G1 X269.509 Y258.715 E7.40839
G1 X278.715 Y249.509 E8.0376
G1 X278.715 Y248.961 E8.06409
G1 X268.961 Y258.715 E8.73076
G1 X268.413 Y258.715 E8.75725
G1 X278.715 Y248.413 E9.46138
G1 X278.715 Y247.865 E9.48787
G1 X267.865 Y258.715 E10.22947
G1 X267.317 Y258.715 E10.25595
G1 X278.715 Y247.317 E11.03501
G1 X278.715 Y246.769 E11.0615
G1 X266.769 Y258.715 E11.87801
G1 X266.221 Y258.715 E11.9045
G1 X278.715 Y246.221 E12.75848
G1 X278.715 Y245.673 E12.78497
G1 X265.673 Y258.715 E13.67641
G1 X265.125 Y258.715 E13.70289
G1 X278.715 Y245.125 E14.63179
G1 X278.715 Y244.577 E14.65828
G1 X264.577 Y258.715 E15.62464
G1 X264.029 Y258.715 E15.65113
G1 X278.715 Y244.029 E16.65495
G1 X278.715 Y243.481 E16.68144
G1 X263.481 Y258.715 E17.72272
G1 X262.933 Y258.715 E17.74921
G1 X278.715 Y242.933 E18.82795
G1 X278.715 Y242.385 E18.85444
G1 X262.385 Y258.715 E19.97064
G1 X261.837 Y258.715 E19.99713
G1 X278.715 Y241.837 E21.1508
G1 X278.715 Y241.289 E21.17729
G1 X261.289 Y258.715 E22.36841
G1 X260.741 Y258.715 E22.3949
G1 X278.17 Y241.285 E23.58626
G1 X277.622 Y241.285 E23.61275
G1 X260.193 Y258.715 E24.8041
G1 X259.645 Y258.715 E24.83059
G1 X277.074 Y241.285 E26.02195
G1 X276.526 Y241.285 E26.04844
G1 X259.097 Y258.715 E27.2398
G1 X258.549 Y258.715 E27.26629
G1 X275.978 Y241.285 E28.45764
G1 X275.43 Y241.285 E28.48413
G1 X258.001 Y258.715 E29.67549
G1 X257.453 Y258.715 E29.70198
G1 X274.882 Y241.285 E30.89334
G1 X274.334 Y241.285 E30.91983
G1 X256.905 Y258.715 E32.11119
G1 X256.356 Y258.715 E32.13767
G1 X273.786 Y241.285 E33.32903
G1 X273.238 Y241.285 E33.35552
G1 X255.808 Y258.715 E34.54688
G1 X255.26 Y258.715 E34.57337
G1 X272.69 Y241.285 E35.76473
G1 X272.142 Y241.285 E35.79121
G1 X254.712 Y258.715 E36.98257
G1 X254.164 Y258.715 E37.00906
G1 X271.593 Y241.285 E38.20042
G1 X271.045 Y241.285 E38.22691
G1 X253.616 Y258.715 E39.41827
G1 X253.068 Y258.715 E39.44476
G1 X270.497 Y241.285 E40.63611
G1 X269.949 Y241.285 E40.6626
G1 X252.52 Y258.715 E41.85396
G1 X251.972 Y258.715 E41.88045
G1 X269.401 Y241.285 E43.07181
G1 X268.853 Y241.285 E43.0983
G1 X251.424 Y258.715 E44.28965
G1 X250.876 Y258.715 E44.31614
G1 X268.305 Y241.285 E45.5075
G1 X267.757 Y241.285 E45.53399
G1 X250.328 Y258.715 E46.72535
G1 X249.78 Y258.715 E46.75184
G1 X267.209 Y241.285 E47.94319
G1 X266.661 Y241.285 E47.96968
G1 X249.232 Y258.715 E49.16104
G1 X248.684 Y258.715 E49.18753
G1 X266.113 Y241.285 E50.37889
G1 X265.565 Y241.285 E50.40538
G1 X248.136 Y258.715 E51.59673
G1 X247.588 Y258.715 E51.62322
G1 X265.017 Y241.285 E52.81458
G1 X264.469 Y241.285 E52.84107
G1 X247.04 Y258.715 E54.03243
G1 X246.492 Y258.715 E54.05892
G1 X263.921 Y241.285 E55.25028
G1 X263.373 Y241.285 E55.27676
G1 X245.944 Y258.715 E56.46812
G1 X245.396 Y258.715 E56.49461
