; generated by PrusaSlicer 2.4.2 on 2022-07-19 at 02:05:12 UTC

; 

; external perimeters extrusion width = 0.45mm
; perimeters extrusion width = 0.45mm
; infill extrusion width = 0.45mm
; solid infill extrusion width = 0.45mm
; top infill extrusion width = 0.40mm
; first layer extrusion width = 0.42mm

M107
M190 S60 ; set bed temperature and wait for it to be reached
M104 S215 ; set temperature
;TYPE:Custom
G28 ; home all axes
G1 Z5 F5000 ; lift nozzle
M109 S215 ; set temperature and wait for it to be reached
G21 ; set units to millimeters
G90 ; use absolute coordinates
M82 ; use absolute distances for extrusion
G92 E0
; Filament gcode
M107
;LAYER_CHANGE
;Z:0.35
;HEIGHT:0.35
G1 Z.35 F7800
G1 E-2 F2400
G92 E0
G1 X165.193 Y185.859 F7800
G1 E2 F2400
;TYPE:Skirt/Brim
;WIDTH:0.42
G1 F1800
G1 X166.935 Y184.444 E2.11262
G1 X170 Y183.655 E2.27146
G1 X230 Y183.655 E5.28261
G1 X232.209 Y184.052 E5.39523
G1 X234.141 Y185.193 E5.50785
G1 X235.556 Y186.935 E5.62047
G1 X236.345 Y190 E5.77931
G1 X236.345 Y210 E6.78303
G1 X235.948 Y212.209 E6.89565
G1 X234.807 Y214.141 E7.00827
G1 X233.065 Y215.556 E7.12089
G1 X230 Y216.345 E7.27973
G1 X170 Y216.345 E10.29088
G1 X167.791 Y215.948 E10.4035
G1 X165.859 Y214.807 E10.51612
G1 X164.444 Y213.065 E10.62874
G1 X163.655 Y210 E10.78758
G1 X163.655 Y190 E11.7913
G1 X164.052 Y187.791 E11.90392
G1 X165.162 Y185.911 E12.01353
G1 E10.01353 F2400
G92 E0
G1 X217.536 Y199.176 F7800
G1 E2 F2400
;TYPE:Perimeter
G1 F1800
G1 X217.778 Y198.642 E2.02943
G1 X218.091 Y198.229 E2.05546
G1 X218.48 Y197.885 E2.08148
G1 X218.929 Y197.626 E2.10751
G1 X219.42 Y197.461 E2.13354
G1 X219.935 Y197.397 E2.15956
G1 X220.441 Y197.434 E2.18505
G1 X220.843 Y197.537 E2.20586
G1 X221.302 Y197.745 E2.23115
G1 X221.723 Y198.047 E2.25716
G1 X222.076 Y198.428 E2.28319
G1 X222.346 Y198.87 E2.30921
G1 X222.524 Y199.357 E2.33524
G1 X222.601 Y199.87 E2.36127
G1 X222.575 Y200.388 E2.38729
G1 X222.447 Y200.891 E2.41332
G1 X222.222 Y201.358 E2.43935
G1 X221.909 Y201.771 E2.46537
G1 X221.52 Y202.115 E2.4914
G1 X221.071 Y202.374 E2.51743
G1 X220.579 Y202.539 E2.54345
G1 X220.065 Y202.603 E2.56948
G1 X219.548 Y202.565 E2.59551
G1 X219.049 Y202.424 E2.62153
G1 X218.587 Y202.188 E2.64756
G1 X218.182 Y201.864 E2.67358
G1 X217.848 Y201.467 E2.69961
G1 X217.6 Y201.012 E2.72564
G1 X217.451 Y200.526 E2.75112
G1 X217.399 Y200.115 E2.77194
G1 X217.425 Y199.612 E2.79722
G1 X217.521 Y199.234 E2.81676
G1 X217.87 Y199.261 F7800
G1 F1800
G1 X218.074 Y198.823 E2.84102
G1 X218.345 Y198.464 E2.86358
G1 X218.682 Y198.167 E2.88615
G1 X219.071 Y197.942 E2.90871
G1 X219.498 Y197.799 E2.93127
G1 X219.944 Y197.743 E2.95384
G1 X220.385 Y197.776 E2.97606
G1 X220.729 Y197.864 E2.99384
G1 X221.129 Y198.045 E3.01589
G1 X221.494 Y198.307 E3.03845
G1 X221.8 Y198.637 E3.06101
G1 X222.034 Y199.02 E3.08357
G1 X222.188 Y199.443 E3.10613
G1 X222.255 Y199.887 E3.1287
G1 X222.232 Y200.336 E3.15126
G1 X222.122 Y200.772 E3.17382
G1 X221.926 Y201.177 E3.19638
G1 X221.655 Y201.536 E3.21895
G1 X221.318 Y201.833 E3.24151
G1 X220.929 Y202.058 E3.26407
G1 X220.502 Y202.201 E3.28664
G1 X220.056 Y202.257 E3.3092
G1 X219.608 Y202.223 E3.33176
G1 X219.175 Y202.102 E3.35432
G1 X218.775 Y201.896 E3.37688
G1 X218.424 Y201.616 E3.39945
G1 X218.135 Y201.272 E3.42201
G1 X217.92 Y200.877 E3.44457
G1 X217.789 Y200.454 E3.4668
G1 X217.745 Y200.102 E3.48458
G1 X217.768 Y199.663 E3.50663
G1 X217.855 Y199.319 E3.52444
G1 X218.204 Y199.346 F7800
;TYPE:External perimeter
G1 F1800
G1 X218.369 Y199.004 E3.54354
G1 X218.599 Y198.7 E3.56264
G1 X218.884 Y198.448 E3.58174
G1 X219.214 Y198.258 E3.60084
G1 X219.575 Y198.137 E3.61993
G1 X219.952 Y198.09 E3.63903
G1 X220.329 Y198.118 E3.658
G1 X220.614 Y198.191 E3.67275
G1 X220.956 Y198.345 E3.69156
G1 X221.265 Y198.567 E3.71066
G1 X221.523 Y198.846 E3.72976
G1 X221.722 Y199.171 E3.74886
G1 X221.852 Y199.528 E3.76796
G1 X221.909 Y199.905 E3.78705
G1 X221.89 Y200.285 E3.80615
G1 X221.796 Y200.654 E3.82525
G1 X221.631 Y200.996 E3.84435
G1 X221.401 Y201.3 E3.86345
G1 X221.116 Y201.552 E3.88255
G1 X220.786 Y201.742 E3.90165
G1 X220.425 Y201.863 E3.92074
G1 X220.048 Y201.91 E3.93984
G1 X219.668 Y201.882 E3.95894
G1 X219.302 Y201.779 E3.97804
G1 X218.963 Y201.605 E3.99714
G1 X218.666 Y201.368 E4.01624
G1 X218.421 Y201.077 E4.03534
G1 X218.239 Y200.742 E4.05443
G1 X218.128 Y200.381 E4.07341
G1 X218.091 Y200.089 E4.08815
G1 X218.11 Y199.715 E4.10697
G1 X218.189 Y199.405 E4.12305
G1 X217.96 Y199.055 F7800
G1 E2.12305 F2400
G92 E0
G1 X182.591 Y199.802 F7800
G1 E2 F2400
;TYPE:Perimeter
G1 F1800
G1 X182.575 Y200.388 E2.02943
G1 X182.447 Y200.891 E2.05546
G1 X182.222 Y201.358 E2.08148
G1 X181.909 Y201.771 E2.10751
G1 X181.52 Y202.115 E2.13354
G1 X181.071 Y202.374 E2.15956
G1 X180.579 Y202.539 E2.18559
G1 X180.065 Y202.603 E2.21162
G1 X179.548 Y202.565 E2.23764
G1 X179.049 Y202.424 E2.26367
G1 X178.587 Y202.188 E2.2897
G1 X178.182 Y201.864 E2.31572
G1 X177.848 Y201.467 E2.34175
G1 X177.6 Y201.012 E2.36778
G1 X177.451 Y200.526 E2.39326
G1 X177.399 Y200.115 E2.41408
G1 X177.425 Y199.612 E2.43936
G1 X177.553 Y199.109 E2.46537
G1 X177.778 Y198.642 E2.4914
G1 X178.091 Y198.229 E2.51742
G1 X178.48 Y197.885 E2.54345
G1 X178.929 Y197.626 E2.56948
G1 X179.42 Y197.461 E2.5955
G1 X179.935 Y197.397 E2.62153
G1 X180.441 Y197.434 E2.64702
G1 X180.843 Y197.537 E2.66783
G1 X181.302 Y197.745 E2.69312
G1 X181.723 Y198.047 E2.71913
G1 X182.076 Y198.428 E2.74515
G1 X182.346 Y198.87 E2.77118
G1 X182.524 Y199.357 E2.79721
G1 X182.582 Y199.743 E2.81676
G1 X182.25 Y199.853 F7800
G1 F1800
G1 X182.232 Y200.336 E2.84102
G1 X182.122 Y200.772 E2.86358
G1 X181.926 Y201.177 E2.88615
G1 X181.655 Y201.536 E2.90871
G1 X181.318 Y201.833 E2.93127
G1 X180.929 Y202.058 E2.95383
G1 X180.502 Y202.201 E2.9764
G1 X180.056 Y202.257 E2.99896
G1 X179.608 Y202.223 E3.02152
G1 X179.175 Y202.102 E3.04408
G1 X178.775 Y201.896 E3.06665
G1 X178.424 Y201.616 E3.08921
G1 X178.135 Y201.272 E3.11177
G1 X177.92 Y200.877 E3.13434
G1 X177.789 Y200.454 E3.15656
G1 X177.745 Y200.102 E3.17435
G1 X177.768 Y199.663 E3.19639
G1 X177.878 Y199.228 E3.21895
G1 X178.074 Y198.823 E3.24151
G1 X178.345 Y198.464 E3.26407
G1 X178.682 Y198.167 E3.28664
G1 X179.071 Y197.942 E3.3092
G1 X179.498 Y197.799 E3.33176
G1 X179.944 Y197.743 E3.35432
G1 X180.385 Y197.776 E3.37655
G1 X180.729 Y197.864 E3.39433
G1 X181.129 Y198.045 E3.41638
G1 X181.494 Y198.307 E3.43893
G1 X181.8 Y198.637 E3.4615
G1 X182.034 Y199.02 E3.48406
G1 X182.188 Y199.443 E3.50662
G1 X182.241 Y199.794 E3.52444
G1 X181.909 Y199.905 F7800
;TYPE:External perimeter
G1 F1800
G1 X181.89 Y200.285 E3.54354
G1 X181.796 Y200.654 E3.56264
G1 X181.631 Y200.996 E3.58174
G1 X181.401 Y201.3 E3.60084
G1 X181.116 Y201.552 E3.61993
G1 X180.786 Y201.742 E3.63903
G1 X180.425 Y201.863 E3.65813
G1 X180.048 Y201.91 E3.67723
G1 X179.668 Y201.882 E3.69633
G1 X179.302 Y201.779 E3.71543
G1 X178.963 Y201.605 E3.73453
G1 X178.666 Y201.368 E3.75362
G1 X178.421 Y201.077 E3.77272
G1 X178.239 Y200.742 E3.79182
G1 X178.128 Y200.381 E3.81079
G1 X178.091 Y200.089 E3.82554
G1 X178.11 Y199.715 E3.84435
G1 X178.204 Y199.346 E3.86345
G1 X178.369 Y199.004 E3.88255
G1 X178.599 Y198.7 E3.90164
G1 X178.884 Y198.448 E3.92074
G1 X179.214 Y198.258 E3.93984
G1 X179.575 Y198.137 E3.95894
G1 X179.952 Y198.09 E3.97804
G1 X180.329 Y198.118 E3.99701
G1 X180.614 Y198.191 E4.01176
G1 X180.956 Y198.345 E4.03057
G1 X181.265 Y198.567 E4.04967
G1 X181.523 Y198.846 E4.06876
G1 X181.722 Y199.171 E4.08786
G1 X181.852 Y199.528 E4.10696
G1 X181.9 Y199.845 E4.12305
G1 X182.247 Y200.078 F7800
G1 E2.12305 F2400
G92 E0
G1 X170.9 Y190.9 F7800
G1 E2 F2400
;TYPE:Perimeter
G1 F1800
G1 X229.1 Y190.9 E4.92084
G1 X229.1 Y209.1 E5.83425
G1 X170.9 Y209.1 E8.75509
G1 X170.9 Y190.96 E9.66549
G1 X170.555 Y190.555 F7800
G1 F1800
G1 X229.445 Y190.555 E12.62095
G1 X229.445 Y209.445 E13.56897
G1 X170.555 Y209.445 E16.52443
G1 X170.555 Y190.615 E17.46944
G1 X170.21 Y190.21 F7800
;TYPE:External perimeter
G1 F1800
G1 X229.79 Y190.21 E20.45952
G1 X229.79 Y209.79 E21.44216
G1 X170.21 Y209.79 E24.43224
G1 X170.21 Y190.27 E25.41186
G1 X170.608 Y190.252 F7800
G1 E23.41186 F2400
G92 E0
G1 X228.295 Y191.003 F7800
G1 E2 F2400
;TYPE:Solid infill
;WIDTH:0.422077
G1 F1800
G1 X228.842 Y191.55 E2.03901
G1 X228.842 Y192.04 E2.06379
G1 X227.96 Y191.158 E2.12676
G1 X227.469 Y191.158 E2.15153
G1 X228.842 Y192.531 E2.24953
G1 X228.842 Y193.022 E2.27431
G1 X226.978 Y191.158 E2.40735
G1 X226.488 Y191.158 E2.43212
G1 X228.842 Y193.512 E2.60019
G1 X228.842 Y194.003 E2.62497
G1 X225.997 Y191.158 E2.82808
G1 X225.506 Y191.158 E2.85285
G1 X228.842 Y194.494 E3.09099
G1 X228.842 Y194.984 E3.11577
G1 X225.016 Y191.158 E3.38895
G1 X224.525 Y191.158 E3.41372
G1 X228.842 Y195.475 E3.72194
G1 X228.842 Y195.966 E3.74671
G1 X224.034 Y191.158 E4.08996
G1 X223.544 Y191.158 E4.11473
G1 X228.842 Y196.456 E4.49302
G1 X228.842 Y196.947 E4.51779
G1 X223.053 Y191.158 E4.93111
G1 X222.562 Y191.158 E4.95589
G1 X228.842 Y197.438 E5.40424
G1 X228.842 Y197.929 E5.42902
G1 X222.071 Y191.158 E5.91241
G1 X221.581 Y191.158 E5.93718
G1 X228.842 Y198.419 E6.45561
G1 X228.842 Y198.91 E6.48038
G1 X221.09 Y191.158 E7.03385
G1 X220.599 Y191.158 E7.05862
G1 X228.842 Y199.401 E7.64712
G1 X228.842 Y199.891 E7.67189
G1 X220.109 Y191.158 E8.29543
G1 X219.618 Y191.158 E8.3202
G1 X228.842 Y200.382 E8.97877
G1 X228.842 Y200.873 E9.00354
G1 X219.127 Y191.158 E9.69714
G1 X218.637 Y191.158 E9.72192
G1 X228.842 Y201.363 E10.45056
G1 X228.842 Y201.854 E10.47533
G1 X218.146 Y191.158 E11.239
G1 X217.655 Y191.158 E11.26378
G1 X228.842 Y202.345 E12.06249
G1 X228.842 Y202.835 E12.08726
G1 X217.165 Y191.158 E12.92101
G1 X216.674 Y191.158 E12.94578
G1 X228.842 Y203.326 E13.81456
G1 X228.842 Y203.817 E13.83933
G1 X216.183 Y191.158 E14.74315
G1 X215.693 Y191.158 E14.76792
G1 X228.842 Y204.307 E15.70677
G1 X228.842 Y204.798 E15.73155
G1 X215.202 Y191.158 E16.70543
G1 X214.711 Y191.158 E16.73021
G1 X220.816 Y197.263 E17.1661
G1 X220.929 Y197.292 E17.172
G1 X221.432 Y197.52 E17.19988
G1 X221.895 Y197.852 E17.22866
G1 X222.283 Y198.271 E17.25745
G1 X222.581 Y198.757 E17.28625
G1 X222.735 Y199.183 E17.3091
G1 X228.842 Y205.289 E17.74509
G1 X228.842 Y205.779 E17.76986
G1 X222.85 Y199.788 E18.19765
G1 X222.84 Y200.269 E18.22192
G1 X228.842 Y206.27 E18.65043
G1 X228.842 Y206.761 E18.6752
G1 X222.766 Y200.686 E19.10898
G1 X222.691 Y200.98 E19.12429
G1 X222.652 Y201.062 E19.1289
G1 X228.842 Y207.252 E19.57085
G1 X228.842 Y207.742 E19.59562
G1 X222.492 Y201.393 E20.04896
G1 X222.444 Y201.493 E20.05459
G1 X222.297 Y201.688 E20.06691
G1 X228.842 Y208.233 E20.53422
G1 X228.842 Y208.724 E20.559
G1 X222.082 Y201.964 E21.04165
G1 X221.821 Y202.194 E21.0592
G1 X228.469 Y208.842 E21.53385
G1 X227.978 Y208.842 E21.55862
G1 X221.539 Y202.402 E22.01839
G1 X221.228 Y202.582 E22.03653
G1 X227.488 Y208.842 E22.48347
G1 X226.997 Y208.842 E22.50824
G1 X220.87 Y202.714 E22.94573
G1 X220.637 Y202.792 E22.9581
G1 X220.477 Y202.812 E22.96626
G1 X226.506 Y208.842 E23.39674
G1 X226.015 Y208.842 E23.42151
G1 X220.034 Y202.861 E23.84856
G1 X219.504 Y202.821 E23.87542
G1 X225.68 Y208.997 E24.31639
G1 E22.31639 F2400
G92 E0
G1 X214.065 Y191.003 F7800
G1 E2 F2400
G1 F1800
G1 X220.221 Y197.159 E2.4395
G1 X219.929 Y197.137 E2.45428
G1 X219.733 Y197.161 E2.46425
G1 X213.73 Y191.158 E2.89286
G1 X213.239 Y191.158 E2.91763
G1 X219.307 Y197.226 E3.35088
G1 X218.94 Y197.35 E3.37045
G1 X212.748 Y191.158 E3.81251
G1 X212.258 Y191.158 E3.83728
G1 X218.611 Y197.511 E4.29088
G1 X218.304 Y197.695 E4.30893
G1 X211.767 Y191.158 E4.77569
G1 X211.276 Y191.158 E4.80046
G1 X218.044 Y197.926 E5.28364
G1 X217.9 Y198.052 E5.29328
G1 X217.805 Y198.178 E5.30125
G1 X210.786 Y191.158 E5.80243
G1 X210.295 Y191.158 E5.82721
G1 X217.594 Y198.457 E6.34832
G1 X217.425 Y198.779 E6.36668
G1 X209.804 Y191.158 E6.91078
G1 X209.314 Y191.158 E6.93556
G1 X217.282 Y199.126 E7.50447
G1 X217.182 Y199.517 E7.52485
G1 X208.823 Y191.158 E8.12168
G1 X208.332 Y191.158 E8.14646
G1 X217.148 Y199.974 E8.77588
G1 X217.14 Y200.124 E8.78348
G1 X217.187 Y200.504 E8.8028
G1 X207.842 Y191.158 E9.47008
G1 X207.351 Y191.158 E9.49485
G1 X217.427 Y201.235 E10.21431
G1 X217.633 Y201.613 E10.23608
G1 X218 Y202.05 E10.26488
G1 X218.446 Y202.406 E10.29368
G1 X218.759 Y202.566 E10.31143
G1 X225.034 Y208.842 E10.75948
G1 X224.543 Y208.842 E10.78425
G1 X206.86 Y191.158 E12.04685
G1 X206.37 Y191.158 E12.07162
G1 X224.053 Y208.842 E13.33421
G1 X223.562 Y208.842 E13.35899
G1 X205.879 Y191.158 E14.62158
G1 X205.388 Y191.158 E14.64636
G1 X223.071 Y208.842 E15.90895
G1 X222.581 Y208.842 E15.93372
G1 X204.898 Y191.158 E17.19631
G1 X204.407 Y191.158 E17.22109
G1 X222.09 Y208.842 E18.48368
G1 X221.599 Y208.842 E18.50846
G1 X203.916 Y191.158 E19.77105
G1 X203.425 Y191.158 E19.79582
G1 X221.109 Y208.842 E21.05842
G1 X220.618 Y208.842 E21.08319
G1 X202.935 Y191.158 E22.34578
G1 X202.444 Y191.158 E22.37056
G1 X220.127 Y208.842 E23.63315
G1 X219.637 Y208.842 E23.65792
G1 X201.953 Y191.158 E24.92052
G1 X201.463 Y191.158 E24.94529
G1 X219.146 Y208.842 E26.20788
G1 X218.655 Y208.842 E26.23266
G1 X200.972 Y191.158 E27.49525
G1 X200.481 Y191.158 E27.52002
G1 X218.165 Y208.842 E28.78262
G1 X217.674 Y208.842 E28.80739
G1 X199.991 Y191.158 E30.06998
G1 X199.5 Y191.158 E30.09476
G1 X217.183 Y208.842 E31.35735
G1 X216.692 Y208.842 E31.38212
G1 X199.009 Y191.158 E32.64472
G1 X198.519 Y191.158 E32.66949
G1 X216.202 Y208.842 E33.93208
G1 X215.711 Y208.842 E33.95686
G1 X198.028 Y191.158 E35.21945
G1 X197.537 Y191.158 E35.24422
G1 X215.22 Y208.842 E36.50682
G1 X214.73 Y208.842 E36.53159
G1 X197.047 Y191.158 E37.79418
G1 X196.556 Y191.158 E37.81896
G1 X214.239 Y208.842 E39.08155
G1 X213.748 Y208.842 E39.10632
G1 X196.065 Y191.158 E40.36892
G1 X195.575 Y191.158 E40.39369
G1 X213.258 Y208.842 E41.65628
G1 X212.767 Y208.842 E41.68106
G1 X195.084 Y191.158 E42.94365
G1 X194.593 Y191.158 E42.96842
G1 X212.276 Y208.842 E44.23102
G1 X211.786 Y208.842 E44.25579
G1 X194.102 Y191.158 E45.51838
G1 X193.612 Y191.158 E45.54316
G1 X211.295 Y208.842 E46.80575
G1 X210.804 Y208.842 E46.83052
G1 X193.121 Y191.158 E48.09312
G1 X192.63 Y191.158 E48.11789
G1 X210.314 Y208.842 E49.38048
G1 X209.823 Y208.842 E49.40526
G1 X192.14 Y191.158 E50.66785
G1 X191.649 Y191.158 E50.69262
G1 X209.332 Y208.842 E51.95522
G1 X208.842 Y208.842 E51.97999
G1 X191.158 Y191.158 E53.24258
G1 X190.668 Y191.158 E53.26736
G1 X208.351 Y208.842 E54.52995
G1 X207.86 Y208.842 E54.55472
G1 X190.177 Y191.158 E55.81732
G1 X189.686 Y191.158 E55.84209
G1 X207.369 Y208.842 E57.10468
G1 X206.879 Y208.842 E57.12946
G1 X189.196 Y191.158 E58.39205
G1 X188.705 Y191.158 E58.41682
G1 X206.388 Y208.842 E59.67942
G1 X205.897 Y208.842 E59.70419
G1 X188.214 Y191.158 E60.96678
G1 X187.724 Y191.158 E60.99156
G1 X205.407 Y208.842 E62.25415
G1 X204.916 Y208.842 E62.27893
G1 X187.233 Y191.158 E63.54152
G1 X186.742 Y191.158 E63.56629
G1 X204.425 Y208.842 E64.82889
G1 X203.935 Y208.842 E64.85366
G1 X186.252 Y191.158 E66.11625
G1 X185.761 Y191.158 E66.14103
G1 X203.444 Y208.842 E67.40362
G1 X202.953 Y208.842 E67.42839
G1 X185.27 Y191.158 E68.69099
G1 X184.779 Y191.158 E68.71576
G1 X202.463 Y208.842 E69.97835
G1 X201.972 Y208.842 E70.00313
G1 X184.289 Y191.158 E71.26572
G1 X183.798 Y191.158 E71.29049
G1 X201.481 Y208.842 E72.55309
G1 X200.991 Y208.842 E72.57786
G1 X183.307 Y191.158 E73.84045
G1 X182.817 Y191.158 E73.86523
G1 X200.5 Y208.842 E75.12782
G1 X200.009 Y208.842 E75.15259
G1 X182.326 Y191.158 E76.41519
G1 X181.835 Y191.158 E76.43996
G1 X199.519 Y208.842 E77.70255
G1 X199.028 Y208.842 E77.72733
G1 X181.345 Y191.158 E78.98992
G1 X180.854 Y191.158 E79.01469
G1 X198.537 Y208.842 E80.27729
G1 X198.046 Y208.842 E80.30206
G1 X180.363 Y191.158 E81.56465
G1 X179.873 Y191.158 E81.58943
G1 X197.556 Y208.842 E82.85202
G1 X197.065 Y208.842 E82.87679
G1 X179.382 Y191.158 E84.13939
G1 X178.891 Y191.158 E84.16416
G1 X196.574 Y208.842 E85.42675
G1 X196.084 Y208.842 E85.45153
G1 X178.401 Y191.158 E86.71412
G1 X177.91 Y191.158 E86.73889
G1 X195.593 Y208.842 E88.00149
G1 X195.102 Y208.842 E88.02626
G1 X177.419 Y191.158 E89.28885
